pictu/PRESTON CHEN 10 CINEMATIC FREE LUT PACK/10. CITY STEEL LUT.cube
TITLE "ColorFinale Export"
# Created by Jake Irish on 2020-04-07 12:38:26 +0000
# Color Finale Plugin v.2.0.52 (390)
DOMAIN_MIN 0.0000 0.0000 0.0000
DOMAIN_MAX 0.9258 0.9031 0.9014
LUT_3D_SIZE 5
0.0000 0.0000 0.0000
0.1628 0.0467 0.0290
0.6071 0.2187 0.1846
0.8165 0.3698 0.3273
0.8383 0.3759 0.3338
0.0000 0.0529 0.0030
0.1341 0.0916 0.0242
0.6176 0.2701 0.1992
0.8239 0.4043 0.3346
0.8437 0.4093 0.3378
0.2129 0.3750 0.2520
0.2819 0.4069 0.2753
0.7062 0.4918 0.2706
0.8733 0.5713 0.3709
0.8989 0.5784 0.3747
0.5095 0.7340 0.5265
0.5348 0.7504 0.5380
0.6656 0.7770 0.5506
0.8897 0.7934 0.5120
0.9258 0.7966 0.5131
0.5766 0.8274 0.5876
0.5919 0.8291 0.5894
0.6882 0.8439 0.6020
0.8801 0.8735 0.5874
0.9258 0.8649 0.5701
0.0000 0.0000 0.0562
0.0945 0.0030 0.0670
0.5646 0.1869 0.1960
0.8122 0.3630 0.3420
0.8382 0.3757 0.3494
0.0000 0.0615 0.0731
0.0646 0.0786 0.0850
0.5974 0.2525 0.2181
0.8255 0.4055 0.3600
0.8463 0.4137 0.3646
0.1926 0.3769 0.2810
0.2588 0.4130 0.3143
0.7025 0.5001 0.2921
0.8764 0.5753 0.3915
0.9004 0.5823 0.3984
0.5077 0.7368 0.5395
0.5343 0.7538 0.5526
0.6670 0.7822 0.5699
0.8911 0.7983 0.5296
0.9258 0.8006 0.5296
0.5759 0.8275 0.5990
0.5920 0.8297 0.6037
0.6890 0.8453 0.6167
0.8800 0.8740 0.6001
0.9258 0.8663 0.5842
0.0223 0.0785 0.2770
0.0722 0.0707 0.2623
0.4370 0.1449 0.2836
0.7540 0.3274 0.4093
0.8234 0.3739 0.4424
0.0309 0.1342 0.2755
0.0814 0.1449 0.2871
0.4500 0.2128 0.3190
0.7890 0.3996 0.4564
0.8325 0.4273 0.4788
0.1697 0.3756 0.4162
0.2346 0.4183 0.4532
0.4727 0.4997 0.5014
0.8677 0.5887 0.5201
0.8960 0.6011 0.5334
0.4468 0.7233 0.6180
0.4718 0.7394 0.6337
0.6134 0.7697 0.6557
0.8896 0.8091 0.6370
0.9258 0.8142 0.6373
0.5464 0.8222 0.6725
0.5591 0.8231 0.6791
0.6725 0.8450 0.6939
0.8655 0.8792 0.6883
0.9258 0.8752 0.6615
0.0735 0.1340 0.4310
0.1235 0.1373 0.4349
0.2248 0.1515 0.4386
0.6576 0.3861 0.6083
0.7391 0.4364 0.6477
0.0984 0.1990 0.4646
0.1479 0.2135 0.4824
0.2574 0.2207 0.4871
0.6863 0.4491 0.6554
0.7387 0.4801 0.6816
0.2329 0.4274 0.5895
0.3003 0.4716 0.6243
0.4572 0.5210 0.6641
0.7327 0.6206 0.7337
0.7972 0.6439 0.7488
0.4516 0.7204 0.7351
0.4769 0.7373 0.7508
0.5833 0.7578 0.7687
0.7986 0.8110 0.8072
0.9035 0.8305 0.8087
0.5037 0.8059 0.7769
0.5207 0.8085 0.7839
0.6114 0.8245 0.7901
0.8011 0.8754 0.8179
0.9245 0.8978 0.8137
0.0794 0.1404 0.4504
0.1238 0.1436 0.4543
0.2250 0.1588 0.4684
0.6296 0.3961 0.6552
0.7174 0.4528 0.7000
0.1057 0.2038 0.4884
0.1526 0.2179 0.5035
0.2584 0.2255 0.5126
0.6714 0.4555 0.6867
0.7262 0.4888 0.7128
0.2541 0.4469 0.6329
0.3166 0.4861 0.6579
0.4608 0.5267 0.6914
0.7202 0.6185 0.7600
0.7783 0.6464 0.7802
0.4676 0.7263 0.7800
0.4898 0.7414 0.7888
0.5935 0.7602 0.8049
0.7801 0.8040 0.8461
0.8679 0.8306 0.8684
0.5121 0.8041 0.8180
0.5274 0.8069 0.8204
0.6165 0.8223 0.8326
0.7738 0.8619 0.8659
0.9015 0.9021 0.9014
