pictu/PRESTON CHEN 10 CINEMATIC FREE LUT PACK/10. CITY STEEL LUT.cube
TITLE "ColorFinale Export"
# Created by Jake Irish on 2020-04-07 12:38:26 +0000
# Color Finale Plugin v.2.0.52 (390)
DOMAIN_MIN 0.0000 0.0000 0.0000
DOMAIN_MAX 0.9258 0.9031 0.9014
LUT_3D_SIZE 9
0.0000 0.0000 0.0000
0.0000 0.0000 0.0000
0.1628 0.0467 0.0290
0.4050 0.1290 0.0995
0.6071 0.2187 0.1846
0.7489 0.3151 0.2726
0.8165 0.3698 0.3273
0.8327 0.3749 0.3327
0.8383 0.3759 0.3338
0.0000 0.0000 0.0000
0.0000 0.0000 0.0000
0.1266 0.0450 0.0169
0.3586 0.1247 0.0859
0.5822 0.2107 0.1724
0.7387 0.3160 0.2679
0.8153 0.3762 0.3280
0.8330 0.3813 0.3335
0.8388 0.3825 0.3345
0.0000 0.0529 0.0030
0.0000 0.0550 0.0002
0.1341 0.0916 0.0242
0.3852 0.1682 0.0964
0.6176 0.2701 0.1992
0.7624 0.3655 0.2925
0.8239 0.4043 0.3346
0.8371 0.4078 0.3369
0.8437 0.4093 0.3378
0.0564 0.1835 0.1017
0.0786 0.1908 0.1057
0.1752 0.2141 0.1104
0.4224 0.2542 0.1132
0.6380 0.3453 0.2196
0.7761 0.4409 0.3188
0.8412 0.4725 0.3459
0.8576 0.4787 0.3484
0.8644 0.4807 0.3493
0.2129 0.3750 0.2520
0.2323 0.3858 0.2603
0.2819 0.4069 0.2753
0.4622 0.4373 0.2547
0.7062 0.4918 0.2706
0.8138 0.5523 0.3501
0.8733 0.5713 0.3709
0.8931 0.5772 0.3740
0.8989 0.5784 0.3747
0.3852 0.5783 0.4141
0.4012 0.5885 0.4220
0.4248 0.6021 0.4324
0.5040 0.6207 0.4411
0.7043 0.6515 0.4060
0.8454 0.6728 0.4043
0.8975 0.6859 0.4227
0.9208 0.6971 0.4332
0.9258 0.6996 0.4355
0.5095 0.7340 0.5265
0.5213 0.7417 0.5319
0.5348 0.7504 0.5380
0.5821 0.7606 0.5457
0.6656 0.7770 0.5506
0.8167 0.7961 0.5274
0.8897 0.7934 0.5120
0.9208 0.7952 0.5113
0.9258 0.7966 0.5131
0.5667 0.8134 0.5785
0.5730 0.8141 0.5792
0.5816 0.8151 0.5802
0.6223 0.8200 0.5850
0.6849 0.8326 0.5944
0.7922 0.8539 0.5947
0.8883 0.8612 0.5752
0.9208 0.8546 0.5619
0.9258 0.8533 0.5592
0.5766 0.8274 0.5876
0.5829 0.8281 0.5884
0.5919 0.8291 0.5894
0.6323 0.8337 0.5940
0.6882 0.8439 0.6020
0.7760 0.8636 0.6067
0.8801 0.8735 0.5874
0.9207 0.8665 0.5738
0.9258 0.8649 0.5701
0.0000 0.0000 0.0000
0.0000 0.0000 0.0000
0.1402 0.0345 0.0395
0.3871 0.1242 0.1043
0.5979 0.2115 0.1848
0.7428 0.3098 0.2734
0.8152 0.3683 0.3314
0.8325 0.3746 0.3381
0.8383 0.3759 0.3395
0.0000 0.0000 0.0000
0.0000 0.0000 0.0000
0.1098 0.0346 0.0223
0.3462 0.1201 0.0889
0.5759 0.2060 0.1746
0.7347 0.3121 0.2700
0.8149 0.3751 0.3326
0.8329 0.3811 0.3389
0.8388 0.3825 0.3402
0.0000 0.0520 0.0161
0.0000 0.0542 0.0178
0.1260 0.0888 0.0324
0.3781 0.1663 0.1007
0.6150 0.2679 0.2032
0.7610 0.3624 0.2951
0.8242 0.4048 0.3402
0.8375 0.4088 0.3427
0.8443 0.4104 0.3437
0.0429 0.1832 0.1121
0.0684 0.1909 0.1162
0.1646 0.2156 0.1237
0.4182 0.2565 0.1179
0.6377 0.3459 0.2249
0.7768 0.4414 0.3238
0.8426 0.4740 0.3520
0.8583 0.4801 0.3544
0.8652 0.4823 0.3553
0.2064 0.3757 0.2606
0.2252 0.3870 0.2694
0.2763 0.4091 0.2852
0.4554 0.4409 0.2693
0.7071 0.4949 0.2760
0.8153 0.5539 0.3555
0.8746 0.5729 0.3771
0.8936 0.5787 0.3801
0.8995 0.5801 0.3809
0.3816 0.5797 0.4216
0.3980 0.5899 0.4295
0.4236 0.6044 0.4406
0.5033 0.6237 0.4509
0.7020 0.6545 0.4175
0.8466 0.6753 0.4117
0.8981 0.6880 0.4301
0.9208 0.6986 0.4401
0.9258 0.7012 0.4423
0.5085 0.7353 0.5329
0.5206 0.7430 0.5383
0.5347 0.7520 0.5446
0.5839 0.7630 0.5531
0.6664 0.7793 0.5592
0.8161 0.7980 0.5360
0.8903 0.7956 0.5199
0.9208 0.7971 0.5192
0.9258 0.7984 0.5206
0.5660 0.8133 0.5839
0.5725 0.8141 0.5847
0.5814 0.8152 0.5858
0.6235 0.8207 0.5912
0.6862 0.8335 0.6007
0.7924 0.8542 0.6010
0.8888 0.8614 0.5814
0.9208 0.8552 0.5685
0.9258 0.8539 0.5658
0.5763 0.8274 0.5931
0.5827 0.8282 0.5939
0.5920 0.8294 0.5951
0.6337 0.8346 0.6002
0.6887 0.8445 0.6082
0.7735 0.8635 0.6130
0.8800 0.8737 0.5937
0.9207 0.8672 0.5805
0.9258 0.8656 0.5768
0.0000 0.0000 0.0562
0.0000 0.0000 0.0527
0.0945 0.0030 0.0670
0.3309 0.1036 0.1254
0.5646 0.1869 0.1960
0.7259 0.2935 0.2801
0.8122 0.3630 0.3420
0.8321 0.3736 0.3497
0.8382 0.3757 0.3494
0.0000 0.0021 0.0574
0.0000 0.0000 0.0481
0.0656 0.0056 0.0506
0.2981 0.1016 0.1084
0.5527 0.1895 0.1865
0.7226 0.2996 0.2775
0.8134 0.3713 0.3442
0.8327 0.3804 0.3524
0.8391 0.3828 0.3532
0.0000 0.0615 0.0731
0.0000 0.0620 0.0735
0.0646 0.0786 0.0850
0.3361 0.1533 0.1208
0.5974 0.2525 0.2181
0.7516 0.3507 0.3075
0.8255 0.4055 0.3600
0.8393 0.4114 0.3636
0.8463 0.4137 0.3646
0.0000 0.1819 0.1476
0.0105 0.1900 0.1562
0.1161 0.2171 0.1745
0.3815 0.2631 0.1504
0.6299 0.3433 0.2409
0.7768 0.4385 0.3375
0.8454 0.4776 0.3714
0.8605 0.4839 0.3751
0.8675 0.4863 0.3771
0.1926 0.3769 0.2810
0.2105 0.3889 0.2930
0.2588 0.4130 0.3143
0.4205 0.4483 0.3154
0.7025 0.5001 0.2921
0.8178 0.5551 0.3669
0.8764 0.5753 0.3915
0.8945 0.5808 0.3963
0.9004 0.5823 0.3984
0.3770 0.5815 0.4313
0.3930 0.5919 0.4405
0.4186 0.6067 0.4547
0.4993 0.6273 0.4684
0.6945 0.6586 0.4395
0.8482 0.6786 0.4236
0.8990 0.6908 0.4409
0.9208 0.7006 0.4514
0.9258 0.7029 0.4547
0.5077 0.7368 0.5395
0.5198 0.7446 0.5452
0.5343 0.7538 0.5526
0.5856 0.7657 0.5625
0.6670 0.7822 0.5699
0.8153 0.8003 0.5462
0.8911 0.7983 0.5296
0.9208 0.7995 0.5280
0.9258 0.8006 0.5296
0.5653 0.8132 0.5893
0.5717 0.8141 0.5914
0.5809 0.8153 0.5936
0.6249 0.8219 0.6016
0.6877 0.8346 0.6104
0.7926 0.8547 0.6092
0.8893 0.8618 0.5886
0.9208 0.8560 0.5762
0.9258 0.8547 0.5733
0.5759 0.8275 0.5990
0.5822 0.8284 0.6012
0.5920 0.8297 0.6037
0.6351 0.8359 0.6116
0.6890 0.8453 0.6167
0.7712 0.8635 0.6196
0.8800 0.8740 0.6001
0.9207 0.8678 0.5871
0.9258 0.8663 0.5842
0.0000 0.0258 0.1640
0.0027 0.0226 0.1596
0.0452 0.0103 0.1444
0.2488 0.0691 0.1604
0.5083 0.1507 0.2156
0.6801 0.2489 0.2883
0.7928 0.3267 0.3510
0.8303 0.3658 0.3823
0.8400 0.3757 0.3893
0.0000 0.0431 0.1581
0.0000 0.0332 0.1468
0.0331 0.0200 0.1329
0.2142 0.0645 0.1433
0.4968 0.1542 0.2071
0.6797 0.2571 0.2873
0.7990 0.3400 0.3557
0.8330 0.3756 0.3860
0.8423 0.3848 0.3934
0.0000 0.0913 0.1642
0.0000 0.0925 0.1655
0.0413 0.0992 0.1723
0.2303 0.1316 0.1849
0.5422 0.2143 0.2323
0.7146 0.3150 0.3183
0.8252 0.3963 0.3865
0.8430 0.4132 0.4036
0.8510 0.4198 0.4098
0.0222 0.1906 0.2179
0.0349 0.1982 0.2264
0.0808 0.2210 0.2509
0.2358 0.2592 0.2678
0.5860 0.3329 0.2650
0.7649 0.4226 0.3542
0.8506 0.4841 0.4165
0.8652 0.4928 0.4251
0.8716 0.4958 0.4282
0.1691 0.3783 0.3458
0.1872 0.3913 0.3581
0.2319 0.4168 0.3811
0.3331 0.4467 0.3972
0.6304 0.5022 0.3717
0.8143 0.5457 0.3849
0.8771 0.5780 0.4372
0.8943 0.5841 0.4434
0.9000 0.5858 0.4453
0.3452 0.5786 0.4773
0.3602 0.5893 0.4880
0.3850 0.6040 0.5025
0.4594 0.6236 0.5164
0.6279 0.6606 0.5182
0.8370 0.6839 0.4782
0.8992 0.6946 0.4877
0.9208 0.7015 0.4938
0.9258 0.7036 0.4965
0.4899 0.7338 0.5694
0.5015 0.7416 0.5774
0.5159 0.7508 0.5868
0.5713 0.7644 0.5993
0.6552 0.7830 0.6110
0.8005 0.8024 0.5935
0.8915 0.8034 0.5705
0.9208 0.8051 0.5704
0.9258 0.8062 0.5723
0.5581 0.8120 0.6197
0.5639 0.8128 0.6232
0.5726 0.8141 0.6275
0.6198 0.8223 0.6373
0.6871 0.8369 0.6482
0.7835 0.8567 0.6505
0.8892 0.8637 0.6235
0.9208 0.8599 0.6120
0.9258 0.8584 0.6058
0.5707 0.8271 0.6305
0.5765 0.8279 0.6340
0.5866 0.8293 0.6382
0.6319 0.8371 0.6470
0.6886 0.8482 0.6532
0.7638 0.8651 0.6553
0.8769 0.8755 0.6310
0.9207 0.8705 0.6134
0.9258 0.8689 0.6088
0.0223 0.0785 0.2770
0.0378 0.0771 0.2740
0.0722 0.0707 0.2623
0.1146 0.0583 0.2398
0.4370 0.1449 0.2836
0.6316 0.2411 0.3389
0.7540 0.3274 0.4093
0.8068 0.3648 0.4383
0.8234 0.3739 0.4424
0.0205 0.0877 0.2668
0.0252 0.0809 0.2579
0.0596 0.0761 0.2494
0.0998 0.0635 0.2294
0.4203 0.1474 0.2730
0.6319 0.2479 0.3353
0.7620 0.3423 0.4167
0.8098 0.3764 0.4449
0.8255 0.3858 0.4506
0.0309 0.1342 0.2755
0.0398 0.1361 0.2773
0.0814 0.1449 0.2871
0.1260 0.1404 0.2800
0.4500 0.2128 0.3190
0.6614 0.3133 0.3792
0.7890 0.3996 0.4564
0.8184 0.4190 0.4730
0.8325 0.4273 0.4788
0.0585 0.2163 0.3117
0.0705 0.2238 0.3205
0.1152 0.2463 0.3459
0.1910 0.2693 0.3674
0.4457 0.3345 0.3915
0.6981 0.4249 0.4341
0.8301 0.4930 0.4925
0.8540 0.5090 0.5083
0.8643 0.5151 0.5143
0.1697 0.3756 0.4162
0.1887 0.3895 0.4284
0.2346 0.4183 0.4532
0.3206 0.4543 0.4805
0.4727 0.4997 0.5014
0.7400 0.5503 0.4938
0.8677 0.5887 0.5201
0.8895 0.5985 0.5305
0.8960 0.6011 0.5334
0.3268 0.5753 0.5378
0.3409 0.5854 0.5480
0.3636 0.5999 0.5622
0.4256 0.6179 0.5777
0.5360 0.6465 0.5912
0.7668 0.6849 0.5757
0.8942 0.6970 0.5586
0.9197 0.7026 0.5626
0.9250 0.7041 0.5640
0.4468 0.7233 0.6180
0.4582 0.7307 0.6253
0.4718 0.7394 0.6337
0.5229 0.7508 0.6434
0.6134 0.7697 0.6557
0.7558 0.8016 0.6658
0.8896 0.8091 0.6370
0.9208 0.8129 0.6357
0.9258 0.8142 0.6373
0.5284 0.8061 0.6642
0.5328 0.8063 0.6675
0.5398 0.8068 0.6711
0.5871 0.8135 0.6786
0.6661 0.8315 0.6919
0.7633 0.8577 0.7075
0.8825 0.8690 0.6866
0.9207 0.8668 0.6698
0.9258 0.8658 0.6637
0.5464 0.8222 0.6725
0.5509 0.8224 0.6756
0.5591 0.8231 0.6791
0.6058 0.8300 0.6855
0.6725 0.8450 0.6939
0.7534 0.8662 0.7034
0.8655 0.8792 0.6883
0.9207 0.8762 0.6657
0.9258 0.8752 0.6615
0.0567 0.1163 0.3768
0.0690 0.1159 0.3748
0.1060 0.1151 0.3701
0.1440 0.1086 0.3530
0.2883 0.1533 0.3863
0.5687 0.2677 0.4508
0.7015 0.3580 0.5179
0.7609 0.3975 0.5480
0.7775 0.4061 0.5517
0.0558 0.1232 0.3671
0.0616 0.1212 0.3621
0.0949 0.1212 0.3597
0.1376 0.1166 0.3479
0.2706 0.1538 0.3759
0.5676 0.2749 0.4499
0.7090 0.3732 0.5264
0.7618 0.4089 0.5554
0.7776 0.4178 0.5605
0.0715 0.1734 0.3848
0.0803 0.1760 0.3876
0.1208 0.1863 0.4001
0.1685 0.1850 0.3969
0.2977 0.2155 0.4193
0.5890 0.3348 0.4919
0.7311 0.4256 0.5651
0.7640 0.4468 0.5824
0.7788 0.4549 0.5876
0.1030 0.2546 0.4230
0.1151 0.2624 0.4321
0.1584 0.2848 0.4583
0.2260 0.3058 0.4793
0.3424 0.3341 0.4894
0.6024 0.4353 0.5452
0.7586 0.5134 0.6030
0.7899 0.5315 0.6185
0.8030 0.5382 0.6239
0.1917 0.3903 0.4982
0.2128 0.4053 0.5104
0.2608 0.4363 0.5354
0.3518 0.4779 0.5682
0.4507 0.5081 0.5893
0.6236 0.5643 0.6237
0.8005 0.6128 0.6428
0.8410 0.6284 0.6539
0.8530 0.6329 0.6574
0.3361 0.5742 0.5982
0.3525 0.5865 0.6094
0.3770 0.6030 0.6249
0.4426 0.6271 0.6469
0.5220 0.6465 0.6617
0.6603 0.6827 0.6819
0.8422 0.7085 0.6726
0.8913 0.7197 0.6775
0.9004 0.7221 0.6793
0.4298 0.7164 0.6749
0.4419 0.7243 0.6823
0.4564 0.7336 0.6910
0.5047 0.7458 0.7014
0.5740 0.7574 0.7094
0.6951 0.7880 0.7271
0.8581 0.8140 0.7234
0.9182 0.8209 0.7160
0.9255 0.8217 0.7148
0.4914 0.7968 0.7159
0.4976 0.7975 0.7195
0.5063 0.7986 0.7237
0.5512 0.8055 0.7307
0.6201 0.8190 0.7393
0.7291 0.8470 0.7565
0.8564 0.8743 0.7621
0.9207 0.8768 0.7415
0.9258 0.8757 0.7340
0.5043 0.8120 0.7221
0.5100 0.8126 0.7255
0.5190 0.8137 0.7293
0.5630 0.8207 0.7339
0.6255 0.8325 0.7376
0.7246 0.8569 0.7505
0.8389 0.8829 0.7585
0.9206 0.8852 0.7349
0.9258 0.8845 0.7310
0.0735 0.1340 0.4310
0.0846 0.1347 0.4318
0.1235 0.1373 0.4349
0.1685 0.1386 0.4321
0.2248 0.1515 0.4386
0.4901 0.2831 0.5369
0.6576 0.3861 0.6083
0.7234 0.4273 0.6411
0.7391 0.4364 0.6477
0.0776 0.1455 0.4360
0.0840 0.1449 0.4343
0.1168 0.1473 0.4362
0.1657 0.1496 0.4354
0.2190 0.1590 0.4392
0.4852 0.2910 0.5414
0.6646 0.4019 0.6201
0.7226 0.4386 0.6508
0.7380 0.4478 0.6580
0.0984 0.1990 0.4646
0.1075 0.2021 0.4686
0.1479 0.2135 0.4824
0.1999 0.2163 0.4861
0.2574 0.2207 0.4871
0.5098 0.3455 0.5791
0.6863 0.4491 0.6554
0.7237 0.4719 0.6748
0.7387 0.4801 0.6816
0.1416 0.2893 0.5214
0.1544 0.2974 0.5303
0.1969 0.3201 0.5507
0.2624 0.3406 0.5666
0.3311 0.3472 0.5686
0.5254 0.4338 0.6228
0.7082 0.5299 0.6924
0.7453 0.5496 0.7092
0.7594 0.5563 0.7148
0.2329 0.4274 0.5895
0.2538 0.4426 0.6015
0.3003 0.4716 0.6243
0.3847 0.5070 0.6518
0.4572 0.5210 0.6641
0.5754 0.5553 0.6883
0.7327 0.6206 0.7337
0.7832 0.6389 0.7451
0.7972 0.6439 0.7488
0.3695 0.5928 0.6724
0.3866 0.6052 0.6832
0.4107 0.6210 0.6974
0.4750 0.6443 0.7175
0.5413 0.6565 0.7284
0.6359 0.6785 0.7465
0.7656 0.7164 0.7727
0.8330 0.7329 0.7795
0.8457 0.7366 0.7814
0.4516 0.7204 0.7351
0.4634 0.7283 0.7424
0.4769 0.7373 0.7508
0.5232 0.7498 0.7621
0.5833 0.7578 0.7687
0.6680 0.7754 0.7819
0.7986 0.8110 0.8072
0.8910 0.8285 0.8090
0.9035 0.8305 0.8087
0.4957 0.7931 0.7716
0.5034 0.7943 0.7754
0.5130 0.7958 0.7797
0.5567 0.8032 0.7873
0.6156 0.8131 0.7938
0.6942 0.8326 0.8057
0.8147 0.8694 0.8271
0.9107 0.8883 0.8255
0.9219 0.8890 0.8197
0.5037 0.8059 0.7769
0.5112 0.8070 0.7805
0.5207 0.8085 0.7839
0.5610 0.8155 0.7881
0.6114 0.8245 0.7901
0.6845 0.8417 0.7982
0.8011 0.8754 0.8179
0.9133 0.8973 0.8182
0.9245 0.8978 0.8137
0.0764 0.1371 0.4407
0.0858 0.1378 0.4416
0.1237 0.1405 0.4447
0.1714 0.1445 0.4486
0.2244 0.1565 0.4594
0.4591 0.2785 0.5615
0.6354 0.3956 0.6465
0.7054 0.4400 0.6825
0.7209 0.4497 0.6905
0.0808 0.1487 0.4471
0.0882 0.1494 0.4479
0.1196 0.1523 0.4515
0.1712 0.1572 0.4569
0.2256 0.1674 0.4651
0.4591 0.2879 0.5650
0.6462 0.4110 0.6547
0.7075 0.4492 0.6858
0.7230 0.4587 0.6937
0.1032 0.2024 0.4795
0.1118 0.2054 0.4824
0.1507 0.2163 0.4944
0.2041 0.2206 0.5015
0.2578 0.2240 0.5038
0.4946 0.3427 0.5933
0.6756 0.4546 0.6777
0.7146 0.4779 0.6965
0.7297 0.4865 0.7038
0.1515 0.2976 0.5459
0.1634 0.3052 0.5519
0.2040 0.3269 0.5676
0.2692 0.3471 0.5831
0.3318 0.3512 0.5857
0.5135 0.4310 0.6372
0.6997 0.5339 0.7144
0.7364 0.5534 0.7284
0.7506 0.5602 0.7334
0.2503 0.4437 0.6237
0.2694 0.4568 0.6319
0.3127 0.4828 0.6490
0.3929 0.5149 0.6731
0.4607 0.5259 0.6845
0.5656 0.5526 0.7062
0.7231 0.6195 0.7545
0.7682 0.6408 0.7697
0.7819 0.6464 0.7730
0.3858 0.6054 0.7112
0.4011 0.6160 0.7180
0.4231 0.6299 0.7271
0.4846 0.6509 0.7434
0.5480 0.6611 0.7538
0.6322 0.6778 0.7711
0.7522 0.7122 0.7985
0.8095 0.7324 0.8130
0.8225 0.7366 0.8151
0.4658 0.7257 0.7740
0.4762 0.7329 0.7783
0.4880 0.7410 0.7831
0.5333 0.7529 0.7922
0.5921 0.7599 0.7993
0.6685 0.7733 0.8127
0.7825 0.8051 0.8411
0.8597 0.8303 0.8616
0.8734 0.8323 0.8621
0.5042 0.7927 0.8073
0.5113 0.7940 0.8084
0.5201 0.7956 0.8098
0.5631 0.8029 0.8158
0.6209 0.8124 0.8234
0.6915 0.8273 0.8360
0.7941 0.8604 0.8634
0.8932 0.8939 0.8927
0.9025 0.8954 0.8932
0.5111 0.8042 0.8129
0.5182 0.8055 0.8139
0.5268 0.8071 0.8152
0.5657 0.8138 0.8206
0.6166 0.8226 0.8274
0.6815 0.8347 0.8376
0.7770 0.8638 0.8616
0.8928 0.9014 0.8930
0.9040 0.9026 0.8914
0.0794 0.1404 0.4504
0.0878 0.1410 0.4512
0.1238 0.1436 0.4543
0.1725 0.1481 0.4591
0.2250 0.1588 0.4684
0.4452 0.2730 0.5655
0.6296 0.3961 0.6552
0.7018 0.4429 0.6919
0.7174 0.4528 0.7000
0.0839 0.1520 0.4569
0.0912 0.1526 0.4577
0.1208 0.1555 0.4613
0.1730 0.1608 0.4674
0.2275 0.1703 0.4749
0.4477 0.2839 0.5701
0.6415 0.4123 0.6638
0.7039 0.4521 0.6952
0.7195 0.4617 0.7031
0.1057 0.2038 0.4884
0.1144 0.2069 0.4914
0.1526 0.2179 0.5035
0.2061 0.2229 0.5114
0.2584 0.2255 0.5126
0.4851 0.3391 0.5985
0.6714 0.4555 0.6867
0.7110 0.4801 0.7056
0.7262 0.4888 0.7128
0.1550 0.3000 0.5554
0.1669 0.3078 0.5611
0.2073 0.3297 0.5763
0.2720 0.3496 0.5915
0.3311 0.3523 0.5936
0.5068 0.4284 0.6426
0.6972 0.5342 0.7216
0.7331 0.5542 0.7369
0.7468 0.5614 0.7414
0.2541 0.4469 0.6329
0.2733 0.4601 0.6410
0.3166 0.4861 0.6579
0.3954 0.5172 0.6813
0.4608 0.5267 0.6914
0.5616 0.5509 0.7115
0.7202 0.6185 0.7600
0.7654 0.6404 0.7761
0.7783 0.6464 0.7802
0.3884 0.6071 0.7187
0.4036 0.6177 0.7254
0.4258 0.6315 0.7344
0.4864 0.6519 0.7500
0.5492 0.6619 0.7601
0.6311 0.6774 0.7766
0.7493 0.7108 0.8036
0.8068 0.7314 0.8186
0.8188 0.7358 0.8213
0.4676 0.7263 0.7800
0.4779 0.7334 0.7841
0.4898 0.7414 0.7888
0.5349 0.7532 0.7979
0.5935 0.7602 0.8049
0.6685 0.7728 0.8178
0.7801 0.8040 0.8461
0.8566 0.8288 0.8668
0.8679 0.8306 0.8684
0.5054 0.7927 0.8126
0.5125 0.7940 0.8138
0.5213 0.7956 0.8151
0.5641 0.8030 0.8212
0.6213 0.8123 0.8286
0.6899 0.8262 0.8406
0.7890 0.8581 0.8672
0.8909 0.8930 0.8979
0.9009 0.8957 0.9002
0.5121 0.8041 0.8180
0.5192 0.8054 0.8192
0.5274 0.8069 0.8204
0.5652 0.8134 0.8256
0.6165 0.8223 0.8326
0.6806 0.8339 0.8424
0.7738 0.8619 0.8659
0.8893 0.9000 0.8994
0.9015 0.9021 0.9014
