pictu/PRESTON CHEN 10 CINEMATIC FREE LUT PACK/10. CITY STEEL LUT.cube
TITLE "ColorFinale Export"
# Created by Jake Irish on 2020-04-07 12:38:26 +0000
# Color Finale Plugin v.2.0.52 (390)
DOMAIN_MIN 0.0000 0.0000 0.0000
DOMAIN_MAX 0.9258 0.9031 0.9014
LUT_3D_SIZE 33
0.0000 0.0000 0.0000
0.0000 0.0000 0.0000
0.0000 0.0000 0.0000
0.0000 0.0000 0.0000
0.0000 0.0000 0.0000
0.0233 0.0000 0.0000
0.0638 0.0000 0.0000
0.1107 0.0223 0.0094
0.1628 0.0467 0.0290
0.2191 0.0699 0.0464
0.2792 0.0914 0.0629
0.3418 0.1115 0.0805
0.4050 0.1290 0.0995
0.4663 0.1444 0.1194
0.5181 0.1671 0.1403
0.5643 0.1925 0.1619
0.6071 0.2187 0.1846
0.6471 0.2447 0.2077
0.6846 0.2696 0.2303
0.7180 0.2942 0.2525
0.7489 0.3151 0.2726
0.7751 0.3352 0.2917
0.7931 0.3539 0.3102
0.8055 0.3637 0.3207
0.8165 0.3698 0.3273
0.8255 0.3732 0.3309
0.8297 0.3742 0.3320
0.8312 0.3745 0.3324
0.8327 0.3749 0.3327
0.8341 0.3752 0.3331
0.8355 0.3754 0.3333
0.8369 0.3757 0.3336
0.8383 0.3759 0.3338
0.0000 0.0000 0.0000
0.0000 0.0000 0.0000
0.0000 0.0000 0.0000
0.0000 0.0000 0.0000
0.0000 0.0000 0.0000
0.0164 0.0000 0.0000
0.0544 0.0000 0.0000
0.0984 0.0183 0.0043
0.1483 0.0425 0.0241
0.2032 0.0654 0.0418
0.2614 0.0875 0.0580
0.3242 0.1075 0.0756
0.3862 0.1262 0.0938
0.4482 0.1413 0.1136
0.5023 0.1606 0.1335
0.5476 0.1855 0.1543
0.5913 0.2104 0.1762
0.6318 0.2370 0.1993
0.6716 0.2624 0.2225
0.7070 0.2881 0.2457
0.7397 0.3109 0.2671
0.7677 0.3306 0.2860
0.7886 0.3512 0.3060
0.8025 0.3633 0.3186
0.8136 0.3701 0.3260
0.8240 0.3743 0.3306
0.8298 0.3758 0.3322
0.8313 0.3761 0.3325
0.8327 0.3765 0.3329
0.8342 0.3768 0.3332
0.8356 0.3770 0.3335
0.8369 0.3773 0.3337
0.8383 0.3775 0.3340
0.0000 0.0000 0.0000
0.0000 0.0000 0.0000
0.0000 0.0000 0.0000
0.0000 0.0000 0.0000
0.0000 0.0000 0.0000
0.0086 0.0000 0.0000
0.0447 0.0000 0.0000
0.0881 0.0153 0.0000
0.1358 0.0390 0.0197
0.1891 0.0618 0.0378
0.2458 0.0836 0.0539
0.3061 0.1034 0.0705
0.3664 0.1224 0.0880
0.4285 0.1379 0.1073
0.4866 0.1556 0.1275
0.5351 0.1806 0.1487
0.5811 0.2062 0.1712
0.6232 0.2335 0.1947
0.6641 0.2596 0.2186
0.7010 0.2858 0.2422
0.7346 0.3094 0.2643
0.7642 0.3289 0.2831
0.7864 0.3509 0.3043
0.8012 0.3642 0.3181
0.8126 0.3713 0.3258
0.8233 0.3757 0.3306
0.8299 0.3774 0.3324
0.8314 0.3778 0.3327
0.8328 0.3781 0.3331
0.8342 0.3784 0.3334
0.8356 0.3786 0.3337
0.8370 0.3789 0.3339
0.8384 0.3791 0.3341
0.0000 0.0000 0.0000
0.0000 0.0000 0.0000
0.0000 0.0000 0.0000
0.0000 0.0000 0.0000
0.0000 0.0000 0.0000
0.0046 0.0000 0.0000
0.0416 0.0000 0.0000
0.0824 0.0180 0.0000
0.1270 0.0382 0.0165
0.1767 0.0590 0.0340
0.2321 0.0806 0.0503
0.2925 0.1010 0.0668
0.3552 0.1212 0.0848
0.4195 0.1377 0.1046
0.4807 0.1545 0.1252
0.5306 0.1799 0.1469
0.5778 0.2060 0.1697
0.6208 0.2339 0.1938
0.6623 0.2604 0.2179
0.7000 0.2871 0.2420
0.7341 0.3110 0.2644
0.7642 0.3306 0.2832
0.7868 0.3534 0.3053
0.8020 0.3667 0.3192
0.8133 0.3734 0.3265
0.8237 0.3775 0.3309
0.8300 0.3790 0.3326
0.8315 0.3794 0.3329
0.8329 0.3797 0.3333
0.8343 0.3800 0.3336
0.8358 0.3803 0.3338
0.8372 0.3805 0.3341
0.8386 0.3808 0.3343
0.0000 0.0000 0.0000
0.0000 0.0000 0.0000
0.0000 0.0000 0.0000
0.0000 0.0000 0.0000
0.0000 0.0000 0.0000
0.0000 0.0000 0.0000
0.0397 0.0054 0.0000
0.0807 0.0247 0.0000
0.1266 0.0450 0.0169
0.1778 0.0652 0.0347
0.2338 0.0853 0.0509
0.2949 0.1046 0.0676
0.3586 0.1247 0.0859
0.4237 0.1408 0.1062
0.4848 0.1582 0.1271
0.5347 0.1841 0.1491
0.5822 0.2107 0.1724
0.6255 0.2390 0.1969
0.6674 0.2658 0.2215
0.7049 0.2927 0.2457
0.7387 0.3160 0.2679
0.7680 0.3363 0.2873
0.7896 0.3583 0.3089
0.8044 0.3703 0.3216
0.8153 0.3762 0.3280
0.8250 0.3795 0.3316
0.8301 0.3807 0.3328
0.8316 0.3810 0.3331
0.8330 0.3813 0.3335
0.8344 0.3816 0.3338
0.8359 0.3819 0.3340
0.8373 0.3822 0.3343
0.8388 0.3825 0.3345
0.0000 0.0000 0.0000
0.0000 0.0000 0.0000
0.0000 0.0000 0.0000
0.0000 0.0000 0.0000
0.0000 0.0000 0.0000
0.0000 0.0000 0.0000
0.0405 0.0154 0.0000
0.0827 0.0346 0.0000
0.1289 0.0542 0.0184
0.1815 0.0748 0.0363
0.2391 0.0952 0.0527
0.3022 0.1144 0.0701
0.3665 0.1333 0.0887
0.4325 0.1480 0.1094
0.4926 0.1657 0.1308
0.5424 0.1920 0.1533
0.5898 0.2188 0.1771
0.6327 0.2468 0.2018
0.6742 0.2732 0.2263
0.7108 0.2993 0.2502
0.7440 0.3216 0.2718
0.7719 0.3425 0.2918
0.7927 0.3635 0.3126
0.8069 0.3738 0.3238
0.8174 0.3788 0.3292
0.8263 0.3816 0.3322
0.8302 0.3824 0.3330
0.8317 0.3827 0.3333
0.8331 0.3830 0.3337
0.8345 0.3833 0.3340
0.8360 0.3836 0.3342
0.8375 0.3839 0.3344
0.8390 0.3843 0.3347
0.0000 0.0063 0.0000
0.0000 0.0039 0.0000
0.0000 0.0026 0.0000
0.0000 0.0020 0.0000
0.0000 0.0052 0.0000
0.0112 0.0161 0.0000
0.0442 0.0289 0.0000
0.0836 0.0451 0.0010
0.1294 0.0640 0.0193
0.1829 0.0846 0.0372
0.2420 0.1054 0.0541
0.3078 0.1253 0.0723
0.3753 0.1449 0.0921
0.4444 0.1604 0.1142
0.5036 0.1813 0.1369
0.5537 0.2077 0.1602
0.5997 0.2342 0.1844
0.6424 0.2605 0.2089
0.6823 0.2857 0.2330
0.7174 0.3097 0.2559
0.7495 0.3301 0.2764
0.7758 0.3514 0.2971
0.7956 0.3704 0.3166
0.8092 0.3787 0.3259
0.8194 0.3831 0.3305
0.8276 0.3853 0.3329
0.8304 0.3857 0.3335
0.8318 0.3860 0.3338
0.8332 0.3861 0.3340
0.8347 0.3864 0.3343
0.8362 0.3867 0.3345
0.8377 0.3869 0.3348
0.8393 0.3873 0.3350
0.0000 0.0291 0.0000
0.0000 0.0275 0.0000
0.0000 0.0262 0.0000
0.0000 0.0261 0.0000
0.0000 0.0287 0.0000
0.0195 0.0363 0.0000
0.0494 0.0455 0.0000
0.0856 0.0584 0.0047
0.1300 0.0757 0.0205
0.1840 0.0958 0.0382
0.2437 0.1164 0.0550
0.3120 0.1369 0.0741
0.3820 0.1567 0.0948
0.4533 0.1729 0.1181
0.5122 0.1972 0.1421
0.5642 0.2247 0.1670
0.6102 0.2530 0.1927
0.6537 0.2796 0.2181
0.6923 0.3056 0.2426
0.7269 0.3282 0.2650
0.7569 0.3466 0.2837
0.7803 0.3683 0.3059
0.7985 0.3824 0.3216
0.8116 0.3887 0.3289
0.8214 0.3920 0.3324
0.8293 0.3940 0.3343
0.8314 0.3943 0.3346
0.8329 0.3945 0.3349
0.8344 0.3946 0.3351
0.8359 0.3948 0.3353
0.8375 0.3950 0.3356
0.8391 0.3953 0.3358
0.8407 0.3955 0.3360
0.0000 0.0529 0.0030
0.0000 0.0518 0.0008
0.0000 0.0515 0.0000
0.0000 0.0522 0.0000
0.0000 0.0550 0.0002
0.0254 0.0602 0.0024
0.0558 0.0671 0.0063
0.0912 0.0770 0.0132
0.1341 0.0916 0.0242
0.1858 0.1094 0.0394
0.2455 0.1288 0.0560
0.3136 0.1485 0.0750
0.3852 0.1682 0.0964
0.4578 0.1852 0.1206
0.5174 0.2118 0.1458
0.5706 0.2404 0.1721
0.6176 0.2701 0.1992
0.6620 0.2975 0.2256
0.6999 0.3240 0.2505
0.7339 0.3455 0.2725
0.7624 0.3655 0.2925
0.7837 0.3856 0.3139
0.8007 0.3962 0.3263
0.8135 0.4009 0.3318
0.8239 0.4043 0.3346
0.8321 0.4068 0.3361
0.8338 0.4072 0.3364
0.8355 0.4075 0.3366
0.8371 0.4078 0.3369
0.8387 0.4082 0.3371
0.8404 0.4085 0.3373
0.8420 0.4089 0.3375
0.8437 0.4093 0.3378
0.0000 0.0790 0.0250
0.0000 0.0784 0.0236
0.0000 0.0787 0.0228
0.0000 0.0801 0.0229
0.0060 0.0830 0.0239
0.0309 0.0876 0.0251
0.0625 0.0935 0.0262
0.0985 0.1013 0.0277
0.1418 0.1125 0.0329
0.1924 0.1276 0.0433
0.2512 0.1450 0.0584
0.3169 0.1632 0.0765
0.3879 0.1805 0.0980
0.4598 0.1979 0.1225
0.5197 0.2254 0.1482
0.5738 0.2550 0.1756
0.6220 0.2856 0.2038
0.6669 0.3140 0.2313
0.7051 0.3407 0.2568
0.7387 0.3618 0.2783
0.7657 0.3849 0.3017
0.7855 0.4014 0.3201
0.8018 0.4097 0.3301
0.8156 0.4145 0.3345
0.8271 0.4187 0.3369
0.8357 0.4218 0.3383
0.8375 0.4222 0.3386
0.8392 0.4226 0.3388
0.8409 0.4230 0.3390
0.8425 0.4234 0.3392
0.8442 0.4238 0.3395
0.8460 0.4242 0.3397
0.8477 0.4247 0.3399
0.0000 0.1096 0.0468
0.0000 0.1091 0.0458
0.0071 0.1098 0.0456
0.0155 0.1114 0.0460
0.0247 0.1144 0.0475
0.0410 0.1186 0.0492
0.0722 0.1246 0.0503
0.1075 0.1315 0.0503
0.1516 0.1403 0.0501
0.2033 0.1521 0.0526
0.2615 0.1670 0.0627
0.3256 0.1836 0.0796
0.3959 0.1987 0.1014
0.4649 0.2148 0.1255
0.5227 0.2403 0.1511
0.5763 0.2695 0.1788
0.6248 0.3000 0.2073
0.6697 0.3291 0.2354
0.7082 0.3559 0.2614
0.7417 0.3779 0.2839
0.7674 0.4020 0.3084
0.7872 0.4170 0.3250
0.8042 0.4253 0.3335
0.8189 0.4305 0.3372
0.8312 0.4351 0.3395
0.8402 0.4385 0.3409
0.8422 0.4391 0.3412
0.8439 0.4395 0.3414
0.8456 0.4400 0.3416
0.8473 0.4403 0.3418
0.8490 0.4408 0.3420
0.8507 0.4413 0.3423
0.8524 0.4417 0.3425
0.0180 0.1443 0.0726
0.0243 0.1441 0.0719
0.0318 0.1451 0.0721
0.0397 0.1470 0.0730
0.0486 0.1505 0.0750
0.0598 0.1544 0.0770
0.0867 0.1603 0.0788
0.1195 0.1671 0.0796
0.1624 0.1747 0.0768
0.2151 0.1839 0.0726
0.2747 0.1952 0.0726
0.3392 0.2093 0.0850
0.4080 0.2236 0.1065
0.4744 0.2406 0.1309
0.5308 0.2647 0.1570
0.5817 0.2909 0.1840
0.6290 0.3180 0.2116
0.6724 0.3462 0.2394
0.7112 0.3722 0.2655
0.7450 0.3942 0.2872
0.7705 0.4202 0.3140
0.7908 0.4351 0.3296
0.8079 0.4429 0.3369
0.8231 0.4482 0.3403
0.8359 0.4530 0.3424
0.8451 0.4568 0.3439
0.8477 0.4576 0.3442
0.8494 0.4581 0.3445
0.8511 0.4586 0.3447
0.8528 0.4590 0.3449
0.8545 0.4595 0.3451
0.8562 0.4601 0.3454
0.8579 0.4605 0.3456
0.0564 0.1835 0.1017
0.0605 0.1834 0.1013
0.0656 0.1846 0.1018
0.0715 0.1869 0.1032
0.0786 0.1908 0.1057
0.0875 0.1948 0.1082
0.1068 0.2003 0.1108
0.1366 0.2072 0.1123
0.1752 0.2141 0.1104
0.2268 0.2214 0.1033
0.2869 0.2308 0.0947
0.3543 0.2413 0.0954
0.4224 0.2542 0.1132
0.4861 0.2725 0.1386
0.5425 0.2956 0.1656
0.5924 0.3205 0.1930
0.6380 0.3453 0.2196
0.6791 0.3709 0.2463
0.7172 0.3947 0.2714
0.7509 0.4165 0.2918
0.7761 0.4409 0.3188
0.7960 0.4552 0.3341
0.8128 0.4625 0.3406
0.8281 0.4677 0.3438
0.8412 0.4725 0.3459
0.8508 0.4764 0.3474
0.8542 0.4776 0.3479
0.8559 0.4781 0.3481
0.8576 0.4787 0.3484
0.8593 0.4792 0.3486
0.8610 0.4796 0.3488
0.8628 0.4802 0.3490
0.8644 0.4807 0.3493
0.0917 0.2265 0.1346
0.0953 0.2266 0.1343
0.1001 0.2281 0.1352
0.1054 0.2305 0.1367
0.1121 0.2347 0.1396
0.1193 0.2388 0.1425
0.1324 0.2438 0.1455
0.1597 0.2508 0.1483
0.1928 0.2578 0.1489
0.2395 0.2647 0.1430
0.2989 0.2726 0.1317
0.3656 0.2824 0.1204
0.4355 0.2935 0.1231
0.5005 0.3099 0.1483
0.5578 0.3312 0.1772
0.6078 0.3547 0.2053
0.6509 0.3785 0.2317
0.6901 0.4014 0.2569
0.7271 0.4224 0.2782
0.7599 0.4425 0.2979
0.7839 0.4646 0.3240
0.8028 0.4779 0.3388
0.8191 0.4848 0.3451
0.8344 0.4895 0.3482
0.8478 0.4940 0.3502
0.8575 0.4980 0.3517
0.8617 0.4995 0.3523
0.8634 0.5001 0.3526
0.8651 0.5006 0.3528
0.8667 0.5011 0.3530
0.8684 0.5015 0.3532
0.8700 0.5021 0.3534
0.8717 0.5026 0.3537
0.1293 0.2729 0.1705
0.1323 0.2730 0.1704
0.1365 0.2746 0.1715
0.1420 0.2776 0.1736
0.1487 0.2822 0.1770
0.1552 0.2865 0.1802
0.1648 0.2910 0.1833
0.1880 0.2978 0.1870
0.2172 0.3048 0.1891
0.2558 0.3121 0.1866
0.3111 0.3194 0.1774
0.3768 0.3283 0.1635
0.4476 0.3395 0.1524
0.5155 0.3531 0.1621
0.5745 0.3712 0.1906
0.6249 0.3928 0.2202
0.6671 0.4150 0.2471
0.7058 0.4353 0.2687
0.7419 0.4528 0.2848
0.7714 0.4715 0.3052
0.7932 0.4913 0.3303
0.8110 0.5030 0.3442
0.8270 0.5095 0.3506
0.8419 0.5138 0.3536
0.8553 0.5178 0.3555
0.8651 0.5216 0.3570
0.8700 0.5235 0.3577
0.8717 0.5240 0.3579
0.8733 0.5245 0.3581
0.8749 0.5250 0.3584
0.8765 0.5254 0.3586
0.8780 0.5258 0.3587
0.8796 0.5262 0.3589
0.1694 0.3227 0.2100
0.1722 0.3230 0.2101
0.1765 0.3248 0.2114
0.1820 0.3280 0.2137
0.1888 0.3328 0.2174
0.1952 0.3372 0.2208
0.2032 0.3413 0.2237
0.2212 0.3475 0.2277
0.2473 0.3546 0.2316
0.2787 0.3618 0.2320
0.3253 0.3694 0.2272
0.3866 0.3775 0.2147
0.4570 0.3878 0.1999
0.5268 0.3998 0.1918
0.5907 0.4148 0.2049
0.6416 0.4342 0.2360
0.6859 0.4534 0.2620
0.7253 0.4706 0.2789
0.7584 0.4862 0.2938
0.7842 0.5041 0.3165
0.8037 0.5212 0.3392
0.8204 0.5312 0.3514
0.8358 0.5370 0.3574
0.8503 0.5407 0.3602
0.8637 0.5437 0.3620
0.8739 0.5470 0.3636
0.8795 0.5489 0.3644
0.8812 0.5494 0.3647
0.8827 0.5498 0.3649
0.8843 0.5503 0.3651
0.8859 0.5506 0.3653
0.8874 0.5509 0.3655
0.8889 0.5512 0.3657
0.2129 0.3750 0.2520
0.2159 0.3754 0.2522
0.2201 0.3774 0.2537
0.2255 0.3807 0.2563
0.2323 0.3858 0.2603
0.2387 0.3905 0.2640
0.2456 0.3945 0.2671
0.2591 0.4001 0.2711
0.2819 0.4069 0.2753
0.3083 0.4137 0.2777
0.3450 0.4205 0.2753
0.3967 0.4280 0.2681
0.4622 0.4373 0.2547
0.5330 0.4481 0.2409
0.6001 0.4616 0.2383
0.6583 0.4765 0.2509
0.7062 0.4918 0.2706
0.7448 0.5070 0.2897
0.7752 0.5216 0.3069
0.7961 0.5388 0.3315
0.8138 0.5523 0.3501
0.8302 0.5606 0.3606
0.8455 0.5656 0.3662
0.8601 0.5687 0.3690
0.8733 0.5713 0.3709
0.8837 0.5742 0.3725
0.8900 0.5763 0.3735
0.8916 0.5768 0.3737
0.8931 0.5772 0.3740
0.8946 0.5776 0.3742
0.8960 0.5779 0.3743
0.8975 0.5782 0.3745
0.8989 0.5784 0.3747
0.2582 0.4285 0.2952
0.2609 0.4288 0.2954
0.2650 0.4310 0.2971
0.2704 0.4345 0.2999
0.2768 0.4395 0.3039
0.2829 0.4440 0.3074
0.2887 0.4477 0.3104
0.2986 0.4524 0.3139
0.3183 0.4587 0.3181
0.3412 0.4649 0.3215
0.3701 0.4710 0.3221
0.4106 0.4782 0.3190
0.4664 0.4864 0.3092
0.5332 0.4968 0.2965
0.6033 0.5085 0.2847
0.6695 0.5200 0.2776
0.7234 0.5321 0.2835
0.7624 0.5448 0.2998
0.7900 0.5577 0.3201
0.8075 0.5727 0.3472
0.8239 0.5827 0.3624
0.8396 0.5898 0.3715
0.8545 0.5947 0.3765
0.8689 0.5981 0.3794
0.8823 0.6006 0.3815
0.8933 0.6034 0.3833
0.9004 0.6057 0.3846
0.9020 0.6061 0.3848
0.9035 0.6065 0.3851
0.9050 0.6069 0.3853
0.9064 0.6072 0.3855
0.9079 0.6075 0.3857
0.9093 0.6078 0.3859
0.3024 0.4805 0.3370
0.3052 0.4813 0.3377
0.3091 0.4834 0.3393
0.3142 0.4868 0.3420
0.3205 0.4916 0.3458
0.3264 0.4959 0.3492
0.3314 0.4993 0.3519
0.3390 0.5032 0.3549
0.3550 0.5089 0.3590
0.3751 0.5146 0.3626
0.3984 0.5201 0.3647
0.4298 0.5264 0.3638
0.4736 0.5338 0.3601
0.5327 0.5430 0.3493
0.5998 0.5532 0.3350
0.6681 0.5635 0.3211
0.7269 0.5731 0.3150
0.7717 0.5825 0.3194
0.8024 0.5922 0.3329
0.8181 0.6045 0.3597
0.8326 0.6128 0.3748
0.8473 0.6187 0.3829
0.8622 0.6233 0.3878
0.8769 0.6270 0.3913
0.8905 0.6301 0.3938
0.9020 0.6332 0.3961
0.9097 0.6361 0.3980
0.9116 0.6367 0.3984
0.9131 0.6371 0.3987
0.9145 0.6376 0.3990
0.9160 0.6380 0.3993
0.9174 0.6384 0.3996
0.9188 0.6387 0.3998
0.3449 0.5305 0.3767
0.3476 0.5313 0.3773
0.3513 0.5333 0.3789
0.3562 0.5366 0.3815
0.3621 0.5412 0.3851
0.3676 0.5454 0.3883
0.3724 0.5487 0.3909
0.3784 0.5519 0.3934
0.3908 0.5567 0.3970
0.4086 0.5619 0.4006
0.4285 0.5667 0.4033
0.4531 0.5720 0.4047
0.4866 0.5784 0.4027
0.5345 0.5865 0.3973
0.5932 0.5957 0.3859
0.6577 0.6049 0.3708
0.7192 0.6135 0.3581
0.7699 0.6211 0.3529
0.8074 0.6275 0.3548
0.8267 0.6356 0.3723
0.8399 0.6426 0.3883
0.8536 0.6471 0.3959
0.8679 0.6511 0.4004
0.8822 0.6550 0.4041
0.8960 0.6587 0.4076
0.9081 0.6625 0.4109
0.9164 0.6661 0.4137
0.9189 0.6671 0.4145
0.9203 0.6677 0.4150
0.9216 0.6684 0.4155
0.9229 0.6688 0.4159
0.9242 0.6694 0.4164
0.9255 0.6698 0.4168
0.3852 0.5783 0.4141
0.3878 0.5791 0.4147
0.3913 0.5810 0.4162
0.3957 0.5841 0.4186
0.4012 0.5885 0.4220
0.4064 0.5924 0.4250
0.4106 0.5954 0.4273
0.4155 0.5983 0.4295
0.4248 0.6021 0.4324
0.4406 0.6068 0.4358
0.4582 0.6110 0.4384
0.4785 0.6153 0.4405
0.5040 0.6207 0.4411
0.5395 0.6269 0.4381
0.5883 0.6349 0.4316
0.6451 0.6434 0.4197
0.7043 0.6515 0.4060
0.7585 0.6584 0.3949
0.8009 0.6638 0.3900
0.8305 0.6678 0.3911
0.8454 0.6728 0.4043
0.8581 0.6759 0.4119
0.8712 0.6787 0.4159
0.8847 0.6820 0.4190
0.8975 0.6859 0.4227
0.9086 0.6901 0.4266
0.9163 0.6944 0.4308
0.9195 0.6963 0.4326
0.9208 0.6971 0.4332
0.9220 0.6978 0.4339
0.9233 0.6984 0.4344
0.9246 0.6991 0.4350
0.9258 0.6996 0.4355
0.4222 0.6227 0.4478
0.4245 0.6233 0.4483
0.4280 0.6253 0.4498
0.4322 0.6283 0.4521
0.4372 0.6322 0.4550
0.4419 0.6359 0.4578
0.4460 0.6387 0.4599
0.4498 0.6411 0.4617
0.4568 0.6441 0.4639
0.4703 0.6479 0.4668
0.4855 0.6514 0.4692
0.5027 0.6549 0.4712
0.5232 0.6591 0.4730
0.5500 0.6646 0.4728
0.5873 0.6712 0.4701
0.6348 0.6788 0.4629
0.6886 0.6866 0.4516
0.7418 0.6935 0.4398
0.7883 0.6989 0.4306
0.8247 0.7023 0.4247
0.8457 0.7039 0.4238
0.8583 0.7057 0.4307
0.8708 0.7068 0.4339
0.8832 0.7085 0.4355
0.8956 0.7116 0.4386
0.9071 0.7161 0.4437
0.9155 0.7211 0.4502
0.9194 0.7239 0.4540
0.9208 0.7247 0.4547
0.9220 0.7255 0.4554
0.9233 0.7262 0.4561
0.9246 0.7269 0.4567
0.9258 0.7276 0.4573
0.4551 0.6634 0.4777
0.4572 0.6640 0.4782
0.4602 0.6657 0.4795
0.4639 0.6683 0.4814
0.4683 0.6717 0.4839
0.4724 0.6749 0.4862
0.4761 0.6775 0.4880
0.4795 0.6797 0.4896
0.4852 0.6822 0.4915
0.4967 0.6857 0.4940
0.5105 0.6888 0.4962
0.5258 0.6916 0.4981
0.5435 0.6949 0.4999
0.5642 0.6994 0.5020
0.5923 0.7052 0.5016
0.6292 0.7118 0.4996
0.6752 0.7187 0.4917
0.7246 0.7257 0.4819
0.7720 0.7316 0.4719
0.8119 0.7353 0.4635
0.8411 0.7366 0.4565
0.8562 0.7368 0.4548
0.8687 0.7369 0.4595
0.8812 0.7367 0.4589
0.8937 0.7380 0.4601
0.9054 0.7417 0.4659
0.9146 0.7459 0.4705
0.9194 0.7492 0.4750
0.9208 0.7500 0.4758
0.9220 0.7508 0.4766
0.9233 0.7515 0.4772
0.9246 0.7521 0.4779
0.9258 0.7528 0.4785
0.4837 0.7000 0.5035
0.4858 0.7007 0.5040
0.4887 0.7023 0.5052
0.4922 0.7048 0.5069
0.4964 0.7081 0.5092
0.5003 0.7111 0.5113
0.5036 0.7133 0.5129
0.5067 0.7153 0.5143
0.5113 0.7175 0.5159
0.5207 0.7204 0.5180
0.5335 0.7234 0.5203
0.5474 0.7260 0.5221
0.5631 0.7286 0.5239
0.5809 0.7321 0.5260
0.6019 0.7368 0.5283
0.6308 0.7425 0.5272
0.6669 0.7486 0.5251
0.7097 0.7549 0.5183
0.7547 0.7608 0.5097
0.7963 0.7654 0.5011
0.8312 0.7678 0.4929
0.8538 0.7678 0.4855
0.8667 0.7675 0.4871
0.8792 0.7659 0.4857
0.8917 0.7651 0.4848
0.9037 0.7665 0.4871
0.9136 0.7693 0.4893
0.9194 0.7723 0.4932
0.9208 0.7730 0.4939
0.9220 0.7736 0.4944
0.9233 0.7742 0.4950
0.9246 0.7747 0.4955
0.9258 0.7752 0.4960
0.5095 0.7340 0.5265
0.5116 0.7347 0.5271
0.5142 0.7363 0.5281
0.5176 0.7386 0.5298
0.5213 0.7417 0.5319
0.5248 0.7443 0.5337
0.5279 0.7465 0.5352
0.5308 0.7484 0.5365
0.5348 0.7504 0.5380
0.5429 0.7530 0.5399
0.5549 0.7559 0.5421
0.5678 0.7584 0.5441
0.5821 0.7606 0.5457
0.5981 0.7633 0.5476
0.6158 0.7669 0.5499
0.6374 0.7717 0.5523
0.6656 0.7770 0.5506
0.7002 0.7826 0.5492
0.7401 0.7881 0.5431
0.7802 0.7929 0.5355
0.8167 0.7961 0.5274
0.8468 0.7972 0.5192
0.8647 0.7967 0.5141
0.8772 0.7959 0.5157
0.8897 0.7934 0.5120
0.9019 0.7919 0.5088
0.9126 0.7925 0.5076
0.9193 0.7946 0.5106
0.9208 0.7952 0.5113
0.9220 0.7957 0.5118
0.9233 0.7959 0.5122
0.9246 0.7963 0.5127
0.9258 0.7966 0.5131
0.5318 0.7647 0.5468
0.5339 0.7655 0.5474
0.5365 0.7670 0.5485
0.5396 0.7693 0.5500
0.5431 0.7721 0.5519
0.5463 0.7744 0.5535
0.5491 0.7762 0.5548
0.5518 0.7779 0.5559
0.5555 0.7796 0.5572
0.5631 0.7819 0.5589
0.5745 0.7845 0.5609
0.5867 0.7869 0.5628
0.6001 0.7889 0.5645
0.6147 0.7911 0.5662
0.6309 0.7940 0.5682
0.6491 0.7979 0.5708
0.6704 0.8026 0.5736
0.6987 0.8080 0.5720
0.7313 0.8131 0.5707
0.7677 0.8178 0.5651
0.8034 0.8214 0.5581
0.8358 0.8235 0.5504
0.8626 0.8238 0.5420
0.8757 0.8232 0.5403
0.8881 0.8213 0.5381
0.9004 0.8183 0.5332
0.9115 0.8169 0.5300
0.9190 0.8173 0.5296
0.9207 0.8177 0.5298
0.9220 0.8179 0.5299
0.9233 0.8180 0.5300
0.9246 0.8180 0.5299
0.9258 0.8181 0.5299
0.5503 0.7906 0.5637
0.5525 0.7914 0.5643
0.5550 0.7929 0.5654
0.5579 0.7948 0.5667
0.5609 0.7970 0.5681
0.5632 0.7982 0.5690
0.5654 0.7992 0.5697
0.5675 0.8001 0.5704
0.5711 0.8012 0.5712
0.5790 0.8028 0.5725
0.5897 0.8047 0.5741
0.6011 0.8066 0.5757
0.6137 0.8085 0.5773
0.6278 0.8106 0.5791
0.6430 0.8132 0.5811
0.6599 0.8168 0.5837
0.6790 0.8214 0.5870
0.7021 0.8267 0.5884
0.7302 0.8320 0.5873
0.7618 0.8369 0.5857
0.7955 0.8411 0.5807
0.8279 0.8443 0.5744
0.8565 0.8460 0.5673
0.8752 0.8459 0.5616
0.8876 0.8453 0.5614
0.8999 0.8428 0.5568
0.9113 0.8402 0.5523
0.9190 0.8392 0.5492
0.9207 0.8391 0.5487
0.9220 0.8390 0.5484
0.9233 0.8389 0.5481
0.9246 0.8387 0.5477
0.9258 0.8385 0.5473
0.5620 0.8068 0.5742
0.5639 0.8074 0.5747
0.5660 0.8083 0.5754
0.5683 0.8094 0.5761
0.5705 0.8106 0.5769
0.5721 0.8107 0.5771
0.5737 0.8110 0.5774
0.5753 0.8111 0.5775
0.5789 0.8115 0.5779
