pictu/PRESTON CHEN 10 CINEMATIC FREE LUT PACK/2. SAND DUNES LUT.cube
TITLE "ColorFinale Export"
# Created by Daniel Schiffer on 2018-08-07 22:07:15 +0000
# Color Finale Plugin v.1.8.2 (224)
DOMAIN_MIN 0.0 0.0 0.0
DOMAIN_MAX 1.0 1.0 1.0
LUT_3D_SIZE 5
0.0242 0.0480 0.0535
0.1259 0.0712 0.0675
0.5208 0.1579 0.0756
0.8650 0.2328 0.2035
0.9056 0.2422 0.2100
0.0423 0.1380 0.0505
0.1792 0.1123 0.0710
0.5666 0.1749 0.1029
0.8718 0.2406 0.2022
0.9076 0.2471 0.2086
0.0925 0.3414 0.0269
0.2511 0.3234 0.0479
0.6917 0.2866 0.1032
0.9167 0.3310 0.1774
0.9393 0.3218 0.1872
0.2044 0.6018 0.0102
0.3162 0.5697 0.0222
0.8808 0.5576 0.0597
0.9665 0.5042 0.1009
0.9695 0.4858 0.1043
0.2541 0.8149 0.0000
0.3452 0.8199 0.0001
0.8895 0.8752 0.0351
0.9922 0.7346 0.0678
0.9875 0.6672 0.0822
0.0038 0.0779 0.1366
0.1516 0.0843 0.1411
0.4999 0.1414 0.1149
0.8541 0.2278 0.2157
0.9032 0.2395 0.2196
0.0023 0.1306 0.1289
0.0977 0.1315 0.1300
0.4819 0.1616 0.0805
0.8597 0.2391 0.2093
0.9084 0.2487 0.2172
0.0886 0.3401 0.0436
0.1675 0.3630 0.0214
0.6626 0.3036 0.0930
0.9164 0.3528 0.1763
0.9477 0.3469 0.1877
0.1968 0.6057 0.0179
0.2385 0.6194 0.0096
0.7940 0.6623 0.0453
0.9677 0.5421 0.1023
0.9734 0.5290 0.1051
0.2455 0.8146 0.0046
0.2947 0.8270 0.0050
0.8187 0.8843 0.0439
0.9956 0.8077 0.0511
0.9936 0.7288 0.0839
0.0090 0.1670 0.3114
0.0401 0.1682 0.3206
0.6287 0.2218 0.3086
0.8987 0.2699 0.3372
0.9554 0.2738 0.3312
0.0071 0.1945 0.3029
0.0335 0.1964 0.3081
0.6012 0.2394 0.3057
0.8992 0.2810 0.3398
0.9567 0.2846 0.3364
0.0027 0.3439 0.3038
0.0125 0.3512 0.3108
0.4325 0.4020 0.3714
0.9002 0.3666 0.3349
0.9624 0.3514 0.3123
0.0916 0.5554 0.1583
0.1416 0.5938 0.1327
0.6269 0.6780 0.1233
0.9681 0.6146 0.2087
0.9783 0.6033 0.2273
0.2363 0.8191 0.0251
0.2726 0.8279 0.0243
0.6992 0.8849 0.0589
0.9880 0.8709 0.0677
0.9998 0.8198 0.0949
0.0136 0.2587 0.4866
0.0416 0.2590 0.4886
0.5171 0.3067 0.5371
0.9355 0.3751 0.6313
0.9633 0.3914 0.6426
0.0128 0.2932 0.4972
0.0356 0.2906 0.4963
0.4726 0.3189 0.5534
0.9390 0.3882 0.6422
0.9638 0.4037 0.6535
0.0038 0.3843 0.5016
0.0138 0.3917 0.5095
0.0914 0.4080 0.5639
0.9162 0.4628 0.6661
0.9628 0.4753 0.6442
0.0033 0.6298 0.5745
0.0133 0.6344 0.5781
0.0664 0.6494 0.5900
0.8449 0.7563 0.6949
0.9790 0.7370 0.6840
0.0065 0.8393 0.5376
0.0172 0.8404 0.5558
0.0795 0.8605 0.4202
0.9588 0.9087 0.4543
0.9976 0.8644 0.5378
0.0159 0.2765 0.5174
0.0428 0.2766 0.5184
0.4542 0.3152 0.6089
0.9333 0.3769 0.6832
0.9673 0.3975 0.7249
0.0148 0.3102 0.5295
0.0359 0.3058 0.5258
0.3607 0.3264 0.6348
0.9379 0.3880 0.6930
0.9690 0.4093 0.7335
0.0068 0.3955 0.5370
0.0163 0.3994 0.5423
0.0908 0.4171 0.5954
0.9076 0.4500 0.7495
0.9732 0.4895 0.7879
0.0033 0.6175 0.6203
0.0132 0.6242 0.6266
0.0641 0.6372 0.6458
0.6865 0.7269 0.8520
0.9640 0.7446 0.8478
0.0039 0.7415 0.6658
0.0144 0.7474 0.6704
0.0542 0.7653 0.6840
0.4990 0.8915 0.8595
0.9955 0.9195 0.8485
