pictu/PRESTON CHEN 10 CINEMATIC FREE LUT PACK/2. SAND DUNES LUT.cube
TITLE "ColorFinale Export"
# Created by Daniel Schiffer on 2018-08-07 22:07:15 +0000
# Color Finale Plugin v.1.8.2 (224)
DOMAIN_MIN 0.0 0.0 0.0
DOMAIN_MAX 1.0 1.0 1.0
LUT_3D_SIZE 9
0.0242 0.0480 0.0535
0.0464 0.0530 0.0570
0.1259 0.0712 0.0675
0.2829 0.1054 0.0482
0.5208 0.1579 0.0756
0.8030 0.2192 0.1922
0.8650 0.2328 0.2035
0.9056 0.2422 0.2100
0.9056 0.2422 0.2100
0.0284 0.0747 0.0539
0.0594 0.0675 0.0602
0.1437 0.0814 0.0719
0.3056 0.1122 0.0421
0.5498 0.1663 0.0927
0.8149 0.2230 0.1940
0.8673 0.2334 0.2038
0.9056 0.2422 0.2100
0.9056 0.2422 0.2100
0.0423 0.1380 0.0505
0.0732 0.1263 0.0549
0.1792 0.1123 0.0710
0.3415 0.1289 0.0350
0.5666 0.1749 0.1029
0.8211 0.2303 0.1935
0.8718 0.2406 0.2022
0.9081 0.2481 0.2083
0.9076 0.2471 0.2086
0.0692 0.2344 0.0435
0.0859 0.2308 0.0354
0.2360 0.1891 0.0203
0.3940 0.1865 0.0337
0.6084 0.2188 0.0979
0.8452 0.2596 0.1885
0.8804 0.2553 0.1992
0.9132 0.2594 0.2054
0.9125 0.2580 0.2055
0.0925 0.3414 0.0269
0.0994 0.3337 0.0181
0.2511 0.3234 0.0479
0.5011 0.2727 0.0338
0.6917 0.2866 0.1032
0.8848 0.3370 0.1668
0.9167 0.3310 0.1774
0.9415 0.3278 0.1856
0.9393 0.3218 0.1872
0.1453 0.4778 0.0000
0.1596 0.4664 0.0000
0.2950 0.4588 0.0248
0.5741 0.4641 0.0327
0.8120 0.3999 0.1043
0.9402 0.4128 0.1390
0.9550 0.4122 0.1414
0.9617 0.4136 0.1411
0.9611 0.4073 0.1448
0.2044 0.6018 0.0102
0.2152 0.5765 0.0089
0.3162 0.5697 0.0222
0.5953 0.5989 0.0338
0.8808 0.5576 0.0597
0.9577 0.5250 0.0950
0.9665 0.5042 0.1009
0.9705 0.4955 0.1026
0.9695 0.4858 0.1043
0.2419 0.7643 0.0000
0.2607 0.7612 0.0000
0.3276 0.7588 0.0000
0.6205 0.7668 0.0150
0.8835 0.7679 0.0351
0.9702 0.6394 0.0762
0.9774 0.6002 0.0821
0.9790 0.5829 0.0866
0.9780 0.5744 0.0877
0.2541 0.8149 0.0000
0.2745 0.8136 0.0000
0.3452 0.8199 0.0001
0.6401 0.8677 0.0342
0.8895 0.8752 0.0351
0.9829 0.8074 0.0360
0.9922 0.7346 0.0678
0.9900 0.6959 0.0796
0.9875 0.6672 0.0822
0.0164 0.0573 0.0807
0.0455 0.0580 0.0805
0.1277 0.0685 0.0816
0.2780 0.1049 0.0584
0.5102 0.1547 0.0756
0.7948 0.2168 0.1951
0.8612 0.2313 0.2064
0.9047 0.2414 0.2129
0.9052 0.2416 0.2126
0.0181 0.0742 0.0756
0.0351 0.0720 0.0746
0.1200 0.0798 0.0798
0.2738 0.1108 0.0632
0.5121 0.1592 0.0743
0.7951 0.2194 0.1941
0.8617 0.2327 0.2063
0.9027 0.2410 0.2129
0.9052 0.2415 0.2129
0.0381 0.1364 0.0587
0.0560 0.1401 0.0595
0.1608 0.1167 0.0751
0.3131 0.1290 0.0398
0.5296 0.1706 0.0828
0.7999 0.2264 0.1932
0.8668 0.2402 0.2050
0.9058 0.2484 0.2113
0.9084 0.2481 0.2116
0.0672 0.2343 0.0491
0.0784 0.2400 0.0438
0.1952 0.2139 0.0552
0.3758 0.1913 0.0339
0.5817 0.2182 0.0778
0.8250 0.2622 0.1858
0.8787 0.2607 0.2004
0.9121 0.2618 0.2082
0.9132 0.2593 0.2092
0.0912 0.3416 0.0313
0.0990 0.3472 0.0189
0.2177 0.3444 0.0349
0.4714 0.2938 0.0240
0.6812 0.2948 0.1004
0.8680 0.3403 0.1647
0.9170 0.3411 0.1769
0.9441 0.3390 0.1852
0.9429 0.3321 0.1876
0.1432 0.4805 0.0009
0.1613 0.4848 0.0011
0.2568 0.4737 0.0112
0.5344 0.4759 0.0276
0.7926 0.4104 0.0933
0.9358 0.4224 0.1332
0.9548 0.4214 0.1379
0.9630 0.4240 0.1362
0.9621 0.4175 0.1409
0.2019 0.6041 0.0107
0.2192 0.6131 0.0060
0.2767 0.5792 0.0149
0.5552 0.6014 0.0431
0.8526 0.6065 0.0533
0.9534 0.5359 0.0957
0.9670 0.5210 0.1013
0.9725 0.5158 0.1027
0.9714 0.5052 0.1044
0.2388 0.7644 0.0000
0.2574 0.7706 0.0000
0.2999 0.7657 0.0000
0.5805 0.7941 0.0153
0.8550 0.7810 0.0387
0.9669 0.6683 0.0715
0.9783 0.6175 0.0836
0.9804 0.5986 0.0879
0.9795 0.5896 0.0892
0.2508 0.8150 0.0000
0.2716 0.8205 0.0000
0.3175 0.8217 0.0001
0.5999 0.8653 0.0344
0.8608 0.8819 0.0376
0.9756 0.8600 0.0396
0.9942 0.7662 0.0589
0.9929 0.7237 0.0778
0.9898 0.6917 0.0861
0.0038 0.0779 0.1366
0.0213 0.0777 0.1361
0.1516 0.0843 0.1411
0.2885 0.1052 0.1275
0.4999 0.1414 0.1149
0.7715 0.2094 0.2084
0.8541 0.2278 0.2157
0.8961 0.2375 0.2200
0.9032 0.2395 0.2196
0.0025 0.0875 0.1308
0.0134 0.0890 0.1341
0.1406 0.0930 0.1382
0.2839 0.1084 0.1247
0.4974 0.1441 0.1133
0.7722 0.2122 0.2087
0.8560 0.2304 0.2151
0.8957 0.2386 0.2196
0.9030 0.2395 0.2206
0.0023 0.1306 0.1289
0.0087 0.1305 0.1294
0.0977 0.1315 0.1300
0.2635 0.1396 0.1163
0.4819 0.1616 0.0805
0.7535 0.2163 0.1947
0.8597 0.2391 0.2093
0.8981 0.2470 0.2155
0.9084 0.2487 0.2172
0.0597 0.2273 0.0716
0.0659 0.2309 0.0709
0.1416 0.2421 0.0654
0.3477 0.1965 0.0475
0.5379 0.2152 0.0684
0.7868 0.2612 0.1825
0.8761 0.2677 0.2022
0.9077 0.2665 0.2107
0.9163 0.2652 0.2131
0.0886 0.3401 0.0436
0.0957 0.3452 0.0333
0.1675 0.3630 0.0214
0.4256 0.3314 0.0157
0.6626 0.3036 0.0930
0.8360 0.3403 0.1598
0.9164 0.3528 0.1763
0.9425 0.3523 0.1838
0.9477 0.3469 0.1877
0.1388 0.4820 0.0075
0.1552 0.4855 0.0077
0.2068 0.4922 0.0080
0.4698 0.4863 0.0459
0.7704 0.4349 0.0795
0.9279 0.4386 0.1208
0.9553 0.4363 0.1299
0.9628 0.4359 0.1314
0.9641 0.4312 0.1340
0.1968 0.6057 0.0179
0.2145 0.6147 0.0133
0.2385 0.6194 0.0096
0.4993 0.6062 0.0721
0.7940 0.6623 0.0453
0.9462 0.5531 0.0964
0.9677 0.5421 0.1023
0.9740 0.5390 0.1035
0.9734 0.5290 0.1051
0.2342 0.7643 0.0054
0.2519 0.7701 0.0056
0.2788 0.7757 0.0059
0.5131 0.8079 0.0146
0.8035 0.8045 0.0447
0.9626 0.7299 0.0555
0.9798 0.6436 0.0887
0.9827 0.6201 0.0909
0.9816 0.6099 0.0910
0.2455 0.8146 0.0046
0.2657 0.8198 0.0048
0.2947 0.8270 0.0050
0.5384 0.8643 0.0379
0.8187 0.8843 0.0439
0.9651 0.8988 0.0457
0.9956 0.8077 0.0511
0.9970 0.7667 0.0683
0.9936 0.7288 0.0839
0.0062 0.1137 0.2130
0.0172 0.1144 0.2158
0.0622 0.1194 0.2308
0.3440 0.1430 0.2286
0.5610 0.1701 0.2031
0.7717 0.2124 0.2383
0.8620 0.2304 0.2482
0.8959 0.2367 0.2513
0.9073 0.2388 0.2522
0.0055 0.1223 0.2103
0.0138 0.1218 0.2116
0.0511 0.1263 0.2270
0.3426 0.1483 0.2280
0.5582 0.1746 0.2052
0.7687 0.2156 0.2368
0.8639 0.2336 0.2487
0.8962 0.2388 0.2521
0.9087 0.2406 0.2534
0.0026 0.1405 0.1964
0.0074 0.1431 0.2010
0.0327 0.1546 0.2172
0.3154 0.1697 0.2268
0.5279 0.1830 0.1915
0.7419 0.2160 0.2275
0.8617 0.2377 0.2464
0.8940 0.2432 0.2502
0.9090 0.2456 0.2521
0.0024 0.2215 0.2044
0.0066 0.2241 0.2054
0.0213 0.2291 0.2077
0.2217 0.2413 0.2289
0.4854 0.2318 0.1720
0.7176 0.2431 0.2067
0.8687 0.2660 0.2338
0.8979 0.2641 0.2388
0.9158 0.2651 0.2425
0.0693 0.3354 0.1179
0.0771 0.3350 0.1121
0.0918 0.3406 0.1062
0.3270 0.3668 0.1153
0.6056 0.3231 0.1116
0.7858 0.3430 0.1867
0.9174 0.3619 0.1963
0.9386 0.3604 0.1999
0.9520 0.3571 0.2046
0.1263 0.4825 0.0196
0.1406 0.4855 0.0186
0.1680 0.4880 0.0189
0.3867 0.4962 0.0808
0.7072 0.5026 0.0712
0.8972 0.4569 0.1270
0.9565 0.4653 0.1305
0.9625 0.4535 0.1300
0.9661 0.4506 0.1321
0.1874 0.6057 0.0285
0.2039 0.6143 0.0244
0.2271 0.6173 0.0199
0.4202 0.6383 0.0342
0.7359 0.6739 0.0523
0.9380 0.5881 0.0847
0.9687 0.5671 0.1040
0.9745 0.5622 0.1053
0.9759 0.5547 0.1068
0.2250 0.7656 0.0141
0.2433 0.7706 0.0145
0.2696 0.7751 0.0148
0.4259 0.8062 0.0154
0.7401 0.8352 0.0522
0.9507 0.8162 0.0540
0.9818 0.6804 0.0964
0.9847 0.6489 0.0983
0.9841 0.6377 0.0980
0.2391 0.8157 0.0135
0.2565 0.8205 0.0137
0.2854 0.8267 0.0140
0.4663 0.8567 0.0333
0.7639 0.8840 0.0514
0.9533 0.8902 0.0531
0.9940 0.8482 0.0554
0.9996 0.8151 0.0623
0.9988 0.7805 0.0700
0.0090 0.1670 0.3114
0.0187 0.1659 0.3110
0.0401 0.1682 0.3206
0.2541 0.1761 0.3623
0.6287 0.2218 0.3086
0.8469 0.2496 0.3348
0.8987 0.2699 0.3372
0.9363 0.2726 0.3333
0.9554 0.2738 0.3312
0.0087 0.1742 0.3093
0.0156 0.1732 0.3096
0.0386 0.1751 0.3198
0.2427 0.1833 0.3610
0.6221 0.2249 0.3074
0.8422 0.2533 0.3343
0.8983 0.2762 0.3404
0.9357 0.2792 0.3392
0.9558 0.2805 0.3381
0.0071 0.1945 0.3029
0.0113 0.1956 0.3048
0.0335 0.1964 0.3081
0.1633 0.2020 0.3561
0.6012 0.2394 0.3057
0.8221 0.2594 0.3314
0.8992 0.2810 0.3398
0.9342 0.2830 0.3368
0.9567 0.2846 0.3364
0.0025 0.2314 0.2840
0.0066 0.2342 0.2868
0.0199 0.2386 0.2930
0.0606 0.2604 0.3324
0.5683 0.2831 0.3165
0.7668 0.2907 0.3301
0.8998 0.3066 0.3368
0.9371 0.2986 0.3274
0.9591 0.2982 0.3269
0.0027 0.3439 0.3038
0.0068 0.3499 0.3095
0.0125 0.3512 0.3108
0.0498 0.3735 0.3267
0.4325 0.4020 0.3714
0.7019 0.3969 0.3343
0.9002 0.3666 0.3349
0.9464 0.3527 0.3179
0.9624 0.3514 0.3123
0.0053 0.4686 0.2323
0.0122 0.4679 0.2314
0.0257 0.4616 0.2243
0.1528 0.4827 0.1727
0.5838 0.5454 0.1859
0.8222 0.5050 0.2852
0.9541 0.5316 0.3009
0.9628 0.5163 0.2987
0.9670 0.5014 0.3039
0.0916 0.5554 0.1583
0.1107 0.5726 0.1498
0.1416 0.5938 0.1327
0.3006 0.6160 0.0880
0.6269 0.6780 0.1233
0.9118 0.6715 0.1050
0.9681 0.6146 0.2087
0.9753 0.6072 0.2176
0.9783 0.6033 0.2273
0.2135 0.7702 0.0323
0.2220 0.7726 0.0341
0.2450 0.7760 0.0333
0.3508 0.7884 0.0311
0.6557 0.8501 0.0615
0.9153 0.8402 0.0732
0.9817 0.7328 0.1030
0.9858 0.6935 0.1930
0.9869 0.6798 0.1833
0.2363 0.8191 0.0251
0.2447 0.8227 0.0245
0.2726 0.8279 0.0243
0.3943 0.8443 0.0311
0.6992 0.8849 0.0589
0.9316 0.8953 0.0628
0.9880 0.8709 0.0677
0.9992 0.8486 0.0787
0.9998 0.8198 0.0949
0.0118 0.2243 0.4250
0.0197 0.2239 0.4252
0.0414 0.2242 0.4285
0.0842 0.2371 0.4604
0.5616 0.2742 0.4239
0.8427 0.3074 0.4433
0.9519 0.3162 0.4478
0.9662 0.3232 0.4519
0.9747 0.3358 0.4626
0.0118 0.2306 0.4238
0.0174 0.2303 0.4243
0.0402 0.2287 0.4265
0.1014 0.2414 0.4615
0.5538 0.2785 0.4284
0.8419 0.3114 0.4429
0.9524 0.3214 0.4501
0.9663 0.3298 0.4582
0.9750 0.3426 0.4711
0.0107 0.2514 0.4191
0.0148 0.2541 0.4239
0.0353 0.2508 0.4214
0.0682 0.2536 0.4423
0.5268 0.2892 0.4359
0.8343 0.3206 0.4402
0.9538 0.3270 0.4493
0.9664 0.3342 0.4542
0.9750 0.3473 0.4672
0.0073 0.2742 0.3977
0.0113 0.2756 0.4000
0.0232 0.2776 0.4048
0.0598 0.2867 0.4240
0.4605 0.3072 0.4590
0.8011 0.3486 0.4386
0.9519 0.3618 0.4551
0.9672 0.3618 0.4541
0.9753 0.3698 0.4616
0.0026 0.3453 0.3963
0.0067 0.3525 0.4038
0.0121 0.3549 0.4067
0.0449 0.3699 0.4249
0.1346 0.4013 0.5090
0.7354 0.4290 0.4861
0.9204 0.4214 0.4762
0.9553 0.4195 0.4710
0.9687 0.4184 0.4683
0.0029 0.4892 0.4401
0.0071 0.4936 0.4436
0.0128 0.4960 0.4450
0.0329 0.5038 0.4502
0.0874 0.5464 0.4922
0.6591 0.5893 0.5602
0.8726 0.5932 0.5195
0.9576 0.5639 0.5015
0.9705 0.5430 0.4958
0.0049 0.6404 0.4039
0.0093 0.6373 0.4005
0.0151 0.6282 0.3940
0.0302 0.6077 0.3799
0.3076 0.6334 0.3274
0.7827 0.7260 0.3358
0.9559 0.6854 0.4486
0.9753 0.6826 0.4452
0.9808 0.6784 0.4486
0.0938 0.7529 0.2642
0.0935 0.7536 0.2665
0.1087 0.7542 0.2637
0.1480 0.7524 0.2437
0.4840 0.8645 0.1561
0.8059 0.8629 0.2397
0.9721 0.8105 0.1451
0.9852 0.7514 0.4091
0.9879 0.7407 0.4132
0.1744 0.8058 0.2119
0.1860 0.8073 0.2010
0.2050 0.8099 0.1754
0.2435 0.8236 0.1292
0.5746 0.8892 0.1174
0.8544 0.9042 0.1790
0.9749 0.9037 0.1902
0.9973 0.8475 0.2548
0.9997 0.8409 0.3168
0.0136 0.2587 0.4866
0.0198 0.2589 0.4866
0.0416 0.2590 0.4886
0.0724 0.2714 0.5133
0.5171 0.3067 0.5371
0.7867 0.3462 0.5655
0.9355 0.3751 0.6313
0.9546 0.3837 0.6440
0.9633 0.3914 0.6426
0.0136 0.2647 0.4878
0.0181 0.2648 0.4881
0.0405 0.2644 0.4888
0.0717 0.2760 0.5144
0.5070 0.3099 0.5418
0.7831 0.3505 0.5707
0.9372 0.3802 0.6362
0.9552 0.3888 0.6482
0.9636 0.3964 0.6449
0.0128 0.2932 0.4972
0.0167 0.2938 0.4985
0.0356 0.2906 0.4963
0.0683 0.2934 0.5116
0.4726 0.3189 0.5534
0.7714 0.3593 0.5775
0.9390 0.3882 0.6422
0.9558 0.3953 0.6526
0.9638 0.4037 0.6535
0.0106 0.3249 0.4964
0.0146 0.3264 0.4987
0.0249 0.3283 0.5044
0.0602 0.3304 0.5112
0.2168 0.3385 0.5882
0.7287 0.3815 0.5986
0.9379 0.4186 0.6575
0.9560 0.4218 0.6494
0.9631 0.4269 0.6429
0.0038 0.3843 0.5016
0.0079 0.3908 0.5069
0.0138 0.3917 0.5095
0.0462 0.3930 0.5184
0.0914 0.4080 0.5639
0.6392 0.4120 0.6505
0.9162 0.4628 0.6661
0.9549 0.4681 0.6468
0.9628 0.4753 0.6442
0.0028 0.4857 0.5278
0.0070 0.4910 0.5326
0.0126 0.4941 0.5359
0.0312 0.5008 0.5449
0.0806 0.5186 0.5696
0.3619 0.5699 0.7327
0.8630 0.5966 0.7036
0.9530 0.5888 0.6926
0.9620 0.5773 0.6838
0.0033 0.6298 0.5745
0.0075 0.6334 0.5773
0.0133 0.6344 0.5781
0.0210 0.6320 0.5761
0.0664 0.6494 0.5900
0.2006 0.7239 0.6731
0.8449 0.7563 0.6949
0.9641 0.7542 0.6957
0.9790 0.7370 0.6840
0.0050 0.7815 0.6042
0.0093 0.7826 0.6060
0.0155 0.7896 0.6059
0.0230 0.7945 0.5963
0.0667 0.8122 0.5583
0.4730 0.8895 0.4515
0.9154 0.8723 0.5285
0.9864 0.8216 0.5999
0.9908 0.8149 0.6119
0.0065 0.8393 0.5376
0.0111 0.8406 0.5448
0.0172 0.8404 0.5558
0.0249 0.8440 0.5274
0.0795 0.8605 0.4202
0.6859 0.9288 0.3906
0.9588 0.9087 0.4543
0.9948 0.8648 0.4710
0.9976 0.8644 0.5378
0.0148 0.2681 0.5028
0.0201 0.2682 0.5030
0.0419 0.2683 0.5042
0.0719 0.2800 0.5281
0.4966 0.3116 0.5733
0.7733 0.3506 0.6009
0.9349 0.3756 0.6548
0.9562 0.3850 0.6793
0.9657 0.3979 0.6926
0.0149 0.2737 0.5042
0.0193 0.2740 0.5043
0.0410 0.2732 0.5045
0.0716 0.2848 0.5284
0.4795 0.3148 0.5780
0.7709 0.3548 0.6042
0.9368 0.3804 0.6592
0.9573 0.3904 0.6843
0.9661 0.4027 0.6969
0.0137 0.3021 0.5141
0.0175 0.3024 0.5151
0.0354 0.2984 0.5119
0.0682 0.3014 0.5260
0.4329 0.3219 0.5949
0.7600 0.3625 0.6089
0.9394 0.3876 0.6654
0.9584 0.3973 0.6902
0.9668 0.4095 0.7022
0.0113 0.3361 0.5177
0.0152 0.3375 0.5200
0.0250 0.3393 0.5256
0.0600 0.3401 0.5297
0.1442 0.3476 0.6009
0.7219 0.3793 0.6331
0.9373 0.4156 0.6874
0.9620 0.4291 0.7150
0.9683 0.4379 0.7165
0.0056 0.3917 0.5216
0.0097 0.3954 0.5252
0.0152 0.3971 0.5290
0.0464 0.3959 0.5368
0.0908 0.4107 0.5805
0.5535 0.4109 0.7110
0.9136 0.4536 0.7210
0.9647 0.4754 0.7496
0.9704 0.4842 0.7406
0.0028 0.4981 0.5637
0.0070 0.5024 0.5677
0.0125 0.5063 0.5727
0.0306 0.5131 0.5831
0.0788 0.5276 0.6048
0.1487 0.5684 0.7434
0.8413 0.5572 0.7987
0.9624 0.5827 0.7933
0.9686 0.5827 0.7802
0.0033 0.6173 0.6097
0.0074 0.6215 0.6129
0.0132 0.6242 0.6159
0.0206 0.6235 0.6183
0.0644 0.6359 0.6345
0.1205 0.6678 0.6960
0.7306 0.7305 0.8279
0.9463 0.7442 0.8276
0.9625 0.7353 0.8237
0.0036 0.7177 0.6464
0.0079 0.7195 0.6478
0.0138 0.7226 0.6501
0.0212 0.7257 0.6525
0.0555 0.7424 0.6650
0.1129 0.7795 0.6922
0.5930 0.8696 0.8346
0.9695 0.8800 0.8083
0.9877 0.8739 0.8149
0.0051 0.7511 0.6527
0.0096 0.7535 0.6553
0.0157 0.7570 0.6576
0.0231 0.7629 0.6600
0.0623 0.7889 0.6743
0.1242 0.8500 0.7067
0.7331 0.9239 0.7351
0.9914 0.9008 0.7158
0.9961 0.9051 0.7925
0.0159 0.2765 0.5174
0.0209 0.2764 0.5174
0.0428 0.2766 0.5184
0.0727 0.2881 0.5410
0.4542 0.3152 0.6089
0.7683 0.3538 0.6296
0.9333 0.3769 0.6832
0.9582 0.3832 0.7001
0.9673 0.3975 0.7249
0.0160 0.2818 0.5187
0.0203 0.2821 0.5187
0.0418 0.2815 0.5187
0.0721 0.2927 0.5412
0.4388 0.3188 0.6136
0.7671 0.3577 0.6327
0.9354 0.3813 0.6879
0.9595 0.3884 0.7047
0.9681 0.4022 0.7281
0.0148 0.3102 0.5295
0.0186 0.3103 0.5298
0.0359 0.3058 0.5258
0.0685 0.3089 0.5387
0.3607 0.3264 0.6348
0.7566 0.3639 0.6380
0.9379 0.3880 0.6930
0.9609 0.3946 0.7095
0.9690 0.4093 0.7335
0.0119 0.3453 0.5347
0.0157 0.3465 0.5367
0.0253 0.3484 0.5421
0.0602 0.3490 0.5464
0.1224 0.3546 0.6116
0.7161 0.3781 0.6671
0.9349 0.4147 0.7154
0.9640 0.4250 0.7341
0.9716 0.4410 0.7560
0.0068 0.3955 0.5370
0.0107 0.3985 0.5400
0.0163 0.3994 0.5423
0.0467 0.4012 0.5527
0.0908 0.4171 0.5954
0.4886 0.4132 0.7348
0.9076 0.4500 0.7495
0.9670 0.4684 0.7735
0.9732 0.4895 0.7879
0.0029 0.5043 0.5786
0.0071 0.5088 0.5828
0.0126 0.5125 0.5872
0.0305 0.5194 0.5973
0.0785 0.5336 0.6185
0.1423 0.5679 0.7446
0.8182 0.5579 0.8261
0.9645 0.5721 0.8294
0.9709 0.5911 0.8213
0.0033 0.6175 0.6203
0.0074 0.6217 0.6236
0.0132 0.6242 0.6266
0.0205 0.6239 0.6290
0.0641 0.6372 0.6458
0.1198 0.6637 0.7008
0.6865 0.7269 0.8520
0.9509 0.7328 0.8496
0.9640 0.7446 0.8478
0.0036 0.7132 0.6547
0.0079 0.7153 0.6564
0.0139 0.7186 0.6590
0.0213 0.7219 0.6620
0.0557 0.7369 0.6742
0.1123 0.7658 0.6978
0.5467 0.8466 0.8598
0.9366 0.8815 0.8709
0.9775 0.8860 0.8726
0.0039 0.7415 0.6658
0.0082 0.7437 0.6676
0.0144 0.7474 0.6704
0.0218 0.7501 0.6726
0.0542 0.7653 0.6840
0.1121 0.8012 0.7093
0.4990 0.8915 0.8595
0.9523 0.9166 0.8460
0.9955 0.9195 0.8485
