pictu/PRESTON CHEN 10 CINEMATIC FREE LUT PACK/2. SAND DUNES LUT.cube
TITLE "ColorFinale Export"
# Created by Daniel Schiffer on 2018-08-07 22:07:15 +0000
# Color Finale Plugin v.1.8.2 (224)
DOMAIN_MIN 0.0 0.0 0.0
DOMAIN_MAX 1.0 1.0 1.0
LUT_3D_SIZE 33
0.0242 0.0480 0.0535
0.0262 0.0485 0.0539
0.0295 0.0498 0.0547
0.0335 0.0510 0.0555
0.0464 0.0530 0.0570
0.0618 0.0555 0.0586
0.0775 0.0586 0.0603
0.1021 0.0646 0.0637
0.1259 0.0712 0.0675
0.1546 0.0796 0.0719
0.1938 0.0895 0.0732
0.2364 0.0983 0.0663
0.2829 0.1054 0.0482
0.3398 0.1151 0.0338
0.3961 0.1304 0.0402
0.4531 0.1434 0.0483
0.5208 0.1579 0.0756
0.5991 0.1751 0.1198
0.6695 0.1902 0.1538
0.7498 0.2078 0.1819
0.8030 0.2192 0.1922
0.8316 0.2253 0.1976
0.8428 0.2278 0.1996
0.8538 0.2303 0.2016
0.8650 0.2328 0.2035
0.8768 0.2355 0.2054
0.8884 0.2382 0.2072
0.8987 0.2405 0.2088
0.9056 0.2422 0.2100
0.9056 0.2422 0.2100
0.9056 0.2422 0.2100
0.9056 0.2422 0.2100
0.9056 0.2422 0.2100
0.0248 0.0517 0.0535
0.0269 0.0514 0.0545
0.0296 0.0518 0.0551
0.0369 0.0530 0.0561
0.0484 0.0547 0.0574
0.0646 0.0577 0.0593
0.0815 0.0610 0.0612
0.1043 0.0669 0.0647
0.1301 0.0739 0.0687
0.1586 0.0819 0.0727
0.1972 0.0913 0.0740
0.2410 0.1000 0.0660
0.2890 0.1067 0.0458
0.3456 0.1168 0.0344
0.4021 0.1319 0.0410
0.4599 0.1448 0.0497
0.5265 0.1592 0.0791
0.6042 0.1762 0.1223
0.6740 0.1912 0.1558
0.7523 0.2084 0.1824
0.8052 0.2197 0.1927
0.8323 0.2254 0.1977
0.8432 0.2279 0.1997
0.8546 0.2305 0.2017
0.8653 0.2329 0.2035
0.8767 0.2355 0.2054
0.8884 0.2382 0.2072
0.8987 0.2405 0.2088
0.9056 0.2422 0.2100
0.9056 0.2422 0.2100
0.9056 0.2422 0.2100
0.9056 0.2422 0.2100
0.9056 0.2422 0.2100
0.0258 0.0573 0.0539
0.0277 0.0565 0.0547
0.0309 0.0559 0.0559
0.0412 0.0571 0.0571
0.0519 0.0584 0.0584
0.0674 0.0608 0.0602
0.0857 0.0639 0.0624
0.1069 0.0692 0.0657
0.1343 0.0766 0.0699
0.1635 0.0844 0.0734
0.2029 0.0937 0.0735
0.2474 0.1019 0.0639
0.2953 0.1087 0.0447
0.3512 0.1192 0.0350
0.4064 0.1336 0.0416
0.4648 0.1461 0.0507
0.5359 0.1615 0.0849
0.6098 0.1774 0.1253
0.6795 0.1924 0.1583
0.7569 0.2094 0.1833
0.8087 0.2205 0.1933
0.8329 0.2256 0.1978
0.8437 0.2280 0.1998
0.8556 0.2307 0.2019
0.8655 0.2329 0.2035
0.8769 0.2356 0.2054
0.8884 0.2382 0.2072
0.8989 0.2406 0.2089
0.9056 0.2422 0.2100
0.9056 0.2422 0.2100
0.9056 0.2422 0.2100
0.9056 0.2422 0.2100
0.9056 0.2422 0.2100
0.0271 0.0651 0.0540
0.0288 0.0630 0.0549
0.0339 0.0613 0.0563
0.0448 0.0611 0.0582
0.0558 0.0619 0.0596
0.0704 0.0635 0.0612
0.0902 0.0668 0.0637
0.1113 0.0716 0.0668
0.1384 0.0787 0.0708
0.1694 0.0866 0.0740
0.2089 0.0957 0.0727
0.2527 0.1036 0.0618
0.3008 0.1106 0.0436
0.3560 0.1213 0.0356
0.4097 0.1352 0.0420
0.4694 0.1477 0.0514
0.5441 0.1641 0.0895
0.6136 0.1790 0.1272
0.6877 0.1948 0.1620
0.7611 0.2106 0.1839
0.8123 0.2214 0.1940
0.8333 0.2257 0.1979
0.8440 0.2281 0.1998
0.8560 0.2308 0.2020
0.8663 0.2331 0.2037
0.8771 0.2356 0.2054
0.8886 0.2382 0.2073
0.8991 0.2406 0.2089
0.9056 0.2422 0.2100
0.9056 0.2422 0.2100
0.9056 0.2422 0.2100
0.9056 0.2422 0.2100
0.9056 0.2422 0.2100
0.0284 0.0747 0.0539
0.0298 0.0722 0.0550
0.0365 0.0698 0.0565
0.0464 0.0678 0.0583
0.0594 0.0675 0.0602
0.0754 0.0684 0.0619
0.0952 0.0713 0.0647
0.1167 0.0753 0.0679
0.1437 0.0814 0.0719
0.1743 0.0888 0.0748
0.2145 0.0977 0.0722
0.2588 0.1054 0.0596
0.3056 0.1122 0.0421
0.3613 0.1235 0.0363
0.4145 0.1372 0.0426
0.4744 0.1495 0.0521
0.5498 0.1663 0.0927
0.6186 0.1811 0.1296
0.6947 0.1973 0.1649
0.7634 0.2122 0.1841
0.8149 0.2230 0.1940
0.8341 0.2269 0.1977
0.8455 0.2291 0.1998
0.8566 0.2313 0.2019
0.8673 0.2334 0.2038
0.8775 0.2357 0.2055
0.8888 0.2383 0.2073
0.8989 0.2406 0.2089
0.9056 0.2422 0.2100
0.9056 0.2422 0.2100
0.9056 0.2422 0.2100
0.9056 0.2422 0.2100
0.9056 0.2422 0.2100
0.0293 0.0858 0.0545
0.0303 0.0834 0.0554
0.0379 0.0803 0.0568
0.0476 0.0769 0.0583
0.0629 0.0755 0.0600
0.0826 0.0757 0.0629
0.1021 0.0784 0.0662
0.1229 0.0819 0.0695
0.1504 0.0872 0.0734
0.1803 0.0933 0.0762
0.2197 0.1010 0.0721
0.2646 0.1078 0.0579
0.3139 0.1145 0.0388
0.3666 0.1257 0.0369
0.4196 0.1392 0.0432
0.4804 0.1515 0.0550
0.5537 0.1681 0.0951
0.6224 0.1829 0.1316
0.6991 0.1995 0.1658
0.7650 0.2140 0.1841
0.8170 0.2249 0.1940
0.8355 0.2286 0.1974
0.8472 0.2308 0.1996
0.8578 0.2328 0.2016
0.8685 0.2349 0.2035
0.8780 0.2368 0.2052
0.8892 0.2391 0.2071
0.8991 0.2412 0.2087
0.9058 0.2425 0.2099
0.9057 0.2423 0.2099
0.9056 0.2422 0.2100
0.9056 0.2422 0.2100
0.9056 0.2422 0.2100
0.0304 0.1005 0.0552
0.0311 0.0984 0.0558
0.0383 0.0958 0.0574
0.0486 0.0925 0.0587
0.0667 0.0886 0.0593
0.0893 0.0861 0.0620
0.1114 0.0859 0.0661
0.1307 0.0893 0.0702
0.1572 0.0936 0.0744
0.1867 0.0984 0.0768
0.2260 0.1048 0.0719
0.2714 0.1106 0.0558
0.3226 0.1169 0.0343
0.3722 0.1280 0.0377
0.4245 0.1411 0.0441
0.4863 0.1539 0.0592
0.5575 0.1700 0.0975
0.6263 0.1849 0.1336
0.7033 0.2016 0.1667
0.7686 0.2161 0.1844
0.8188 0.2266 0.1939
0.8370 0.2304 0.1972
0.8486 0.2326 0.1992
0.8589 0.2347 0.2011
0.8695 0.2368 0.2031
0.8790 0.2387 0.2047
0.8900 0.2409 0.2066
0.8998 0.2429 0.2082
0.9064 0.2441 0.2094
0.9063 0.2439 0.2095
0.9062 0.2436 0.2096
0.9061 0.2434 0.2096
0.9060 0.2431 0.2097
0.0354 0.1173 0.0535
0.0374 0.1155 0.0540
0.0415 0.1130 0.0551
0.0536 0.1090 0.0564
0.0702 0.1043 0.0576
0.0945 0.0985 0.0604
0.1177 0.0955 0.0643
0.1385 0.0979 0.0710
0.1651 0.1023 0.0753
0.1961 0.1065 0.0756
0.2365 0.1112 0.0681
0.2806 0.1159 0.0519
0.3326 0.1224 0.0344
0.3781 0.1318 0.0386
0.4294 0.1437 0.0450
0.4947 0.1572 0.0641
0.5615 0.1721 0.1001
0.6302 0.1869 0.1357
0.7063 0.2037 0.1671
0.7747 0.2187 0.1852
0.8199 0.2283 0.1937
0.8384 0.2321 0.1970
0.8498 0.2344 0.1990
0.8599 0.2365 0.2007
0.8706 0.2386 0.2026
0.8801 0.2405 0.2043
0.8909 0.2428 0.2061
0.9007 0.2448 0.2077
0.9072 0.2461 0.2089
0.9071 0.2459 0.2089
0.9070 0.2456 0.2090
0.9069 0.2454 0.2091
0.9068 0.2451 0.2092
0.0423 0.1380 0.0505
0.0440 0.1361 0.0508
0.0459 0.1344 0.0512
0.0576 0.1313 0.0526
0.0732 0.1263 0.0549
0.0988 0.1176 0.0576
0.1255 0.1103 0.0611
0.1518 0.1084 0.0669
0.1792 0.1123 0.0710
0.2084 0.1160 0.0701
0.2479 0.1195 0.0620
0.2905 0.1228 0.0461
0.3415 0.1289 0.0350
0.3859 0.1376 0.0396
0.4380 0.1484 0.0462
0.5021 0.1615 0.0676
0.5666 0.1749 0.1029
0.6382 0.1903 0.1388
0.7083 0.2060 0.1673
0.7792 0.2214 0.1856
0.8211 0.2303 0.1935
0.8401 0.2343 0.1969
0.8512 0.2365 0.1988
0.8613 0.2385 0.2004
0.8718 0.2406 0.2022
0.8813 0.2426 0.2038
0.8920 0.2448 0.2055
0.9014 0.2468 0.2071
0.9081 0.2481 0.2083
0.9080 0.2479 0.2084
0.9079 0.2476 0.2084
0.9078 0.2474 0.2085
0.9076 0.2471 0.2086
0.0492 0.1594 0.0477
0.0502 0.1575 0.0477
0.0531 0.1555 0.0478
0.0618 0.1534 0.0479
0.0795 0.1483 0.0503
0.1001 0.1422 0.0541
0.1327 0.1313 0.0510
0.1668 0.1231 0.0529
0.1934 0.1229 0.0594
0.2228 0.1265 0.0609
0.2603 0.1289 0.0530
0.3017 0.1311 0.0381
0.3516 0.1371 0.0349
0.3977 0.1464 0.0405
0.4505 0.1567 0.0472
0.5106 0.1695 0.0692
0.5726 0.1814 0.1041
0.6458 0.1958 0.1405
0.7111 0.2096 0.1675
0.7800 0.2237 0.1851
0.8220 0.2325 0.1931
0.8427 0.2369 0.1967
0.8529 0.2389 0.1984
0.8630 0.2410 0.2000
0.8733 0.2431 0.2017
0.8825 0.2450 0.2032
0.8931 0.2472 0.2049
0.9024 0.2492 0.2064
0.9091 0.2506 0.2076
0.9089 0.2503 0.2076
0.9088 0.2500 0.2077
0.9087 0.2497 0.2078
0.9086 0.2495 0.2079
0.0565 0.1839 0.0459
0.0574 0.1825 0.0453
0.0603 0.1807 0.0442
0.0650 0.1797 0.0427
0.0828 0.1744 0.0451
0.1047 0.1677 0.0490
0.1360 0.1573 0.0529
0.1772 0.1448 0.0404
0.2117 0.1382 0.0372
0.2411 0.1390 0.0390
0.2768 0.1417 0.0350
0.3153 0.1439 0.0284
0.3632 0.1521 0.0341
0.4125 0.1609 0.0405
0.4644 0.1699 0.0481
0.5214 0.1800 0.0685
0.5815 0.1919 0.1037
0.6526 0.2048 0.1394
0.7160 0.2169 0.1667
0.7821 0.2283 0.1841
0.8256 0.2362 0.1926
0.8452 0.2396 0.1964
0.8549 0.2415 0.1980
0.8648 0.2435 0.1997
0.8748 0.2456 0.2013
0.8838 0.2475 0.2028
0.8943 0.2497 0.2045
0.9036 0.2517 0.2058
0.9102 0.2531 0.2068
0.9101 0.2528 0.2069
0.9100 0.2525 0.2070
0.9098 0.2522 0.2071
0.9097 0.2520 0.2072
0.0632 0.2082 0.0452
0.0641 0.2065 0.0444
0.0654 0.2042 0.0437
0.0698 0.2020 0.0426
0.0847 0.1997 0.0416
0.1082 0.1941 0.0456
0.1384 0.1856 0.0541
0.1792 0.1718 0.0416
0.2251 0.1588 0.0225
0.2602 0.1547 0.0198
0.2950 0.1571 0.0227
0.3311 0.1610 0.0277
0.3759 0.1681 0.0336
0.4243 0.1762 0.0399
0.4749 0.1845 0.0472
0.5332 0.1929 0.0664
0.5923 0.2037 0.1011
0.6619 0.2160 0.1373
0.7253 0.2279 0.1648
0.7884 0.2385 0.1817
0.8338 0.2453 0.1912
0.8493 0.2461 0.1949
0.8578 0.2461 0.1971
0.8670 0.2471 0.1990
0.8766 0.2486 0.2008
0.8858 0.2502 0.2024
0.8956 0.2522 0.2039
0.9050 0.2542 0.2053
0.9114 0.2556 0.2063
0.9114 0.2555 0.2062
0.9112 0.2553 0.2062
0.9112 0.2551 0.2063
0.9111 0.2549 0.2063
0.0692 0.2344 0.0435
0.0705 0.2329 0.0427
0.0718 0.2309 0.0418
0.0774 0.2307 0.0389
0.0859 0.2308 0.0354
0.1120 0.2256 0.0398
0.1425 0.2173 0.0479
0.1770 0.2050 0.0583
0.2360 0.1891 0.0203
0.2760 0.1785 0.0157
0.3143 0.1775 0.0222
0.3507 0.1820 0.0273
0.3940 0.1865 0.0337
0.4383 0.1939 0.0394
0.4891 0.2016 0.0465
0.5479 0.2083 0.0617
0.6084 0.2188 0.0979
0.6743 0.2307 0.1341
0.7387 0.2426 0.1616
0.7969 0.2526 0.1783
0.8452 0.2596 0.1885
0.8564 0.2584 0.1919
0.8638 0.2565 0.1946
0.8719 0.2556 0.1970
0.8804 0.2553 0.1992
0.8892 0.2556 0.2012
0.8979 0.2566 0.2029
0.9068 0.2582 0.2044
0.9132 0.2594 0.2054
0.9130 0.2591 0.2054
0.9128 0.2586 0.2055
0.9127 0.2583 0.2055
0.9125 0.2580 0.2055
0.0752 0.2578 0.0428
0.0765 0.2559 0.0418
0.0777 0.2541 0.0408
0.0822 0.2537 0.0377
0.0913 0.2538 0.0353
0.1147 0.2533 0.0349
0.1474 0.2460 0.0437
0.1843 0.2363 0.0509
0.2350 0.2241 0.0385
0.2898 0.2073 0.0094
0.3342 0.1988 0.0206
0.3723 0.2025 0.0273
0.4143 0.2076 0.0336
0.4583 0.2116 0.0403
0.5082 0.2166 0.0477
0.5664 0.2214 0.0572
0.6276 0.2350 0.0928
0.6872 0.2476 0.1268
0.7528 0.2598 0.1580
0.8068 0.2688 0.1742
0.8524 0.2750 0.1840
0.8655 0.2739 0.1878
0.8722 0.2710 0.1908
0.8797 0.2695 0.1933
0.8878 0.2687 0.1956
0.8962 0.2681 0.1979
0.9037 0.2677 0.2000
0.9120 0.2685 0.2016
0.9177 0.2689 0.2029
0.9172 0.2678 0.2031
0.9166 0.2666 0.2034
0.9161 0.2656 0.2036
0.9156 0.2645 0.2039
0.0818 0.2841 0.0408
0.0831 0.2823 0.0399
0.0842 0.2809 0.0390
0.0860 0.2790 0.0375
0.0971 0.2799 0.0345
0.1148 0.2807 0.0318
0.1513 0.2790 0.0363
0.1881 0.2686 0.0477
0.2380 0.2555 0.0426
0.2993 0.2441 0.0054
0.3495 0.2257 0.0143
0.3935 0.2232 0.0269
0.4395 0.2274 0.0347
0.4872 0.2297 0.0423
0.5357 0.2314 0.0506
0.5859 0.2372 0.0614
0.6452 0.2505 0.0875
0.7014 0.2644 0.1198
0.7656 0.2782 0.1512
0.8171 0.2872 0.1688
0.8615 0.2931 0.1785
0.8756 0.2918 0.1828
0.8817 0.2883 0.1859
0.8891 0.2864 0.1886
0.8969 0.2852 0.1911
0.9046 0.2845 0.1934
0.9117 0.2839 0.1955
0.9195 0.2845 0.1973
0.9248 0.2848 0.1985
0.9244 0.2838 0.1988
0.9238 0.2825 0.1990
0.9234 0.2816 0.1992
0.9227 0.2800 0.1996
0.0877 0.3138 0.0343
0.0890 0.3119 0.0329
0.0901 0.3105 0.0313
0.0927 0.3085 0.0291
0.1005 0.3078 0.0255
0.1167 0.3079 0.0251
0.1525 0.3068 0.0292
0.1936 0.3012 0.0400
0.2444 0.2892 0.0406
0.3075 0.2760 0.0146
0.3624 0.2599 0.0077
0.4149 0.2464 0.0224
0.4698 0.2463 0.0360
0.5229 0.2487 0.0454
0.5685 0.2505 0.0541
0.6115 0.2545 0.0676
0.6652 0.2671 0.0912
0.7172 0.2810 0.1185
0.7796 0.2961 0.1471
0.8292 0.3069 0.1636
0.8728 0.3156 0.1719
0.8874 0.3155 0.1759
0.8931 0.3118 0.1790
0.8998 0.3097 0.1818
0.9070 0.3078 0.1847
0.9144 0.3064 0.1873
0.9211 0.3057 0.1894
0.9287 0.3062 0.1911
0.9334 0.3060 0.1925
0.9327 0.3043 0.1929
0.9317 0.3018 0.1936
0.9310 0.3000 0.1940
0.9304 0.2982 0.1944
0.0925 0.3414 0.0269
0.0939 0.3396 0.0247
0.0952 0.3379 0.0224
0.0970 0.3360 0.0203
0.0994 0.3337 0.0181
0.1201 0.3341 0.0183
0.1548 0.3345 0.0210
0.2001 0.3339 0.0286
0.2511 0.3234 0.0479
0.3178 0.3155 0.0231
0.3772 0.3038 0.0051
0.4338 0.2850 0.0142
0.5011 0.2727 0.0338
0.5607 0.2723 0.0481
0.6093 0.2771 0.0625
0.6497 0.2815 0.0815
0.6917 0.2866 0.1032
0.7391 0.2999 0.1268
0.7952 0.3153 0.1489
0.8421 0.3272 0.1596
0.8848 0.3370 0.1668
0.8980 0.3372 0.1700
0.9036 0.3343 0.1726
0.9100 0.3326 0.1749
0.9167 0.3310 0.1774
0.9236 0.3293 0.1800
0.9300 0.3282 0.1823
0.9372 0.3285 0.1842
0.9415 0.3278 0.1856
0.9410 0.3265 0.1859
0.9404 0.3247 0.1864
0.9399 0.3234 0.1867
0.9393 0.3218 0.1872
0.1002 0.3754 0.0106
0.1021 0.3742 0.0092
0.1037 0.3721 0.0081
0.1056 0.3695 0.0077
0.1107 0.3670 0.0073
0.1248 0.3654 0.0072
0.1598 0.3662 0.0110
0.2110 0.3661 0.0226
0.2639 0.3614 0.0403
0.3230 0.3501 0.0428
0.3954 0.3479 0.0019
0.4491 0.3293 0.0066
0.5251 0.3028 0.0263
0.5908 0.2966 0.0482
0.6399 0.3020 0.0726
0.6856 0.3085 0.0982
0.7246 0.3124 0.1186
0.7616 0.3180 0.1358
0.8135 0.3327 0.1502
0.8572 0.3456 0.1561
0.9000 0.3581 0.1610
0.9110 0.3589 0.1634
0.9170 0.3570 0.1660
0.9225 0.3562 0.1681
0.9289 0.3558 0.1701
0.9354 0.3553 0.1722
0.9414 0.3547 0.1738
0.9480 0.3550 0.1753
0.9512 0.3539 0.1766
0.9504 0.3518 0.1772
0.9495 0.3494 0.1780
0.9488 0.3473 0.1787
0.9481 0.3454 0.1793
0.1137 0.4091 0.0008
0.1155 0.4058 0.0008
0.1178 0.4030 0.0005
0.1201 0.4001 0.0001
0.1228 0.3975 0.0000
0.1327 0.3949 0.0006
0.1702 0.3968 0.0041
0.2219 0.4001 0.0136
0.2746 0.3967 0.0329
0.3353 0.3881 0.0463
0.4060 0.3879 0.0216
0.4756 0.3840 0.0024
0.5422 0.3527 0.0178
0.6156 0.3319 0.0445
0.6698 0.3321 0.0807
0.7204 0.3380 0.1104
0.7602 0.3432 0.1265
0.7984 0.3475 0.1388
0.8360 0.3526 0.1481
0.8770 0.3646 0.1523
0.9126 0.3757 0.1543
0.9246 0.3774 0.1561
0.9307 0.3763 0.1585
0.9356 0.3757 0.1604
0.9409 0.3749 0.1626
0.9471 0.3746 0.1647
0.9510 0.3749 0.1657
0.9552 0.3760 0.1662
0.9571 0.3760 0.1667
0.9568 0.3746 0.1673
0.9565 0.3729 0.1681
0.9562 0.3712 0.1689
0.9559 0.3696 0.1696
0.1334 0.4426 0.0000
0.1353 0.4397 0.0000
0.1376 0.4369 0.0000
0.1396 0.4334 0.0000
0.1422 0.4297 0.0000
0.1552 0.4272 0.0000
0.1801 0.4268 0.0006
0.2300 0.4295 0.0067
0.2835 0.4260 0.0312
0.3445 0.4189 0.0494
0.4148 0.4201 0.0338
0.4883 0.4233 0.0103
0.5616 0.4069 0.0191
0.6314 0.3731 0.0464
0.6912 0.3631 0.0768
0.7447 0.3652 0.1032
0.7890 0.3709 0.1193
0.8306 0.3774 0.1303
0.8652 0.3805 0.1392
0.8982 0.3852 0.1463
0.9277 0.3941 0.1474
0.9407 0.3971 0.1480
0.9450 0.3960 0.1494
0.9485 0.3956 0.1503
0.9515 0.3954 0.1513
0.9553 0.3949 0.1520
0.9571 0.3946 0.1521
0.9590 0.3952 0.1526
0.9597 0.3945 0.1537
0.9595 0.3929 0.1550
0.9593 0.3912 0.1562
0.9591 0.3893 0.1576
0.9590 0.3882 0.1583
0.1453 0.4778 0.0000
0.1483 0.4749 0.0000
0.1517 0.4725 0.0000
0.1552 0.4701 0.0000
0.1596 0.4664 0.0000
0.1673 0.4623 0.0000
0.1921 0.4614 0.0000
0.2396 0.4616 0.0042
0.2950 0.4588 0.0248
0.3551 0.4505 0.0493
0.4212 0.4533 0.0439
0.5006 0.4605 0.0195
0.5741 0.4641 0.0327
0.6443 0.4324 0.0487
0.7117 0.4034 0.0633
0.7686 0.3986 0.0878
0.8120 0.3999 0.1043
0.8580 0.4059 0.1175
0.8917 0.4097 0.1267
0.9223 0.4114 0.1352
0.9402 0.4128 0.1390
0.9492 0.4147 0.1389
0.9514 0.4131 0.1402
0.9532 0.4126 0.1410
0.9550 0.4122 0.1414
0.9576 0.4116 0.1414
0.9594 0.4123 0.1414
0.9612 0.4138 0.1409
0.9617 0.4136 0.1411
0.9616 0.4120 0.1421
0.9614 0.4107 0.1428
0.9612 0.4088 0.1439
0.9611 0.4073 0.1448
0.1581 0.5118 0.0000
0.1613 0.5099 0.0000
0.1645 0.5075 0.0000
0.1679 0.5049 0.0000
0.1721 0.5008 0.0000
0.1763 0.4966 0.0000
0.2011 0.4953 0.0000
0.2466 0.4922 0.0041
0.3013 0.4881 0.0203
0.3636 0.4827 0.0497
0.4262 0.4824 0.0485
0.5095 0.4935 0.0286
0.5812 0.4990 0.0335
0.6527 0.4968 0.0394
0.7223 0.4533 0.0562
0.7865 0.4346 0.0741
0.8316 0.4313 0.0913
0.8799 0.4351 0.1036
0.9152 0.4400 0.1099
0.9375 0.4431 0.1151
0.9468 0.4403 0.1207
0.9525 0.4355 0.1252
0.9541 0.4336 0.1268
0.9557 0.4326 0.1281
0.9576 0.4321 0.1287
0.9599 0.4315 0.1293
0.9615 0.4319 0.1290
0.9638 0.4325 0.1278
0.9641 0.4314 0.1284
0.9638 0.4295 0.1298
0.9636 0.4277 0.1310
0.9633 0.4260 0.1323
0.9631 0.4245 0.1334
0.1715 0.5354 0.0005
0.1745 0.5338 0.0002
0.1775 0.5319 0.0000
0.1808 0.5300 0.0000
0.1849 0.5273 0.0000
0.1914 0.5250 0.0000
0.2057 0.5232 0.0000
0.2517 0.5203 0.0006
0.3061 0.5170 0.0198
0.3693 0.5127 0.0470
0.4316 0.5137 0.0521
0.5139 0.5260 0.0380
0.5869 0.5373 0.0333
0.6576 0.5449 0.0346
0.7331 0.5249 0.0457
0.8015 0.4846 0.0607
0.8519 0.4705 0.0798
0.8971 0.4661 0.0964
0.9280 0.4688 0.1020
0.9402 0.4712 0.1052
0.9505 0.4707 0.1073
0.9558 0.4633 0.1115
0.9572 0.4568 0.1140
0.9588 0.4537 0.1155
0.9602 0.4516 0.1163
0.9619 0.4496 0.1163
0.9635 0.4500 0.1163
0.9661 0.4506 0.1152
0.9661 0.4492 0.1161
0.9659 0.4473 0.1173
0.9657 0.4458 0.1183
0.9655 0.4439 0.1195
0.9654 0.4421 0.1207
0.1874 0.5596 0.0055
0.1901 0.5578 0.0034
0.1928 0.5558 0.0016
0.1958 0.5537 0.0004
0.1994 0.5515 0.0001
0.2040 0.5492 0.0000
0.2172 0.5470 0.0000
0.2543 0.5457 0.0001
0.3103 0.5442 0.0198
0.3756 0.5427 0.0492
0.4377 0.5440 0.0558
0.5145 0.5537 0.0397
0.5902 0.5676 0.0337
0.6642 0.5794 0.0337
0.7374 0.5869 0.0357
0.8094 0.5382 0.0546
0.8719 0.5116 0.0669
0.9103 0.5001 0.0877
0.9316 0.4974 0.0980
0.9431 0.4984 0.0999
0.9538 0.5000 0.0998
0.9594 0.4952 0.1022
0.9609 0.4880 0.1039
0.9620 0.4805 0.1053
0.9635 0.4776 0.1064
0.9651 0.4748 0.1071
0.9666 0.4742 0.1075
0.9682 0.4723 0.1078
0.9681 0.4703 0.1083
0.9678 0.4680 0.1089
0.9677 0.4661 0.1093
0.9674 0.4636 0.1099
0.9672 0.4616 0.1103
0.2044 0.6018 0.0102
0.2064 0.5935 0.0107
0.2088 0.5864 0.0111
0.2121 0.5784 0.0108
0.2152 0.5765 0.0089
0.2193 0.5733 0.0076
0.2289 0.5702 0.0053
0.2588 0.5693 0.0077
0.3162 0.5697 0.0222
0.3814 0.5706 0.0516
0.4433 0.5714 0.0652
0.5195 0.5833 0.0434
0.5953 0.5989 0.0338
0.6771 0.6137 0.0339
0.7421 0.6229 0.0342
0.8102 0.6093 0.0411
0.8808 0.5576 0.0597
0.9188 0.5353 0.0764
0.9349 0.5247 0.0903
0.9456 0.5227 0.0939
0.9577 0.5250 0.0950
0.9626 0.5213 0.0966
0.9639 0.5151 0.0979
0.9653 0.5095 0.0994
0.9665 0.5042 0.1009
0.9681 0.5004 0.1016
0.9696 0.4992 0.1019
0.9707 0.4972 0.1023
0.9705 0.4955 0.1026
0.9703 0.4931 0.1030
0.9701 0.4912 0.1033
0.9698 0.4885 0.1039
0.9695 0.4858 0.1043
0.2227 0.6696 0.0000
0.2247 0.6658 0.0000
0.2265 0.6617 0.0000
0.2288 0.6564 0.0000
0.2317 0.6500 0.0005
0.2353 0.6403 0.0016
0.2399 0.6278 0.0024
0.2703 0.6185 0.0062
0.3211 0.6128 0.0168
0.3867 0.6083 0.0404
0.4534 0.6042 0.0659
0.5282 0.6147 0.0495
0.6039 0.6295 0.0340
0.6829 0.6460 0.0340
0.7501 0.6585 0.0344
0.8089 0.6652 0.0353
0.8863 0.6223 0.0494
0.9246 0.5839 0.0623
0.9386 0.5609 0.0801
0.9492 0.5533 0.0883
0.9606 0.5524 0.0899
0.9656 0.5494 0.0911
0.9669 0.5433 0.0923
0.9683 0.5384 0.0941
0.9695 0.5342 0.0952
0.9709 0.5293 0.0963
0.9725 0.5284 0.0968
0.9733 0.5261 0.0971
0.9731 0.5235 0.0974
0.9729 0.5204 0.0977
0.9727 0.5179 0.0980
0.9724 0.5156 0.0984
0.9722 0.5127 0.0988
0.2360 0.7082 0.0000
0.2398 0.7029 0.0000
0.2434 0.6971 0.0000
0.2467 0.6908 0.0000
0.2495 0.6859 0.0000
0.2525 0.6800 0.0000
0.2563 0.6729 0.0000
0.2786 0.6669 0.0000
0.3257 0.6661 0.0000
0.3907 0.6656 0.0000
0.4567 0.6614 0.0052
0.5347 0.6621 0.0256
0.6108 0.6687 0.0337
0.6836 0.6776 0.0342
0.7560 0.6889 0.0346
0.8122 0.6996 0.0350
0.8843 0.6887 0.0403
0.9325 0.6363 0.0520
0.9427 0.5998 0.0659
0.9529 0.5833 0.0809
0.9637 0.5786 0.0835
0.9683 0.5739 0.0857
0.9696 0.5678 0.0873
0.9710 0.5631 0.0893
0.9722 0.5589 0.0911
0.9735 0.5542 0.0918
0.9748 0.5506 0.0928
0.9753 0.5486 0.0932
0.9751 0.5465 0.0935
0.9749 0.5437 0.0940
0.9748 0.5418 0.0944
0.9746 0.5398 0.0947
0.9744 0.5371 0.0950
0.2386 0.7473 0.0000
0.2430 0.7463 0.0000
0.2474 0.7454 0.0000
0.2515 0.7420 0.0000
0.2564 0.7352 0.0000
0.2615 0.7280 0.0000
0.2673 0.7199 0.0000
0.2796 0.7074 0.0000
0.3282 0.7056 0.0000
