pictu/PRESTON CHEN 10 CINEMATIC FREE LUT PACK/3. DESERT TONES LUT.cube
LUT_3D_SIZE 16
0.000000 0.000000 0.000000
0.000000 0.000000 0.000000
0.013179 0.000000 0.002970
0.040300 0.000000 0.000000
0.097298 0.000000 0.000000
0.208656 0.000000 0.008581
0.351988 0.000000 0.003094
0.502387 0.000000 0.003946
0.665236 0.000000 0.000000
0.783425 0.000000 0.000000
0.874084 0.016368 0.000000
0.939946 0.063372 0.000000
0.988230 0.098786 0.000000
1.000022 0.132947 0.000000
1.000022 0.157447 0.000000
1.000022 0.191211 0.000000
0.000000 0.000877 0.000000
0.000000 0.001456 0.000571
0.016639 0.000876 0.002758
0.044063 0.000755 0.000000
0.101548 0.000000 0.000000
0.210723 0.000000 0.000000
0.362314 0.000000 0.000000
0.514190 0.000000 0.000000
0.671617 0.002155 0.000000
0.783720 0.001979 0.000000
0.876225 0.060003 0.000000
0.942563 0.099193 0.000000
0.990568 0.124743 0.000000
1.000022 0.160000 0.000000
1.000022 0.187964 0.000000
1.000022 0.226333 0.000000
0.000000 0.023445 0.000000
0.001212 0.023958 0.000634
0.021229 0.023445 0.000000
0.051799 0.017286 0.000000
0.114269 0.014825 0.000000
0.229846 0.021916 0.000000
0.377027 0.018320 0.000000
0.530537 0.023024 0.000000
0.683253 0.050590 0.000000
0.794957 0.063812 0.000000
0.881466 0.112819 0.000000
0.946972 0.134108 0.000000
0.992987 0.160934 0.000000
1.000022 0.201474 0.000000
1.000022 0.230554 0.000000
1.000022 0.282221 0.000000
0.000971 0.051743 0.000896
0.015328 0.051828 0.000000
0.036729 0.051743 0.000000
0.063719 0.044449 0.000824
0.147419 0.041382 0.000000
0.266557 0.048471 0.000000
0.418222 0.054002 0.000000
0.565716 0.071790 0.000000
0.708820 0.094716 0.000000
0.810644 0.115476 0.000000
0.891282 0.151736 0.000000
0.953219 0.182605 0.000000
0.994935 0.215213 0.000000
1.000022 0.255193 0.000000
1.000022 0.296642 0.000000
1.000022 0.343942 0.000000
0.007061 0.094395 0.002200
0.031438 0.097661 0.008479
0.059120 0.098598 0.012562
0.091135 0.094395 0.012670
0.193699 0.101353 0.000808
0.315521 0.099782 0.000000
0.469186 0.102949 0.000000
0.614769 0.129467 0.000000
0.740398 0.157496 0.000000
0.831552 0.186307 0.000000
0.904162 0.217044 0.000000
0.960682 0.243726 0.000000
0.998627 0.273940 0.000000
1.000022 0.320750 0.000000
1.000022 0.358633 0.000000
1.000022 0.405872 0.000000
0.036519 0.165754 0.017307
0.060198 0.164076 0.021732
0.086838 0.167895 0.038668
0.120906 0.164386 0.038875
0.198056 0.167432 0.023184
0.327684 0.188233 0.000000
0.502123 0.189707 0.000000
0.649016 0.201363 0.000000
0.762128 0.231150 0.000000
0.842818 0.256833 0.000000
0.911811 0.285550 0.000000
0.966625 0.312415 0.000000
1.000022 0.341699 0.000000
1.000022 0.386266 0.000000
1.000022 0.424133 0.000000
1.000022 0.467366 0.002500
0.124245 0.267460 0.038412
0.149009 0.262978 0.041628
0.172671 0.271629 0.054317
0.192649 0.269916 0.075020
0.242637 0.265255 0.074758
0.314313 0.274019 0.061686
0.499880 0.311369 0.005835
0.655978 0.320067 0.000000
0.776752 0.325180 0.000000
0.856880 0.345207 0.000000
0.919094 0.366307 0.000000
0.973226 0.395808 0.000000
1.000022 0.419164 0.000000
1.000022 0.462664 0.000000
1.000022 0.495393 0.013172
1.000022 0.533283 0.075147
0.241701 0.386908 0.063649
0.263969 0.373860 0.066746
0.290624 0.388771 0.080076
0.316633 0.396793 0.099165
0.327161 0.393246 0.120569
0.362667 0.387804 0.124218
0.479966 0.401020 0.093676
0.657076 0.442426 0.011091
0.779212 0.432250 0.000000
0.860493 0.429994 0.000000
0.926252 0.440696 0.000000
0.977267 0.465317 0.000000
1.000022 0.493112 0.014252
1.000022 0.532357 0.056279
1.000022 0.562246 0.108199
1.000022 0.595959 0.148104
0.388169 0.546053 0.094369
0.403762 0.518085 0.092037
0.433656 0.528029 0.105266
0.458158 0.540383 0.125439
0.485399 0.547373 0.155886
0.500872 0.546319 0.176859
0.533088 0.535247 0.178064
0.617334 0.544447 0.165323
0.773433 0.576300 0.089938
0.867512 0.556682 0.038336
0.933655 0.538540 0.034531
0.987314 0.542140 0.074590
1.000022 0.569833 0.111993
1.000022 0.607672 0.148076
1.000022 0.632795 0.175060
1.000022 0.665579 0.208915
0.496445 0.663678 0.121936
0.510706 0.633503 0.118454
0.537072 0.642550 0.129425
0.562815 0.651789 0.149161
0.591710 0.655778 0.179385
0.615684 0.662202 0.211979
0.632253 0.661944 0.235232
0.665375 0.653486 0.234147
0.754571 0.664701 0.215436
0.852016 0.668684 0.171289
0.935321 0.643785 0.130725
0.991266 0.625696 0.135723
1.000022 0.639762 0.160942
1.000022 0.670967 0.196846
1.000022 0.693937 0.216076
1.000022 0.726902 0.243950
0.583374 0.767052 0.151766
0.603592 0.746515 0.148131
0.628328 0.746936 0.158625
0.656093 0.754661 0.180229
0.685017 0.759185 0.208107
0.706431 0.762954 0.237792
0.736069 0.766366 0.273780
0.756184 0.766553 0.292870
0.784880 0.759342 0.298091
0.841910 0.756532 0.281498
0.914442 0.759497 0.254579
0.980127 0.741376 0.228869
1.000022 0.732871 0.219136
1.000022 0.745670 0.228308
1.000022 0.764170 0.248937
1.000022 0.788215 0.273166
0.642938 0.823369 0.176017
0.666052 0.812548 0.175708
0.690986 0.812863 0.186689
0.709558 0.818615 0.206013
0.740925 0.822626 0.234153
0.763818 0.825680 0.263807
0.788548 0.825880 0.294702
0.812059 0.828716 0.318289
0.835360 0.829288 0.338278
0.858409 0.820794 0.343571
0.915030 0.818283 0.332343
0.969281 0.818866 0.319455
1.000022 0.820491 0.310642
1.000022 0.825011 0.302754
1.000022 0.831329 0.301043
1.000022 0.849587 0.319960
0.689357 0.863954 0.195942
0.710478 0.860985 0.195942
0.729407 0.863729 0.207346
0.748164 0.866717 0.227384
0.778731 0.869740 0.256313
0.799387 0.876174 0.287069
0.826603 0.879252 0.319563
0.850737 0.880053 0.348380
0.876415 0.882286 0.365641
0.895665 0.882084 0.379230
0.918872 0.872314 0.382329
0.954014 0.870029 0.385460
0.985649 0.871834 0.384283
1.000022 0.877952 0.384463
1.000022 0.889669 0.377079
1.000022 0.894922 0.371563
0.716943 0.895531 0.208621
0.737149 0.895168 0.212490
0.759164 0.898286 0.228111
0.781134 0.901030 0.248814
0.800727 0.901521 0.274348
0.821480 0.906585 0.306131
0.849170 0.912072 0.338528
0.871549 0.915702 0.369064
0.895709 0.918268 0.390653
0.914577 0.920986 0.407482
0.934104 0.918427 0.418086
0.949388 0.911089 0.424869
0.969208 0.907131 0.422486
0.996548 0.904971 0.422899
1.000022 0.915669 0.420190
1.000022 0.925070 0.414651
0.735322 0.924038 0.220733
0.759494 0.921519 0.225335
0.781261 0.924821 0.241033
0.798949 0.927363 0.262316
0.818801 0.932841 0.289021
0.840449 0.935271 0.320363
0.861163 0.940585 0.353965
0.884833 0.945750 0.384076
0.906811 0.950525 0.409203
0.923209 0.951298 0.426386
0.940423 0.952473 0.438909
0.953978 0.953915 0.449231
0.965388 0.948547 0.454687
0.983389 0.940577 0.457240
0.997665 0.939671 0.454974
1.000022 0.951499 0.456324
0.751930 0.945897 0.228279
0.774588 0.945897 0.236309
0.792530 0.948407 0.253053
0.812439 0.953789 0.274777
0.828812 0.958891 0.305460
0.849710 0.961768 0.330511
0.869191 0.966405 0.358881
0.884543 0.969116 0.383768
0.902272 0.974142 0.409069
0.917383 0.977370 0.431083
0.934141 0.979962 0.446641
0.950647 0.979962 0.458809
0.966022 0.979962 0.466217
0.982072 0.977828 0.471536
0.994208 0.972579 0.476856
1.000022 0.973715 0.474265
0.000000 0.000000 0.018632
0.000000 0.000000 0.024216
0.009925 0.000000 0.021824
0.036032 0.000000 0.022509
0.089559 0.000000 0.028215
0.196695 0.000000 0.036446
0.344029 0.000000 0.051059
0.492757 0.007629 0.062969
0.655169 0.017150 0.067337
0.771173 0.009640 0.058514
0.863653 0.038131 0.007522
0.933293 0.080991 0.001823
0.983577 0.109530 0.000000
1.000022 0.139956 0.000000
1.000022 0.162363 0.000000
1.000022 0.195081 0.000000
0.000000 0.001163 0.024253
0.000766 0.006802 0.022538
0.012745 0.003269 0.025062
0.039401 0.003757 0.023224
0.095057 0.001876 0.028594
0.208371 0.013103 0.036586
0.352767 0.021006 0.043156
0.508595 0.019804 0.038294
0.665628 0.010785 0.008287
0.776614 0.030635 0.002182
0.871181 0.080884 0.000800
0.938579 0.110771 0.000000
0.985983 0.136268 0.000000
1.000022 0.168528 0.000000
1.000022 0.194235 0.000000
1.000022 0.230289 0.000000
0.007494 0.024501 0.022915
0.007612 0.026593 0.022502
0.020849 0.024116 0.025553
0.048727 0.023628 0.027444
0.108789 0.022066 0.023444
0.222498 0.030730 0.019887
0.371627 0.037519 0.010910
0.526637 0.048274 0.006466
0.678694 0.067671 0.003674
0.789573 0.083878 0.000000
0.878610 0.125494 0.000000
0.944684 0.142753 0.000000
0.991059 0.172732 0.000000
1.000022 0.205928 0.000000
1.000022 0.235338 0.000000
1.000022 0.287522 0.000000
0.011332 0.053350 0.022257
0.014617 0.054476 0.022829
0.035769 0.052556 0.022506
0.064193 0.045084 0.023354
0.135680 0.046845 0.016905
0.258599 0.060340 0.007829
0.407146 0.069909 0.004923
0.558313 0.086413 0.000821
0.699681 0.110178 0.000000
0.804897 0.131510 0.000000
0.887728 0.163451 0.000000
0.951327 0.190681 0.000000
0.994040 0.217810 0.000000
1.000022 0.260138 0.000000
1.000022 0.300147 0.000000
1.000022 0.346236 0.000000
0.016213 0.100255 0.027463
0.028317 0.099953 0.028442
0.057737 0.099504 0.030168
0.090104 0.096236 0.031898
0.179303 0.101572 0.007891
0.306409 0.108096 0.003802
0.459108 0.119789 0.000000
0.603094 0.147030 0.000000
0.730401 0.172737 0.000000
0.825267 0.198177 0.000000
0.899228 0.223439 0.000000
0.958527 0.246750 0.000000
0.997943 0.277911 0.000000
1.000022 0.327821 0.000000
1.000022 0.364097 0.000000
1.000022 0.408625 0.002092
0.033541 0.178242 0.036413
0.050668 0.166580 0.038248
0.080954 0.172498 0.051785
0.119052 0.170223 0.057693
0.191771 0.167799 0.046686
0.327322 0.192918 0.007590
0.494054 0.202875 0.000000
0.640502 0.217992 0.000000
0.756753 0.244345 0.000000
0.837978 0.269638 0.000000
0.908359 0.294498 0.000000
0.963910 0.320566 0.000000
0.999527 0.346004 0.000000
1.000022 0.391669 0.000000
1.000022 0.428433 0.007014
1.000022 0.471681 0.058720
0.113968 0.296064 0.054104
0.147613 0.267467 0.057898
0.172299 0.278514 0.067314
0.198240 0.278650 0.089727
0.239408 0.268999 0.092714
0.308541 0.274859 0.084020
0.500081 0.318118 0.012580
0.654836 0.326024 0.000000
0.771386 0.337033 0.000000
0.855513 0.353548 0.000000
0.917803 0.375910 0.000000
0.972186 0.402118 0.000785
1.000022 0.427655 0.006056
1.000022 0.468692 0.050132
1.000022 0.498647 0.097321
1.000022 0.537098 0.134628
0.239939 0.412102 0.080660
0.258065 0.383948 0.081120
0.289752 0.392727 0.094520
0.316976 0.402071 0.109740
0.332857 0.399893 0.136459
0.362558 0.390788 0.140946
0.475738 0.403019 0.119937
0.658655 0.446027 0.049706
0.781069 0.442741 0.005039
0.860493 0.438701 0.007602
0.924547 0.452798 0.024616
0.976752 0.474868 0.042748
1.000022 0.497817 0.086139
1.000022 0.535547 0.129270
1.000022 0.564071 0.155661
1.000022 0.596848 0.190246
0.380972 0.544105 0.110197
0.401423 0.520697 0.108486
0.433176 0.531266 0.119915
0.456279 0.537834 0.140068
0.486176 0.549590 0.170472
0.503093 0.551583 0.194635
0.532216 0.541819 0.199123
0.613546 0.546830 0.185059
0.768529 0.580265 0.136601
0.866337 0.564733 0.093959
0.932849 0.549811 0.100106
0.985743 0.550309 0.128437
1.000022 0.575189 0.156557
1.000022 0.610347 0.188193
1.000022 0.634352 0.213269
1.000022 0.667377 0.244488
0.492265 0.655960 0.135644
0.510288 0.634921 0.134150
0.539536 0.643349 0.145754
0.565510 0.651261 0.166669
0.594331 0.657810 0.196483
0.618783 0.666226 0.227903
0.636402 0.665423 0.254543
0.668491 0.659457 0.256597
0.753390 0.667496 0.241402
0.855893 0.676032 0.205027
0.936121 0.650823 0.167939
0.991357 0.630988 0.173231
1.000022 0.644356 0.203177
1.000022 0.674135 0.232828
1.000022 0.699154 0.252792
1.000022 0.728871 0.281807
0.582908 0.767163 0.168889
0.602805 0.744070 0.165150
0.626624 0.746769 0.175299
0.652119 0.754661 0.195210
0.683998 0.759144 0.225239
0.707077 0.763539 0.255977
0.735620 0.767502 0.294652
0.757901 0.768543 0.314434
0.785894 0.764196 0.320830
0.843816 0.760951 0.309511
0.920823 0.761250 0.280166
0.983732 0.745043 0.259466
1.000022 0.740475 0.254023
1.000022 0.751092 0.265780
1.000022 0.770446 0.288469
1.000022 0.796681 0.313116
0.640714 0.826539 0.197423
0.661481 0.812560 0.193517
0.684892 0.812227 0.201362
0.708393 0.818671 0.220395
0.735535 0.823168 0.252122
0.761926 0.828674 0.283760
0.790475 0.828674 0.314868
0.812603 0.830084 0.339993
0.833942 0.830061 0.360904
0.858409 0.822093 0.367179
0.914968 0.818957 0.356068
0.970674 0.823489 0.350719
1.000022 0.822989 0.339717
1.000022 0.827959 0.331417
1.000022 0.833580 0.335305
1.000022 0.855448 0.354846
0.682472 0.870185 0.217598
0.700962 0.863475 0.214438
0.729556 0.860669 0.225322
0.748393 0.864253 0.245876
0.777554 0.869695 0.275717
0.799374 0.875878 0.307813
0.825635 0.881718 0.345030
0.852695 0.882419 0.370867
0.875740 0.882512 0.388994
0.896581 0.883062 0.403571
0.918879 0.873851 0.407477
0.955364 0.873681 0.413491
0.988080 0.872981 0.411280
1.000022 0.882604 0.411192
1.000022 0.892472 0.405961
1.000022 0.903438 0.403996
0.715763 0.895168 0.227360
0.737572 0.892543 0.230317
0.758725 0.895231 0.246938
0.778554 0.899144 0.268004
0.799834 0.903867 0.294863
0.818168 0.907717 0.327757
0.846418 0.912450 0.361766
0.871442 0.916033 0.391820
0.895843 0.918593 0.414355
0.915051 0.920983 0.431271
0.934342 0.918742 0.442421
0.949506 0.911468 0.448251
0.969906 0.909233 0.449556
0.996452 0.909537 0.451458
1.000022 0.918569 0.450796
1.000022 0.931743 0.451492
0.739247 0.921519 0.239608
0.760630 0.919350 0.244297
0.778542 0.924752 0.261921
0.799483 0.927435 0.284559
0.821979 0.932632 0.313974
0.839878 0.937938 0.346413
0.863930 0.942945 0.381141
0.885327 0.946261 0.407212
0.907848 0.950525 0.433009
0.923228 0.951797 0.450396
0.938596 0.953915 0.463625
0.954742 0.954011 0.473425
0.966454 0.949311 0.481300
0.982056 0.945412 0.481840
0.997721 0.943542 0.483752
1.000022 0.952666 0.485551
0.751721 0.945897 0.252177
0.774267 0.945897 0.260614
0.791360 0.951044 0.282184
0.812802 0.953793 0.308827
0.828961 0.958893 0.333309
0.850009 0.961782 0.357465
0.869690 0.966413 0.386545
0.883637 0.971593 0.408121
0.902448 0.974849 0.437567
0.917880 0.977453 0.459599
0.934552 0.979962 0.475465
0.950784 0.979977 0.487752
0.966030 0.980188 0.494566
0.981988 0.979895 0.497684
0.994220 0.974726 0.500408
1.000022 0.974068 0.500390
0.000000 0.000000 0.043813
0.000000 0.000000 0.048782
0.006458 0.000000 0.047203
0.026811 0.000000 0.047548
0.074441 0.000000 0.048046
0.178147 0.000000 0.065172
0.342664 0.000000 0.081916
0.496445 0.011872 0.099322
0.652386 0.046021 0.106681
0.772290 0.051613 0.087404
0.863653 0.061649 0.052323
0.931724 0.096069 0.040018
0.981434 0.120978 0.022125
1.000022 0.149195 0.000000
1.000022 0.169416 0.000000
1.000022 0.198723 0.000000
0.000000 0.007297 0.049067
0.000000 0.007405 0.052350
0.005251 0.002183 0.052456
0.030225 0.006800 0.049503
0.080809 0.007271 0.051249
0.189698 0.019857 0.066937
0.345991 0.032947 0.082575
0.505596 0.049795 0.088098
0.660701 0.053809 0.076527
0.776614 0.065208 0.047067
0.869453 0.102001 0.033806
0.936896 0.129486 0.014697
0.984685 0.147539 0.007354
1.000022 0.179021 0.000000
1.000022 0.201634 0.000000
1.000022 0.234978 0.000000
0.003458 0.030019 0.051635
0.001972 0.031365 0.053678
0.011760 0.031412 0.054658
0.040817 0.028175 0.056906
0.096855 0.033011 0.056743
0.214118 0.050105 0.067481
0.365985 0.057475 0.065634
0.524913 0.065140 0.054493
0.677500 0.091750 0.047235
0.788986 0.110249 0.035832
0.878328 0.143503 0.016898
0.943121 0.161037 0.000000
0.989434 0.188353 0.000000
1.000022 0.216042 0.000000
1.000022 0.245401 0.000000
1.000022 0.292342 0.000000
0.018553 0.057822 0.052525
0.018553 0.059213 0.057019
0.030309 0.056654 0.054039
0.060574 0.053972 0.054468
0.123013 0.057348 0.054756
0.248589 0.074265 0.061343
0.402371 0.089302 0.052982
0.553745 0.113015 0.041969
0.695718 0.135028 0.022453
0.804390 0.159341 0.003408
0.886360 0.184445 0.000000
0.948566 0.208124 0.000000
0.993721 0.230511 0.000000
1.000022 0.270369 0.000000
1.000022 0.307107 0.000000
1.000022 0.351030 0.002657
0.028317 0.115727 0.063706
0.028966 0.110900 0.060975
0.047971 0.107340 0.062374
0.082770 0.104096 0.064828
0.161345 0.108609 0.059328
0.294357 0.128985 0.061226
0.446965 0.150472 0.048090
0.597060 0.176741 0.021320
0.723198 0.202816 0.003301
0.820135 0.221618 0.000000
0.895828 0.244341 0.000000
0.955364 0.267468 0.000000
0.996371 0.293731 0.000000
1.000022 0.336454 0.000000
1.000022 0.372092 0.011625
1.000022 0.413674 0.061442
0.037843 0.201447 0.073985
0.045491 0.185935 0.066794
0.071340 0.181036 0.072127
0.108415 0.179304 0.088007
0.184675 0.176911 0.081701
0.308882 0.202874 0.071665
0.479746 0.220613 0.058188
0.623915 0.244831 0.027346
0.747371 0.272191 0.009974
0.831299 0.293767 0.000000
0.902035 0.317798 0.000000
0.960667 0.336564 0.001192
0.997884 0.361371 0.007847
1.000022 0.400934 0.039270
1.000022 0.435731 0.087092
1.000022 0.473778 0.127731
0.087519 0.324001 0.089891
0.133897 0.290373 0.079638
0.170294 0.284107 0.083915
0.196687 0.292815 0.103247
0.234100 0.280792 0.120228
0.299639 0.280228 0.113316
0.496766 0.329561 0.073111
0.647018 0.343263 0.054492
0.766032 0.357627 0.033897
0.846107 0.378506 0.024763
0.911523 0.396009 0.035258
0.967511 0.417162 0.053843
1.000022 0.439050 0.079776
1.000022 0.480663 0.123926
1.000022 0.508462 0.151406
1.000022 0.542662 0.182621
0.225946 0.449347 0.098907
0.259596 0.411248 0.103184
0.286885 0.397563 0.108083
0.317515 0.410268 0.125644
0.338630 0.411737 0.155858
0.362363 0.402102 0.166790
0.463881 0.406689 0.149075
0.653331 0.455922 0.103510
0.777183 0.455824 0.085817
0.856236 0.455301 0.089009
0.922609 0.469250 0.100375
0.973314 0.486834 0.116284
1.000022 0.508681 0.144180
1.000022 0.547753 0.175446
1.000022 0.575277 0.201439
1.000022 0.608493 0.232991
0.382696 0.581967 0.130730
0.402550 0.546600 0.126429
0.428763 0.536864 0.133623
0.458328 0.548342 0.151811
0.489747 0.557996 0.183785
0.507027 0.560516 0.213288
0.535919 0.550270 0.222032
0.613323 0.552597 0.212955
0.768947 0.588112 0.173113
0.867111 0.575555 0.147088
0.932772 0.560981 0.154314
0.984999 0.563416 0.176277
1.000022 0.584187 0.200023
1.000022 0.620878 0.231985
1.000022 0.646323 0.257940
1.000022 0.674343 0.282177
0.489904 0.680526 0.156030
0.509146 0.649402 0.151448
0.535508 0.648906 0.158993
0.564413 0.658470 0.178145
0.592728 0.665004 0.208580
0.619920 0.671020 0.245844
0.639648 0.672393 0.275289
0.671364 0.665052 0.284259
0.753936 0.671684 0.270219
0.852698 0.685249 0.237808
0.934123 0.664971 0.212929
0.992247 0.641906 0.219473
1.000022 0.653649 0.244802
1.000022 0.683191 0.272922
1.000022 0.707121 0.295289
1.000022 0.735389 0.317549
0.582206 0.772456 0.189038
0.602901 0.753275 0.184919
0.625183 0.749645 0.192538
0.650724 0.756662 0.211630
0.683082 0.762856 0.242019
0.707963 0.766656 0.274522
0.735832 0.770979 0.311674
0.755006 0.771873 0.336615
0.786759 0.767984 0.345343
0.843447 0.765449 0.333415
0.921080 0.770072 0.318569
0.985935 0.755708 0.302157
1.000022 0.752063 0.299403
1.000022 0.761661 0.315093
1.000022 0.780480 0.329362
1.000022 0.805622 0.350049
0.636995 0.829094 0.215922
0.659137 0.817182 0.211957
0.682722 0.813610 0.218201
0.704455 0.818728 0.237747
0.735114 0.825739 0.267787
0.762126 0.829055 0.302795
0.787443 0.829853 0.336555
0.812098 0.832365 0.361828
0.835074 0.832263 0.382790
0.857527 0.826206 0.389928
0.912238 0.824724 0.384285
0.969272 0.827476 0.378142
1.000022 0.831547 0.377284
1.000022 0.837183 0.372905
1.000022 0.842901 0.375421
1.000022 0.864520 0.396212
0.682637 0.866992 0.235884
0.701139 0.861061 0.231678
0.721216 0.860983 0.239795
0.743679 0.865515 0.260578
0.773835 0.870184 0.291022
0.799215 0.875877 0.328041
0.824725 0.881769 0.364321
0.852222 0.884041 0.394495
0.876837 0.884094 0.412627
0.894581 0.885201 0.426596
0.918443 0.877111 0.431381
0.958710 0.874873 0.436765
0.990211 0.876244 0.439960
1.000022 0.887406 0.440864
1.000022 0.896547 0.436906
1.000022 0.908086 0.434117
0.707971 0.897447 0.249066
0.731601 0.892539 0.248922
0.752260 0.895229 0.257956
0.774249 0.898523 0.281943
0.799540 0.903763 0.310783
0.817472 0.908711 0.346422
0.845033 0.914831 0.383032
0.870495 0.918268 0.412582
0.895101 0.920986 0.436931
0.917462 0.923788 0.457583
0.936578 0.921305 0.468113
0.948167 0.916629 0.472001
0.969208 0.911131 0.474822
0.996832 0.911815 0.476899
1.000022 0.922711 0.477170
1.000022 0.936285 0.480485
0.733962 0.921519 0.261801
0.757363 0.921519 0.268928
0.779104 0.925995 0.288513
0.797507 0.928540 0.307574
0.816471 0.932780 0.339338
0.837201 0.937968 0.368777
0.861162 0.941783 0.407507
0.884581 0.945843 0.433661
0.907400 0.950550 0.460902
0.922733 0.953249 0.478620
0.939029 0.954198 0.494162
0.954833 0.954213 0.503197
0.967232 0.948957 0.509575
0.982139 0.945765 0.511222
0.998563 0.944999 0.510555
1.000022 0.956607 0.509391
0.751213 0.945897 0.313812
0.772553 0.945897 0.323226
0.791479 0.950947 0.347171
0.812929 0.953803 0.371761
0.830170 0.958902 0.400061
0.851341 0.961771 0.425023
0.870968 0.966377 0.451335
0.885456 0.971597 0.477456
0.903206 0.976774 0.502247
0.919344 0.977367 0.522476
0.935597 0.979873 0.535946
0.951174 0.981037 0.548909
0.965831 0.981491 0.553088
0.982689 0.979578 0.540507
0.995517 0.974282 0.533327
1.000022 0.977047 0.525981
0.000000 0.000000 0.084253
0.000000 0.000000 0.084253
0.000000 0.000000 0.084253
0.021882 0.000000 0.082317
0.055082 0.000000 0.078980
0.110545 0.000000 0.082724
0.258523 0.006973 0.107755
0.441077 0.012025 0.138163
0.632613 0.046431 0.154106
0.758856 0.066357 0.144775
0.857072 0.087437 0.114870
0.925177 0.106080 0.081811
0.976850 0.127134 0.075981
1.000022 0.156501 0.066306
1.000022 0.182474 0.034230
1.000022 0.206985 0.000000
0.000000 0.011681 0.083724
0.000000 0.017281 0.083723
0.002019 0.013725 0.083723
0.024399 0.006990 0.083476
0.062530 0.014016 0.081256
0.135684 0.020852 0.088372
0.290894 0.032740 0.116091
0.472527 0.048012 0.136539
0.651732 0.071719 0.139962
0.771058 0.083633 0.106580
0.864492 0.110813 0.085137
0.934313 0.139665 0.071790
0.982827 0.160691 0.063360
1.000022 0.191311 0.038275
1.000022 0.214357 0.003564
1.000022 0.249869 0.000857
0.000000 0.042390 0.089085
0.000858 0.042595 0.090147
0.000920 0.043638 0.090692
0.031101 0.041005 0.091230
0.075814 0.035744 0.086606
0.164584 0.049467 0.096867
0.334604 0.070986 0.121119
0.504539 0.083810 0.130590
0.668799 0.099920 0.108692
0.783731 0.124917 0.083037
0.873070 0.161597 0.074126
0.939798 0.186231 0.055899
0.988153 0.210388 0.014439
1.000022 0.230639 0.000000
1.000022 0.262510 0.001650
1.000022 0.305208 0.030711
0.015714 0.068118 0.094973
0.015747 0.069037 0.095913
0.016599 0.066750 0.095677
0.045009 0.066212 0.094825
0.099567 0.065483 0.089402
0.203581 0.081382 0.102481
0.374281 0.100099 0.109392
0.538796 0.123404 0.101339
0.686418 0.157254 0.089226
0.796282 0.189153 0.068592
0.878360 0.213462 0.041772
0.942165 0.230143 0.006698
0.990092 0.251967 0.001600
1.000022 0.289738 0.017217
1.000022 0.321996 0.040271
1.000022 0.360879 0.081176
0.040600 0.134439 0.117024
0.039908 0.132867 0.113923
0.043617 0.124092 0.111035
0.066621 0.117381 0.112315
0.132011 0.116411 0.105924
0.250703 0.135760 0.110564
0.423942 0.171432 0.116182
0.571895 0.201964 0.109600
0.709288 0.231941 0.095568
0.807498 0.254337 0.067774
0.885663 0.276147 0.049898
0.948056 0.293341 0.034150
0.993767 0.315681 0.040874
1.000022 0.354184 0.066437
1.000022 0.385170 0.099934
1.000022 0.422161 0.134070
0.056811 0.235264 0.141209
0.059561 0.231955 0.134738
0.067944 0.217536 0.126158
0.094128 0.200903 0.130109
0.159624 0.191142 0.133471
0.272210 0.204216 0.126360
0.452589 0.241202 0.130348
0.596184 0.266659 0.129652
0.723247 0.298982 0.117947
0.816828 0.325495 0.099107
0.893014 0.343893 0.086874
0.952773 0.361764 0.085410
0.995623 0.383191 0.098460
1.000022 0.418032 0.122628
1.000022 0.447600 0.148091
1.000022 0.482288 0.179479
0.083442 0.378124 0.180563
0.105486 0.350887 0.151233
0.139729 0.310447 0.124974
0.186202 0.299577 0.134954
0.225933 0.301917 0.168435
0.287629 0.294433 0.167287
0.468897 0.344299 0.157931
0.633702 0.364414 0.152722
0.751549 0.377459 0.149452
0.832709 0.399002 0.141619
0.902993 0.419855 0.137741
0.960136 0.437614 0.142016
0.998041 0.458666 0.146670
1.000022 0.494189 0.178460
1.000022 0.521558 0.200432
1.000022 0.552004 0.226465
0.152478 0.491114 0.163916
0.231645 0.464387 0.142875
0.276323 0.420835 0.141407
0.315015 0.420860 0.157096
0.348050 0.429161 0.190817
0.367573 0.424640 0.212770
0.442739 0.415604 0.206004
0.640972 0.468627 0.188269
