pictu/PRESTON CHEN 10 CINEMATIC FREE LUT PACK/3. DESERT TONES LUT.cube
LUT_3D_SIZE 6
0.000000 0.000000 0.000000
0.040300 0.000000 0.000000
0.351988 0.000000 0.003094
0.783425 0.000000 0.000000
0.988230 0.098786 0.000000
1.000022 0.191211 0.000000
0.000971 0.051743 0.000896
0.063719 0.044449 0.000824
0.418222 0.054002 0.000000
0.810644 0.115476 0.000000
0.994935 0.215213 0.000000
1.000022 0.343942 0.000000
0.124245 0.267460 0.038412
0.192649 0.269916 0.075020
0.499880 0.311369 0.005835
0.856880 0.345207 0.000000
1.000022 0.419164 0.000000
1.000022 0.533283 0.075147
0.496445 0.663678 0.121936
0.562815 0.651789 0.149161
0.632253 0.661944 0.235232
0.852016 0.668684 0.171289
1.000022 0.639762 0.160942
1.000022 0.726902 0.243950
0.689357 0.863954 0.195942
0.748164 0.866717 0.227384
0.826603 0.879252 0.319563
0.895665 0.882084 0.379230
0.985649 0.871834 0.384283
1.000022 0.894922 0.371563
0.751930 0.945897 0.228279
0.812439 0.953789 0.274777
0.869191 0.966405 0.358881
0.917383 0.977370 0.431083
0.966022 0.979962 0.466217
1.000022 0.973715 0.474265
0.000000 0.000000 0.084253
0.021882 0.000000 0.082317
0.258523 0.006973 0.107755
0.758856 0.066357 0.144775
0.976850 0.127134 0.075981
1.000022 0.206985 0.000000
0.015714 0.068118 0.094973
0.045009 0.066212 0.094825
0.374281 0.100099 0.109392
0.796282 0.189153 0.068592
0.990092 0.251967 0.001600
1.000022 0.360879 0.081176
0.083442 0.378124 0.180563
0.186202 0.299577 0.134954
0.468897 0.344299 0.157931
0.832709 0.399002 0.141619
0.998041 0.458666 0.146670
1.000022 0.552004 0.226465
0.479716 0.714684 0.195779
0.559389 0.666132 0.205153
0.644258 0.680788 0.315247
0.854490 0.696937 0.311013
1.000022 0.673336 0.317280
1.000022 0.747501 0.361177
0.675888 0.869027 0.262880
0.741011 0.863948 0.285766
0.822390 0.881799 0.384622
0.895162 0.885940 0.456975
0.992439 0.884455 0.494537
1.000022 0.919085 0.503302
0.749399 0.945830 0.357200
0.806179 0.951982 0.397891
0.870764 0.966401 0.496329
0.920088 0.978534 0.560531
0.966146 0.982143 0.603399
1.000022 0.978756 0.569371
0.000000 0.146364 0.381759
0.044524 0.123920 0.363341
0.129559 0.049902 0.315670
0.471290 0.054373 0.323299
0.944612 0.132688 0.343868
1.000022 0.189750 0.264284
0.027014 0.264169 0.426026
0.064041 0.258713 0.419935
0.162449 0.128241 0.363449
0.561977 0.131214 0.358267
0.961342 0.230507 0.322623
1.000022 0.338670 0.230900
0.125818 0.490830 0.522205
0.142801 0.501404 0.530792
0.325384 0.439529 0.474899
0.803121 0.479003 0.432149
0.990959 0.511281 0.403335
1.000022 0.591020 0.425053
0.215718 0.837946 0.449638
0.262967 0.824929 0.442804
0.614151 0.737325 0.460219
0.814675 0.748689 0.608906
1.000022 0.790848 0.662689
1.000022 0.828078 0.657371
0.448020 0.929174 0.422931
0.678520 0.917684 0.485874
0.800193 0.878862 0.511509
0.891271 0.893945 0.633130
0.996334 0.932456 0.733882
1.000022 0.979353 0.784203
0.741159 0.974177 0.559475
0.795545 0.963266 0.559971
0.861236 0.956754 0.562334
0.922596 0.974120 0.665659
0.967931 0.982582 0.728812
1.000022 0.995153 0.749964
0.020956 0.440325 0.798331
0.098840 0.416977 0.787283
0.164659 0.365498 0.769135
0.473614 0.091867 0.665576
0.773322 0.103088 0.665043
0.954303 0.146318 0.646542
0.096633 0.553671 0.820619
0.131947 0.551752 0.819731
0.239308 0.527268 0.808852
0.490602 0.209025 0.682013
0.790279 0.227391 0.674895
0.981845 0.282248 0.650345
0.171120 0.688604 0.841629
0.205892 0.698463 0.845916
0.457492 0.722934 0.859491
0.599993 0.550690 0.763440
0.853007 0.507668 0.718298
1.000022 0.573734 0.702871
0.297940 0.901177 0.895859
0.340807 0.899915 0.895111
0.599289 0.904709 0.902177
0.733983 0.770674 0.778016
0.956159 0.833165 0.822221
1.000022 0.877377 0.837298
0.359130 1.000020 0.804810
0.391623 1.000020 0.795514
0.492177 0.997734 0.735980
0.832236 0.922432 0.763987
0.953087 0.926122 0.847840
1.000022 0.999401 0.920701
0.267340 1.007058 0.527178
0.359844 1.005231 0.484947
0.797472 0.995127 0.722933
0.918451 0.979867 0.793524
0.971762 0.987399 0.831151
1.000022 1.007058 0.880980
0.109498 0.625316 0.978480
0.181801 0.617510 0.972231
0.313934 0.580653 0.953529
0.364333 0.287688 0.917335
0.790921 0.213131 0.864217
0.933894 0.216536 0.832621
0.180845 0.705345 0.984796
0.241654 0.703678 0.980621
0.453351 0.706507 0.972279
0.538900 0.594695 0.931321
0.807268 0.369803 0.871969
0.942789 0.376195 0.838717
0.281996 0.808756 0.994682
0.369191 0.813263 0.994036
0.584664 0.827706 0.991618
0.768582 0.824819 0.961678
0.845904 0.608205 0.882354
0.960688 0.618668 0.863180
0.345086 0.926521 1.000020
0.420235 0.924516 1.000020
0.653981 0.940904 1.000020
0.850090 0.929151 0.978568
0.883730 0.803898 0.896104
0.997911 0.842158 0.925808
0.494199 1.000020 1.000020
0.582011 1.000020 1.000020
0.775713 1.000020 1.000020
0.911085 1.000020 1.000057
0.912994 0.923369 0.911804
1.000022 0.957031 0.940794
0.584560 1.007058 1.000020
0.715573 1.007058 1.000020
0.823991 1.007058 1.000020
0.906476 1.007058 0.989982
0.941038 0.998399 0.910034
1.000022 1.006997 0.938892
0.371113 0.717171 1.066912
0.476953 0.708729 1.066912
0.540381 0.659625 1.066797
0.579999 0.324988 0.984967
0.819392 0.304212 0.963792
0.946333 0.320482 0.966427
0.393309 0.802543 1.066912
0.551639 0.808695 1.066912
0.693721 0.805149 1.066912
0.697452 0.679302 1.050703
0.834141 0.484201 0.972495
0.955911 0.510778 0.972495
0.469841 0.898906 1.066912
0.609734 0.907124 1.066912
0.773495 0.914658 1.066912
0.852415 0.881954 1.066869
0.870158 0.693949 0.979056
0.969482 0.704411 0.981101
0.580402 0.997551 1.066912
0.686367 0.997773 1.066912
0.819988 0.999077 1.066912
0.891470 0.953072 1.066912
0.913119 0.872325 0.998176
0.985000 0.842440 0.989470
0.701079 1.000020 1.066912
0.770390 1.000020 1.066912
0.871659 1.000020 1.066912
0.936848 1.000020 1.066912
0.939594 0.950043 1.002348
0.995636 0.936095 1.001458
0.775391 1.007058 1.066912
0.854191 1.007058 1.066912
0.920591 1.007058 1.066912
0.969925 1.007058 1.066912
0.955177 1.004664 1.029311
0.996124 0.989083 0.999766
