pictu/PRESTON CHEN 10 CINEMATIC FREE LUT PACK/4. SUNSET SKY LUT.cube
TITLE "ColorFinale Export"
# Created by Daniel Schiffer on 2018-08-07 22:02:20 +0000
# Color Finale Plugin v.1.8.2 (224)
DOMAIN_MIN 0.0 0.0 0.0
DOMAIN_MAX 1.0 1.0 1.0
LUT_3D_SIZE 9
0.0351 0.0735 0.0759
0.0492 0.0759 0.0780
0.0751 0.0768 0.0791
0.1325 0.0863 0.0840
0.2505 0.1086 0.0732
0.4397 0.1452 0.0496
0.6820 0.1956 0.1638
0.8388 0.2290 0.2027
0.8733 0.2360 0.2087
0.0524 0.0849 0.0717
0.0563 0.0858 0.0794
0.0922 0.0884 0.0801
0.1625 0.0993 0.0875
0.3105 0.1200 0.0449
0.5023 0.1604 0.0690
0.7552 0.2143 0.1860
0.8506 0.2345 0.2040
0.8836 0.2418 0.2096
0.0848 0.1110 0.0644
0.1042 0.1144 0.0651
0.1208 0.1159 0.0776
0.2088 0.1252 0.0821
0.3688 0.1425 0.0409
0.5721 0.1866 0.1056
0.8022 0.2309 0.1934
0.8619 0.2433 0.2042
0.8917 0.2511 0.2089
0.1597 0.1689 0.0475
0.1875 0.1752 0.0471
0.2450 0.1776 0.0149
0.2984 0.1809 0.0235
0.4442 0.2095 0.0427
0.6472 0.2452 0.1017
0.8494 0.2919 0.1808
0.8936 0.2985 0.1902
0.9184 0.3074 0.1936
0.2981 0.2656 0.0073
0.3473 0.2817 0.0020
0.4095 0.2851 0.0086
0.5060 0.2863 0.0327
0.6025 0.2991 0.0612
0.7668 0.3378 0.1364
0.9119 0.3832 0.1533
0.9466 0.3969 0.1531
0.9575 0.4080 0.1477
0.5008 0.4238 0.0088
0.5623 0.4460 0.0261
0.6464 0.4520 0.0455
0.7385 0.4388 0.0615
0.8256 0.4496 0.0855
0.8914 0.4644 0.1039
0.9525 0.4941 0.1083
0.9642 0.5070 0.1077
0.9698 0.5176 0.1058
0.6860 0.5972 0.0339
0.7387 0.6265 0.0342
0.8133 0.6448 0.0383
0.9053 0.6236 0.0518
0.9389 0.6065 0.0628
0.9547 0.6048 0.0809
0.9680 0.6096 0.0887
0.9759 0.6116 0.0888
0.9808 0.6176 0.0897
0.8135 0.7600 0.0351
0.8699 0.7887 0.0351
0.9259 0.8075 0.0351
0.9567 0.7979 0.0358
0.9724 0.7526 0.0447
0.9833 0.7286 0.0620
0.9877 0.7296 0.0719
0.9902 0.7344 0.0772
0.9952 0.7480 0.0771
0.9034 0.8729 0.0350
0.9407 0.8811 0.0350
0.9596 0.8937 0.0350
0.9768 0.8890 0.0351
0.9917 0.8613 0.0352
0.9952 0.8589 0.0408
0.9976 0.8614 0.0460
0.9995 0.8672 0.0503
0.9999 0.8728 0.0540
0.0320 0.0751 0.0831
0.0479 0.0783 0.0861
0.0780 0.0786 0.0889
0.1391 0.0861 0.0921
0.2561 0.1078 0.0791
0.4450 0.1439 0.0565
0.6909 0.1972 0.1703
0.8397 0.2291 0.2049
0.8734 0.2360 0.2110
0.0326 0.0863 0.0868
0.0506 0.0876 0.0889
0.0882 0.0893 0.0907
0.1635 0.1009 0.0972
0.3121 0.1213 0.0539
0.5119 0.1616 0.0792
0.7558 0.2145 0.1882
0.8518 0.2349 0.2065
0.8836 0.2416 0.2121
0.0664 0.1141 0.0726
0.0978 0.1179 0.0714
0.1178 0.1220 0.0900
0.2139 0.1319 0.0950
0.3735 0.1485 0.0469
0.5772 0.1900 0.1101
0.8014 0.2326 0.1949
0.8624 0.2444 0.2066
0.8915 0.2516 0.2115
0.1329 0.1802 0.0591
0.1916 0.1860 0.0536
0.2443 0.1871 0.0256
0.3064 0.1886 0.0276
0.4513 0.2146 0.0454
0.6529 0.2495 0.1049
0.8541 0.2960 0.1831
0.8951 0.3035 0.1917
0.9203 0.3149 0.1945
0.2606 0.2789 0.0302
0.3515 0.2925 0.0015
0.4182 0.2993 0.0103
0.5202 0.2983 0.0333
0.6106 0.3083 0.0645
0.7771 0.3490 0.1364
0.9117 0.3876 0.1529
0.9492 0.4043 0.1513
0.9582 0.4161 0.1447
0.4517 0.4259 0.0197
0.5681 0.4619 0.0305
0.6482 0.4736 0.0422
0.7460 0.4616 0.0604
0.8279 0.4624 0.0835
0.8925 0.4760 0.1049
0.9531 0.5066 0.1089
0.9650 0.5180 0.1082
0.9704 0.5284 0.1071
0.6247 0.5920 0.0336
0.7432 0.6407 0.0343
0.8150 0.6717 0.0348
0.9027 0.6581 0.0469
0.9400 0.6295 0.0632
0.9549 0.6201 0.0801
0.9680 0.6218 0.0908
0.9771 0.6259 0.0932
0.9821 0.6308 0.0944
0.7506 0.7583 0.0350
0.8656 0.8017 0.0351
0.9229 0.8185 0.0351
0.9559 0.8246 0.0354
0.9724 0.7793 0.0432
0.9846 0.7502 0.0572
0.9891 0.7465 0.0709
0.9920 0.7560 0.0733
0.9962 0.7621 0.0758
0.8366 0.8749 0.0352
0.9392 0.8849 0.0350
0.9590 0.8950 0.0350
0.9760 0.8964 0.0351
0.9907 0.8653 0.0411
0.9949 0.8645 0.0469
0.9971 0.8688 0.0518
0.9992 0.8753 0.0561
0.9999 0.8784 0.0599
0.0256 0.0785 0.0978
0.0413 0.0813 0.1018
0.0813 0.0848 0.1089
0.1576 0.0898 0.1116
0.2733 0.1050 0.1026
0.4529 0.1362 0.0829
0.6874 0.1948 0.1840
0.8382 0.2275 0.2138
0.8706 0.2342 0.2187
0.0259 0.0888 0.1062
0.0386 0.0921 0.1108
0.0910 0.0965 0.1182
0.1777 0.1039 0.1198
0.3189 0.1191 0.0920
0.5155 0.1530 0.1154
0.7522 0.2113 0.2052
0.8482 0.2320 0.2188
0.8787 0.2383 0.2244
0.0169 0.1139 0.1169
0.0318 0.1199 0.1182
0.0913 0.1276 0.1253
0.2031 0.1398 0.1323
0.3707 0.1543 0.0789
0.5705 0.1841 0.1311
0.7969 0.2304 0.2107
0.8596 0.2416 0.2209
0.8854 0.2461 0.2276
0.0903 0.1889 0.0630
0.1342 0.2010 0.0676
0.2347 0.1979 0.0503
0.2938 0.2005 0.0781
0.4525 0.2217 0.0653
0.6436 0.2442 0.1282
0.8422 0.2925 0.1963
0.8946 0.3048 0.2032
0.9194 0.3141 0.2081
0.1947 0.2934 0.0490
0.2797 0.3057 0.0488
0.4200 0.3173 0.0116
0.5163 0.3115 0.0329
0.6044 0.3221 0.0703
0.7727 0.3595 0.1340
0.9039 0.3948 0.1522
0.9482 0.4122 0.1526
0.9586 0.4250 0.1462
0.3644 0.4211 0.0555
0.4753 0.4570 0.0293
0.6470 0.5000 0.0415
0.7446 0.4892 0.0612
0.8322 0.4827 0.0816
0.8877 0.4904 0.1071
0.9524 0.5176 0.1152
0.9659 0.5346 0.1121
0.9713 0.5453 0.1131
0.5220 0.5700 0.0391
0.6527 0.6230 0.0338
0.8081 0.6842 0.0354
0.8911 0.6964 0.0457
0.9408 0.6619 0.0641
0.9548 0.6408 0.0803
0.9671 0.6379 0.0968
0.9786 0.6407 0.1019
0.9826 0.6454 0.1060
0.6596 0.7621 0.0263
0.7685 0.7980 0.0352
0.9175 0.8314 0.0350
0.9528 0.8445 0.0406
0.9706 0.8098 0.0471
0.9844 0.7754 0.0584
0.9907 0.7663 0.0683
0.9940 0.7748 0.0747
0.9974 0.7784 0.0845
0.7517 0.8732 0.0350
0.8627 0.8822 0.0351
0.9570 0.8945 0.0349
0.9741 0.9048 0.0409
0.9890 0.8746 0.0474
0.9947 0.8751 0.0533
0.9969 0.8772 0.0583
0.9989 0.8804 0.0625
0.9999 0.8709 0.0846
0.0178 0.0883 0.1258
0.0284 0.0908 0.1339
0.0626 0.0957 0.1448
0.1787 0.1065 0.1594
0.3136 0.1203 0.1505
0.4884 0.1469 0.1352
0.6997 0.1994 0.2064
0.8427 0.2285 0.2384
0.8726 0.2342 0.2440
0.0145 0.0982 0.1379
0.0204 0.1044 0.1502
0.0599 0.1091 0.1612
0.2123 0.1240 0.1772
0.3714 0.1399 0.1611
0.5576 0.1691 0.1719
0.7610 0.2156 0.2265
0.8564 0.2349 0.2450
0.8857 0.2412 0.2516
0.0109 0.1182 0.1504
0.0181 0.1275 0.1628
0.0451 0.1416 0.1811
0.2362 0.1576 0.2004
0.4134 0.1699 0.1708
0.6115 0.2001 0.1989
0.7965 0.2341 0.2365
0.8691 0.2462 0.2498
0.8945 0.2520 0.2560
0.0081 0.1782 0.1702
0.0146 0.1948 0.1811
0.0357 0.2106 0.1972
0.2095 0.2347 0.2201
0.4256 0.2478 0.2064
0.6389 0.2480 0.2086
0.8360 0.2779 0.2369
0.8964 0.2919 0.2471
0.9290 0.3021 0.2535
0.1055 0.2998 0.0599
0.1516 0.3247 0.0555
0.2794 0.3315 0.0959
0.4982 0.3381 0.0419
0.5660 0.3518 0.1443
0.7487 0.3871 0.2006
0.8976 0.4219 0.2570
0.9505 0.4309 0.2728
0.9581 0.4456 0.2870
0.2586 0.4293 0.0320
0.3530 0.4457 0.0667
0.5162 0.4872 0.0438
0.7309 0.5227 0.0605
0.8174 0.5075 0.0887
0.8649 0.5193 0.1577
0.9500 0.5481 0.1946
0.9665 0.5665 0.2136
0.9717 0.5799 0.2366
0.4210 0.5566 0.0699
0.5306 0.5948 0.0591
0.6957 0.6587 0.0453
0.8765 0.7218 0.0487
0.9376 0.6972 0.0637
0.9537 0.6647 0.0911
0.9664 0.6610 0.1388
0.9790 0.6689 0.2001
0.9827 0.6794 0.2468
0.5538 0.7560 0.0105
0.6690 0.7993 0.0414
0.8156 0.8272 0.0455
0.9496 0.8513 0.0473
0.9672 0.8418 0.0535
0.9833 0.8026 0.0599
0.9909 0.7823 0.0869
0.9922 0.7859 0.1764
0.9959 0.7925 0.2240
0.6616 0.8679 0.0416
0.7685 0.8779 0.0445
0.9104 0.8894 0.0459
0.9712 0.9101 0.0478
0.9867 0.8844 0.0543
0.9944 0.8797 0.0601
0.9966 0.8760 0.0740
0.9987 0.8601 0.1166
0.9999 0.8520 0.2422
0.0139 0.1026 0.1665
0.0182 0.1085 0.1786
0.0287 0.1150 0.1959
0.1312 0.1249 0.2247
0.3548 0.1554 0.2329
0.5746 0.1810 0.2267
0.7362 0.2226 0.2697
0.8757 0.2447 0.2803
0.9184 0.2508 0.2905
0.0135 0.1160 0.1851
0.0192 0.1223 0.1959
0.0327 0.1322 0.2162
0.1493 0.1448 0.2531
0.4233 0.1830 0.2539
0.6434 0.2045 0.2630
0.7933 0.2442 0.2975
0.8951 0.2626 0.3116
0.9250 0.2710 0.3202
0.0121 0.1377 0.2016
0.0174 0.1479 0.2143
0.0331 0.1618 0.2346
0.1487 0.1769 0.2810
0.4833 0.2202 0.2737
0.6908 0.2393 0.2927
0.8289 0.2748 0.3215
0.9034 0.2870 0.3331
0.9295 0.2942 0.3420
0.0083 0.1869 0.2227
0.0143 0.2003 0.2365
0.0313 0.2204 0.2563
0.0693 0.2497 0.3031
0.4864 0.2834 0.3208
0.7012 0.2907 0.3174
0.8386 0.3252 0.3483
0.9158 0.3376 0.3583
0.9406 0.3478 0.3694
0.0107 0.2902 0.2570
0.0151 0.3123 0.2739
0.0321 0.3368 0.2943
0.0654 0.3779 0.3342
0.4495 0.4165 0.3836
0.6820 0.4442 0.3842
0.8539 0.4459 0.3958
0.9372 0.4451 0.4106
0.9548 0.4514 0.4215
0.0982 0.4005 0.1307
0.1440 0.4435 0.1147
0.3090 0.4823 0.1401
0.5537 0.5282 0.1606
0.7818 0.5533 0.1288
0.8090 0.5709 0.3429
0.9371 0.6025 0.3917
0.9676 0.6250 0.4102
0.9728 0.6372 0.4251
0.3141 0.5502 0.0479
0.4050 0.5717 0.0977
0.5646 0.6218 0.1014
0.7531 0.7003 0.0711
0.9279 0.7264 0.0798
0.9517 0.6882 0.1265
0.9625 0.6983 0.3293
0.9783 0.7088 0.3883
0.9828 0.7208 0.4157
0.4519 0.7324 0.0187
0.5593 0.7824 0.0271
0.7130 0.8205 0.0573
0.8710 0.8424 0.0590
0.9638 0.8634 0.0604
0.9791 0.8241 0.0933
0.9889 0.8000 0.2281
0.9904 0.8058 0.3764
0.9937 0.8107 0.4146
0.5668 0.8471 0.0471
0.6809 0.8730 0.0549
0.8143 0.8869 0.0577
0.9444 0.8914 0.0591
0.9837 0.8942 0.0609
0.9941 0.8674 0.0864
0.9963 0.8546 0.1837
0.9983 0.8549 0.3132
0.9994 0.8596 0.4160
0.0147 0.1245 0.2146
0.0192 0.1316 0.2275
0.0291 0.1398 0.2461
0.0521 0.1555 0.2843
0.3273 0.1808 0.3158
0.6146 0.2235 0.3041
0.8104 0.2532 0.3411
0.9317 0.2845 0.3610
0.9508 0.2943 0.3696
0.0144 0.1416 0.2353
0.0205 0.1481 0.2472
0.0322 0.1597 0.2686
0.0656 0.1767 0.3142
0.3845 0.2104 0.3402
0.6814 0.2506 0.3350
0.8629 0.2757 0.3646
0.9545 0.3007 0.3839
0.9640 0.3121 0.4003
0.0137 0.1668 0.2588
0.0196 0.1765 0.2712
0.0337 0.1879 0.2887
0.0621 0.2094 0.3385
0.4323 0.2483 0.3663
0.7293 0.2886 0.3612
0.8901 0.3118 0.3892
0.9587 0.3288 0.4134
0.9661 0.3414 0.4348
0.0102 0.2097 0.2791
0.0156 0.2228 0.2940
0.0319 0.2425 0.3185
0.0615 0.2725 0.3623
0.4075 0.2980 0.4187
0.7394 0.3400 0.3947
0.8921 0.3666 0.4341
0.9618 0.3865 0.4608
0.9685 0.4043 0.4835
0.0105 0.2935 0.3212
0.0156 0.3116 0.3404
0.0319 0.3374 0.3677
0.0629 0.3723 0.4072
0.2407 0.4235 0.5220
0.7073 0.4660 0.5153
0.8747 0.4761 0.5140
0.9442 0.4860 0.5329
0.9584 0.5031 0.5519
0.0147 0.4354 0.3873
0.0207 0.4568 0.4065
0.0379 0.4848 0.4340
0.0681 0.5279 0.4724
0.1925 0.5900 0.5436
0.7047 0.6294 0.5960
0.8667 0.6551 0.5941
0.9597 0.6631 0.5893
0.9707 0.6736 0.6078
0.0272 0.5217 0.2846
0.0429 0.5337 0.2978
0.1909 0.5737 0.2862
0.5145 0.6504 0.3126
0.7472 0.7209 0.3531
0.9440 0.7321 0.3142
0.9545 0.7538 0.5385
0.9796 0.7682 0.5689
0.9842 0.7789 0.5928
0.3030 0.7547 0.0823
0.4012 0.7932 0.0884
0.5418 0.8027 0.1493
0.7194 0.8293 0.2215
0.8983 0.8540 0.2545
0.9757 0.8456 0.1568
0.9868 0.8226 0.3894
0.9897 0.8353 0.5313
0.9932 0.8428 0.5697
0.4592 0.8186 0.0642
0.5620 0.8388 0.0905
0.7072 0.8758 0.1132
0.8578 0.8894 0.1632
0.9619 0.8993 0.1994
0.9937 0.8577 0.2110
0.9962 0.8582 0.3463
0.9973 0.8645 0.4593
0.9980 0.8788 0.5838
0.0156 0.1489 0.2614
0.0208 0.1567 0.2754
0.0304 0.1660 0.2940
0.0487 0.1808 0.3321
0.2860 0.2036 0.3963
0.5931 0.2590 0.3696
0.8246 0.3023 0.4204
0.9442 0.3236 0.4562
0.9612 0.3336 0.4748
0.0164 0.1669 0.2829
0.0217 0.1731 0.2939
0.0343 0.1843 0.3168
0.0568 0.2028 0.3628
0.3646 0.2331 0.4141
0.6635 0.2843 0.3853
0.8601 0.3292 0.4756
0.9455 0.3451 0.5005
0.9597 0.3600 0.5277
0.0148 0.1952 0.3100
0.0214 0.2048 0.3244
0.0355 0.2131 0.3387
0.0613 0.2351 0.3865
0.3894 0.2684 0.4438
0.6970 0.3226 0.4293
0.8786 0.3770 0.5390
0.9452 0.3851 0.5566
0.9552 0.3971 0.5764
0.0127 0.2356 0.3381
0.0182 0.2476 0.3544
0.0344 0.2635 0.3758
0.0622 0.2856 0.4091
0.3239 0.3105 0.4998
0.6866 0.3755 0.5075
0.8809 0.4228 0.5915
0.9450 0.4360 0.6051
0.9550 0.4465 0.6173
0.0108 0.3163 0.3833
0.0152 0.3367 0.4022
0.0333 0.3607 0.4301
0.0624 0.3876 0.4634
0.1107 0.4339 0.5634
0.6581 0.4539 0.6321
0.8735 0.5022 0.6575
0.9472 0.5148 0.6602
0.9575 0.5288 0.6756
0.0147 0.4292 0.4462
0.0211 0.4529 0.4693
0.0392 0.4821 0.4992
0.0662 0.5130 0.5339
0.1040 0.5620 0.6013
0.5704 0.6158 0.7217
0.8558 0.6573 0.7300
0.9452 0.6721 0.7396
0.9581 0.6834 0.7488
0.0221 0.5808 0.5286
0.0320 0.6018 0.5494
0.0496 0.6245 0.5684
0.0772 0.6538 0.5934
0.1144 0.7059 0.6414
0.5671 0.7775 0.7444
0.8859 0.7946 0.7298
0.9681 0.8078 0.7486
0.9797 0.8119 0.7577
0.0403 0.7391 0.4623
0.0536 0.7603 0.4939
0.0776 0.7747 0.4891
0.1676 0.8298 0.4710
0.6593 0.8709 0.4957
0.8946 0.8714 0.5684
0.9838 0.8502 0.5251
0.9893 0.8710 0.7015
0.9926 0.8780 0.7311
0.1623 0.8006 0.3049
0.1768 0.8196 0.3222
0.3560 0.8966 0.3221
0.6723 0.9084 0.3764
0.8716 0.8943 0.4642
0.9777 0.8966 0.4370
0.9952 0.8682 0.4869
0.9956 0.8833 0.6260
0.9961 0.9031 0.7693
0.0170 0.1715 0.3025
0.0217 0.1762 0.3137
0.0321 0.1859 0.3350
0.0506 0.2022 0.3735
0.2191 0.2318 0.4498
0.5763 0.2907 0.4413
0.7945 0.3415 0.5166
0.9313 0.3787 0.6244
0.9515 0.3865 0.6428
0.0169 0.1881 0.3231
0.0227 0.1922 0.3313
0.0356 0.2034 0.3552
0.0582 0.2242 0.4036
0.3125 0.2588 0.4720
0.6283 0.3152 0.4817
0.8336 0.3614 0.5745
0.9403 0.3857 0.6431
0.9549 0.3940 0.6610
0.0159 0.2161 0.3516
0.0223 0.2250 0.3649
0.0372 0.2332 0.3788
0.0633 0.2557 0.4284
0.3469 0.2924 0.5049
0.6593 0.3500 0.5444
0.8602 0.3897 0.6148
0.9488 0.4082 0.6685
0.9589 0.4185 0.6857
0.0149 0.2593 0.3869
0.0206 0.2719 0.4018
0.0363 0.2875 0.4235
0.0635 0.3047 0.4509
0.1922 0.3347 0.5557
0.6640 0.3796 0.6014
0.8763 0.4247 0.6585
0.9586 0.4474 0.7137
0.9638 0.4606 0.7201
0.0121 0.3394 0.4356
0.0164 0.3577 0.4539
0.0353 0.3849 0.4842
0.0646 0.4028 0.5104
0.0998 0.4438 0.5930
0.5278 0.4514 0.7257
0.8770 0.4886 0.7355
0.9614 0.5176 0.7609
0.9657 0.5366 0.7632
0.0152 0.4520 0.5061
0.0224 0.4733 0.5266
0.0401 0.5021 0.5563
0.0659 0.5275 0.5818
0.1044 0.5595 0.6312
0.3893 0.6143 0.7950
0.8457 0.6315 0.8051
0.9486 0.6702 0.8042
0.9608 0.6838 0.8072
0.0235 0.5796 0.5796
0.0334 0.6013 0.5969
0.0512 0.6247 0.6150
0.0750 0.6415 0.6300
0.1134 0.6730 0.6691
0.4248 0.7425 0.8097
0.8354 0.7888 0.8281
0.9415 0.8118 0.8448
0.9590 0.8133 0.8466
0.0379 0.7003 0.6324
0.0481 0.7120 0.6405
0.0644 0.7292 0.6544
0.0901 0.7523 0.6712
0.1256 0.7926 0.7055
0.4790 0.8648 0.8299
0.8460 0.8897 0.8220
0.9835 0.8960 0.8226
0.9926 0.9028 0.8323
0.0574 0.8051 0.6498
0.0692 0.8078 0.6609
0.0923 0.8265 0.6756
0.1231 0.8492 0.6863
0.4778 0.9117 0.7101
0.8604 0.9124 0.7388
0.9882 0.9028 0.7451
0.9944 0.9063 0.7842
0.9960 0.9161 0.8334
0.0174 0.1852 0.3305
0.0227 0.1906 0.3420
0.0336 0.1993 0.3631
0.0525 0.2180 0.4047
0.1857 0.2527 0.4872
0.5645 0.3083 0.5098
0.7871 0.3519 0.5696
0.9305 0.3797 0.6379
0.9530 0.3876 0.6685
0.0173 0.2000 0.3482
0.0238 0.2052 0.3567
0.0370 0.2164 0.3818
0.0600 0.2391 0.4321
0.2981 0.2774 0.5125
0.6227 0.3287 0.5444
0.8326 0.3654 0.5977
0.9411 0.3858 0.6543
0.9561 0.3946 0.6814
0.0163 0.2304 0.3798
0.0231 0.2381 0.3905
0.0387 0.2470 0.4043
0.0645 0.2722 0.4572
0.2931 0.3089 0.5520
0.6594 0.3556 0.5753
0.8690 0.3933 0.6336
0.9507 0.4089 0.6809
0.9614 0.4214 0.7095
0.0156 0.2765 0.4184
0.0218 0.2896 0.4344
0.0380 0.3061 0.4575
0.0656 0.3240 0.4846
0.1444 0.3504 0.5799
0.6721 0.3806 0.6293
0.8833 0.4269 0.6805
0.9603 0.4481 0.7284
0.9667 0.4660 0.7513
0.0144 0.3552 0.4735
0.0194 0.3755 0.4928
0.0378 0.3961 0.5163
0.0658 0.4144 0.5363
0.1012 0.4535 0.6112
0.4829 0.4594 0.7498
0.8774 0.4899 0.7554
0.9632 0.5218 0.7856
0.9675 0.5467 0.7928
0.0164 0.4694 0.5424
0.0240 0.4927 0.5619
0.0414 0.5147 0.5804
0.0683 0.5368 0.5998
0.1053 0.5670 0.6430
0.3615 0.6208 0.8072
0.8499 0.6349 0.8234
0.9527 0.6707 0.8252
0.9624 0.6966 0.8285
0.0245 0.5854 0.6020
0.0352 0.6064 0.6144
0.0529 0.6278 0.6285
0.0778 0.6444 0.6418
0.1144 0.6728 0.6774
0.4344 0.7435 0.8322
0.8354 0.7891 0.8439
0.9400 0.8120 0.8566
0.9576 0.8269 0.8644
0.0399 0.7001 0.6491
0.0500 0.7108 0.6564
0.0665 0.7259 0.6653
0.0918 0.7475 0.6805
0.1275 0.7858 0.7152
0.4638 0.8549 0.8431
0.8352 0.8927 0.8564
0.9768 0.9038 0.8544
0.9911 0.9094 0.8558
0.0569 0.7519 0.6733
0.0674 0.7604 0.6798
0.0830 0.7710 0.6876
0.1131 0.7949 0.7043
0.1652 0.8490 0.7617
0.6525 0.8999 0.8619
0.9114 0.9160 0.8472
0.9900 0.9153 0.8422
0.9959 0.9205 0.8497
