pictu/PRESTON CHEN 10 CINEMATIC FREE LUT PACK/4. SUNSET SKY LUT.cube
TITLE "ColorFinale Export"
# Created by Daniel Schiffer on 2018-08-07 22:02:20 +0000
# Color Finale Plugin v.1.8.2 (224)
DOMAIN_MIN 0.0 0.0 0.0
DOMAIN_MAX 1.0 1.0 1.0
LUT_3D_SIZE 33
0.0351 0.0735 0.0759
0.0387 0.0734 0.0760
0.0424 0.0735 0.0761
0.0462 0.0736 0.0763
0.0492 0.0759 0.0780
0.0528 0.0761 0.0784
0.0592 0.0760 0.0786
0.0646 0.0760 0.0787
0.0751 0.0768 0.0791
0.0851 0.0777 0.0793
0.0997 0.0804 0.0815
0.1145 0.0832 0.0828
0.1325 0.0863 0.0840
0.1568 0.0908 0.0857
0.1791 0.0952 0.0873
0.2158 0.1025 0.0830
0.2505 0.1086 0.0732
0.2923 0.1143 0.0554
0.3373 0.1208 0.0391
0.3886 0.1332 0.0435
0.4397 0.1452 0.0496
0.4921 0.1556 0.0643
0.5550 0.1692 0.0990
0.6187 0.1826 0.1334
0.6820 0.1956 0.1638
0.7453 0.2096 0.1846
0.7972 0.2205 0.1949
0.8254 0.2265 0.2002
0.8388 0.2290 0.2027
0.8483 0.2308 0.2043
0.8566 0.2324 0.2057
0.8647 0.2343 0.2073
0.8733 0.2360 0.2087
0.0392 0.0761 0.0742
0.0396 0.0761 0.0757
0.0419 0.0764 0.0778
0.0458 0.0772 0.0781
0.0500 0.0785 0.0780
0.0546 0.0783 0.0781
0.0609 0.0781 0.0783
0.0690 0.0781 0.0785
0.0787 0.0791 0.0806
0.0887 0.0800 0.0815
0.1039 0.0829 0.0818
0.1190 0.0857 0.0832
0.1385 0.0894 0.0847
0.1616 0.0935 0.0863
0.1897 0.0987 0.0868
0.2260 0.1065 0.0826
0.2625 0.1114 0.0698
0.3101 0.1166 0.0457
0.3564 0.1256 0.0405
0.4034 0.1374 0.0451
0.4507 0.1477 0.0513
0.5085 0.1596 0.0728
0.5708 0.1728 0.1081
0.6368 0.1867 0.1425
0.7031 0.2007 0.1713
0.7646 0.2142 0.1885
0.8090 0.2234 0.1971
0.8329 0.2285 0.2014
0.8421 0.2303 0.2030
0.8505 0.2318 0.2047
0.8594 0.2337 0.2061
0.8684 0.2357 0.2076
0.8755 0.2370 0.2091
0.0423 0.0788 0.0752
0.0424 0.0788 0.0763
0.0427 0.0789 0.0778
0.0478 0.0804 0.0777
0.0530 0.0806 0.0777
0.0581 0.0803 0.0778
0.0646 0.0802 0.0795
0.0726 0.0805 0.0806
0.0835 0.0822 0.0806
0.0942 0.0835 0.0808
0.1083 0.0852 0.0817
0.1276 0.0887 0.0837
0.1483 0.0923 0.0862
0.1698 0.0965 0.0884
0.1996 0.1028 0.0868
0.2379 0.1088 0.0787
0.2806 0.1141 0.0619
0.3244 0.1188 0.0388
0.3668 0.1288 0.0413
0.4176 0.1417 0.0468
0.4714 0.1520 0.0548
0.5294 0.1647 0.0834
0.5921 0.1779 0.1195
0.6568 0.1913 0.1518
0.7226 0.2058 0.1776
0.7778 0.2175 0.1908
0.8190 0.2261 0.1987
0.8355 0.2297 0.2018
0.8448 0.2314 0.2034
0.8541 0.2335 0.2049
0.8623 0.2351 0.2065
0.8707 0.2368 0.2080
0.8778 0.2385 0.2091
0.0462 0.0811 0.0739
0.0472 0.0813 0.0752
0.0511 0.0830 0.0753
0.0515 0.0829 0.0774
0.0542 0.0828 0.0790
0.0611 0.0824 0.0800
0.0669 0.0822 0.0801
0.0780 0.0844 0.0799
0.0880 0.0848 0.0801
0.1026 0.0857 0.0805
0.1165 0.0879 0.0831
0.1325 0.0918 0.0855
0.1577 0.0961 0.0874
0.1797 0.1000 0.0885
0.2161 0.1070 0.0847
0.2504 0.1119 0.0746
0.2914 0.1162 0.0565
0.3351 0.1223 0.0397
0.3857 0.1342 0.0430
0.4365 0.1460 0.0492
0.4891 0.1567 0.0633
0.5494 0.1696 0.0951
0.6119 0.1827 0.1296
0.6745 0.1958 0.1597
0.7378 0.2098 0.1826
0.7921 0.2213 0.1936
0.8239 0.2280 0.1995
0.8390 0.2311 0.2021
0.8483 0.2330 0.2039
0.8565 0.2348 0.2052
0.8646 0.2366 0.2065
0.8729 0.2383 0.2081
0.8804 0.2400 0.2093
0.0524 0.0849 0.0717
0.0545 0.0854 0.0724
0.0543 0.0852 0.0746
0.0539 0.0851 0.0775
0.0563 0.0858 0.0794
0.0621 0.0862 0.0793
0.0717 0.0861 0.0794
0.0824 0.0870 0.0794
0.0922 0.0884 0.0801
0.1062 0.0895 0.0823
0.1211 0.0920 0.0839
0.1403 0.0959 0.0859
0.1625 0.0993 0.0875
0.1909 0.1040 0.0874
0.2264 0.1101 0.0834
0.2640 0.1151 0.0708
0.3105 0.1200 0.0449
0.3538 0.1277 0.0403
0.4026 0.1393 0.0449
0.4488 0.1494 0.0509
0.5023 0.1604 0.0690
0.5632 0.1735 0.1029
0.6295 0.1871 0.1385
0.6933 0.2007 0.1671
0.7552 0.2143 0.1860
0.8030 0.2246 0.1953
0.8313 0.2304 0.2007
0.8425 0.2329 0.2026
0.8506 0.2345 0.2040
0.8596 0.2364 0.2055
0.8680 0.2384 0.2069
0.8751 0.2399 0.2081
0.8836 0.2418 0.2096
0.0573 0.0877 0.0715
0.0607 0.0895 0.0712
0.0619 0.0889 0.0727
0.0624 0.0885 0.0748
0.0662 0.0895 0.0752
0.0671 0.0897 0.0787
0.0747 0.0899 0.0795
0.0852 0.0915 0.0807
0.0960 0.0921 0.0806
0.1104 0.0947 0.0820
0.1294 0.0973 0.0846
0.1503 0.1002 0.0870
0.1710 0.1042 0.0898
0.2009 0.1086 0.0874
0.2387 0.1140 0.0789
0.2805 0.1191 0.0620
0.3233 0.1235 0.0404
0.3663 0.1321 0.0412
0.4148 0.1434 0.0468
0.4649 0.1536 0.0537
0.5215 0.1656 0.0782
0.5819 0.1781 0.1133
0.6475 0.1918 0.1467
0.7124 0.2060 0.1737
0.7660 0.2177 0.1879
0.8151 0.2281 0.1974
0.8362 0.2327 0.2011
0.8449 0.2344 0.2028
0.8540 0.2364 0.2043
0.8621 0.2384 0.2055
0.8703 0.2403 0.2069
0.8772 0.2416 0.2082
0.8856 0.2436 0.2096
0.0651 0.0930 0.0697
0.0676 0.0945 0.0701
0.0697 0.0953 0.0707
0.0728 0.0971 0.0708
0.0744 0.0962 0.0733
0.0748 0.0966 0.0773
0.0789 0.0983 0.0797
0.0906 0.0976 0.0795
0.1062 0.0994 0.0797
0.1205 0.1004 0.0822
0.1355 0.1031 0.0851
0.1606 0.1065 0.0878
0.1830 0.1108 0.0879
0.2176 0.1146 0.0851
0.2522 0.1193 0.0741
0.2916 0.1233 0.0572
0.3344 0.1289 0.0420
0.3838 0.1384 0.0431
0.4320 0.1481 0.0490
0.4826 0.1589 0.0615
0.5403 0.1704 0.0896
0.5997 0.1827 0.1228
0.6598 0.1954 0.1524
0.7201 0.2090 0.1767
0.7816 0.2222 0.1906
0.8187 0.2302 0.1977
0.8392 0.2348 0.2014
0.8484 0.2368 0.2029
0.8563 0.2385 0.2043
0.8642 0.2402 0.2056
0.8724 0.2422 0.2069
0.8800 0.2440 0.2083
0.8876 0.2458 0.2093
0.0729 0.1020 0.0671
0.0768 0.1038 0.0671
0.0786 0.1041 0.0679
0.0821 0.1050 0.0692
0.0857 0.1052 0.0698
0.0913 0.1056 0.0706
0.0943 0.1054 0.0740
0.0977 0.1055 0.0777
0.1120 0.1063 0.0807
0.1283 0.1070 0.0819
0.1487 0.1100 0.0835
0.1686 0.1137 0.0858
0.1957 0.1171 0.0854
0.2295 0.1215 0.0823
0.2672 0.1249 0.0704
0.3120 0.1285 0.0444
0.3538 0.1355 0.0409
0.4015 0.1457 0.0454
0.4462 0.1548 0.0508
0.4943 0.1650 0.0654
0.5531 0.1771 0.0965
0.6158 0.1898 0.1309
0.6778 0.2018 0.1593
0.7375 0.2149 0.1807
0.7896 0.2259 0.1917
0.8266 0.2337 0.1986
0.8429 0.2372 0.2015
0.8507 0.2390 0.2029
0.8597 0.2411 0.2043
0.8677 0.2427 0.2057
0.8745 0.2443 0.2068
0.8827 0.2463 0.2081
0.8895 0.2480 0.2093
0.0848 0.1110 0.0644
0.0896 0.1123 0.0651
0.0918 0.1117 0.0658
0.0980 0.1131 0.0652
0.1042 0.1144 0.0651
0.1072 0.1131 0.0662
0.1131 0.1155 0.0683
0.1142 0.1144 0.0734
0.1208 0.1159 0.0776
0.1440 0.1162 0.0775
0.1641 0.1197 0.0794
0.1816 0.1217 0.0834
0.2088 0.1252 0.0821
0.2447 0.1292 0.0736
0.2844 0.1326 0.0567
0.3246 0.1355 0.0417
0.3688 0.1425 0.0409
0.4134 0.1526 0.0462
0.4599 0.1630 0.0526
0.5123 0.1744 0.0710
0.5721 0.1866 0.1056
0.6333 0.1986 0.1371
0.6935 0.2102 0.1636
0.7498 0.2210 0.1819
0.8022 0.2309 0.1934
0.8347 0.2371 0.1997
0.8453 0.2395 0.2016
0.8541 0.2415 0.2030
0.8619 0.2433 0.2042
0.8699 0.2452 0.2055
0.8766 0.2469 0.2066
0.8848 0.2489 0.2079
0.8917 0.2511 0.2089
0.1002 0.1215 0.0615
0.1034 0.1224 0.0616
0.1081 0.1250 0.0613
0.1150 0.1269 0.0609
0.1194 0.1273 0.0613
0.1243 0.1270 0.0614
0.1344 0.1274 0.0605
0.1454 0.1273 0.0593
0.1529 0.1271 0.0639
0.1550 0.1276 0.0723
0.1797 0.1283 0.0752
0.2011 0.1317 0.0727
0.2327 0.1362 0.0675
0.2610 0.1401 0.0605
0.2988 0.1424 0.0436
0.3390 0.1475 0.0376
0.3854 0.1545 0.0416
0.4307 0.1643 0.0473
0.4799 0.1742 0.0556
0.5334 0.1852 0.0781
0.5886 0.1969 0.1099
0.6474 0.2087 0.1387
0.7058 0.2208 0.1640
0.7665 0.2328 0.1827
0.8096 0.2407 0.1916
0.8426 0.2476 0.1976
0.8519 0.2483 0.1997
0.8589 0.2488 0.2014
0.8659 0.2496 0.2030
0.8734 0.2510 0.2043
0.8809 0.2523 0.2058
0.8876 0.2537 0.2070
0.8941 0.2548 0.2083
0.1181 0.1369 0.0553
0.1250 0.1385 0.0527
0.1287 0.1373 0.0531
0.1352 0.1386 0.0526
0.1434 0.1390 0.0528
0.1508 0.1404 0.0538
0.1584 0.1421 0.0542
0.1670 0.1434 0.0536
0.1783 0.1435 0.0510
0.1870 0.1414 0.0524
0.1960 0.1418 0.0547
0.2216 0.1435 0.0546
0.2535 0.1469 0.0469
0.2866 0.1508 0.0381
0.3219 0.1556 0.0331
0.3577 0.1621 0.0361
0.4043 0.1709 0.0420
0.4478 0.1807 0.0473
0.4943 0.1893 0.0544
0.5522 0.2008 0.0769
0.6095 0.2125 0.1115
0.6668 0.2238 0.1399
0.7228 0.2356 0.1635
0.7769 0.2468 0.1802
0.8228 0.2551 0.1893
0.8503 0.2593 0.1949
0.8591 0.2600 0.1970
0.8672 0.2613 0.1985
0.8741 0.2621 0.2001
0.8803 0.2631 0.2012
0.8877 0.2643 0.2028
0.8941 0.2655 0.2039
0.9001 0.2686 0.2043
0.1395 0.1525 0.0541
0.1439 0.1545 0.0561
0.1483 0.1561 0.0555
0.1540 0.1551 0.0530
0.1629 0.1560 0.0482
0.1736 0.1558 0.0422
0.1850 0.1558 0.0359
0.1967 0.1556 0.0326
0.2072 0.1567 0.0353
0.2176 0.1573 0.0364
0.2300 0.1577 0.0344
0.2442 0.1584 0.0323
0.2781 0.1628 0.0266
0.3091 0.1684 0.0284
0.3420 0.1749 0.0318
0.3801 0.1821 0.0366
0.4202 0.1900 0.0417
0.4644 0.1984 0.0474
0.5152 0.2061 0.0559
0.5749 0.2149 0.0773
0.6319 0.2286 0.1104
0.6862 0.2409 0.1378
0.7410 0.2526 0.1614
0.7947 0.2634 0.1778
0.8367 0.2712 0.1864
0.8598 0.2756 0.1907
0.8696 0.2769 0.1929
0.8759 0.2765 0.1946
0.8828 0.2774 0.1962
0.8889 0.2785 0.1973
0.8965 0.2805 0.1985
0.9033 0.2832 0.1991
0.9085 0.2851 0.1999
0.1597 0.1689 0.0475
0.1658 0.1705 0.0452
0.1739 0.1718 0.0436
0.1808 0.1736 0.0447
0.1875 0.1752 0.0471
0.2006 0.1773 0.0427
0.2154 0.1781 0.0339
0.2312 0.1771 0.0228
0.2450 0.1776 0.0149
0.2575 0.1779 0.0183
0.2686 0.1793 0.0207
0.2848 0.1783 0.0212
0.2984 0.1809 0.0235
0.3304 0.1858 0.0286
0.3659 0.1947 0.0328
0.4042 0.2024 0.0374
0.4442 0.2095 0.0427
0.4884 0.2161 0.0490
0.5405 0.2216 0.0571
0.5937 0.2321 0.0738
0.6472 0.2452 0.1017
0.7040 0.2592 0.1320
0.7609 0.2717 0.1588
0.8078 0.2815 0.1731
0.8494 0.2919 0.1808
0.8742 0.2961 0.1858
0.8798 0.2953 0.1878
0.8869 0.2971 0.1888
0.8936 0.2985 0.1902
0.9005 0.2997 0.1916
0.9070 0.3029 0.1923
0.9133 0.3054 0.1929
0.9184 0.3074 0.1936
0.1849 0.1924 0.0541
0.1949 0.1939 0.0474
0.2040 0.1954 0.0416
0.2148 0.1970 0.0350
0.2248 0.1992 0.0295
0.2364 0.2013 0.0241
0.2463 0.2018 0.0237
0.2643 0.2030 0.0216
0.2803 0.2010 0.0173
0.2951 0.2006 0.0133
0.3088 0.2015 0.0172
0.3244 0.2019 0.0216
0.3434 0.2052 0.0256
0.3608 0.2095 0.0289
0.3940 0.2151 0.0342
0.4338 0.2226 0.0395
0.4763 0.2282 0.0457
0.5204 0.2337 0.0522
0.5702 0.2385 0.0602
0.6203 0.2491 0.0754
0.6706 0.2640 0.1018
0.7237 0.2794 0.1283
0.7748 0.2921 0.1515
0.8244 0.3048 0.1678
0.8638 0.3163 0.1742
0.8857 0.3210 0.1783
0.8921 0.3203 0.1805
0.8988 0.3223 0.1816
0.9043 0.3235 0.1827
0.9112 0.3251 0.1840
0.9178 0.3293 0.1841
0.9227 0.3315 0.1847
0.9287 0.3333 0.1855
0.2196 0.2167 0.0347
0.2288 0.2207 0.0344
0.2370 0.2212 0.0334
0.2462 0.2222 0.0310
0.2588 0.2228 0.0248
0.2731 0.2248 0.0161
0.2903 0.2294 0.0031
0.3045 0.2285 0.0065
0.3196 0.2264 0.0101
0.3344 0.2242 0.0136
0.3507 0.2249 0.0177
0.3710 0.2292 0.0223
0.3881 0.2298 0.0272
0.4040 0.2326 0.0310
0.4265 0.2379 0.0357
0.4693 0.2431 0.0427
0.5148 0.2482 0.0495
0.5659 0.2555 0.0572
0.6106 0.2624 0.0695
0.6534 0.2719 0.0883
0.6986 0.2856 0.1107
0.7476 0.3005 0.1345
0.7964 0.3142 0.1537
0.8416 0.3282 0.1638
0.8775 0.3391 0.1691
0.8971 0.3443 0.1719
0.9046 0.3470 0.1727
0.9108 0.3484 0.1737
0.9163 0.3499 0.1745
0.9234 0.3530 0.1750
0.9299 0.3563 0.1750
0.9350 0.3592 0.1750
0.9412 0.3624 0.1750
0.2540 0.2402 0.0313
0.2654 0.2433 0.0209
0.2767 0.2462 0.0115
0.2878 0.2483 0.0031
0.3024 0.2500 0.0054
0.3147 0.2512 0.0058
0.3282 0.2507 0.0051
0.3432 0.2528 0.0048
0.3626 0.2528 0.0093
0.3797 0.2521 0.0135
0.4028 0.2533 0.0189
0.4214 0.2569 0.0235
0.4405 0.2572 0.0290
0.4640 0.2600 0.0346
0.4900 0.2642 0.0402
0.5106 0.2658 0.0457
0.5622 0.2713 0.0545
0.6092 0.2808 0.0659
0.6488 0.2894 0.0843
0.6892 0.2988 0.1052
0.7293 0.3086 0.1249
0.7746 0.3220 0.1457
0.8176 0.3354 0.1541
0.8566 0.3495 0.1578
0.8954 0.3624 0.1618
0.9114 0.3684 0.1630
0.9193 0.3697 0.1645
0.9248 0.3705 0.1658
0.9327 0.3746 0.1651
0.9378 0.3765 0.1654
0.9440 0.3808 0.1641
0.9483 0.3829 0.1640
0.9518 0.3848 0.1636
0.2981 0.2656 0.0073
0.3096 0.2702 0.0098
0.3189 0.2728 0.0085
0.3290 0.2761 0.0053
0.3473 0.2817 0.0020
0.3591 0.2828 0.0033
0.3732 0.2828 0.0046
0.3917 0.2858 0.0049
0.4095 0.2851 0.0086
0.4297 0.2839 0.0138
0.4577 0.2851 0.0196
0.4814 0.2862 0.0261
0.5060 0.2863 0.0327
0.5342 0.2894 0.0388
0.5580 0.2915 0.0454
0.5790 0.2921 0.0522
0.6025 0.2991 0.0612
0.6493 0.3084 0.0817
0.6912 0.3199 0.1040
0.7312 0.3301 0.1237
0.7668 0.3378 0.1364
0.8049 0.3477 0.1449
0.8413 0.3575 0.1507
0.8809 0.3714 0.1532
0.9119 0.3832 0.1533
0.9288 0.3888 0.1541
0.9370 0.3918 0.1542
0.9418 0.3943 0.1536
0.9466 0.3969 0.1531
0.9504 0.4003 0.1520
0.9530 0.4023 0.1512
0.9559 0.4047 0.1498
0.9575 0.4080 0.1477
0.3442 0.3022 0.0028
0.3529 0.3059 0.0065
0.3630 0.3080 0.0070
0.3773 0.3129 0.0058
0.3933 0.3180 0.0017
0.4075 0.3182 0.0035
0.4255 0.3187 0.0056
0.4444 0.3198 0.0071
0.4624 0.3189 0.0101
0.4896 0.3191 0.0152
0.5190 0.3185 0.0213
0.5459 0.3188 0.0282
0.5749 0.3208 0.0354
0.6003 0.3203 0.0450
0.6212 0.3238 0.0565
0.6455 0.3290 0.0690
0.6638 0.3336 0.0821
0.6876 0.3414 0.0982
0.7297 0.3501 0.1161
0.7678 0.3591 0.1253
0.8078 0.3708 0.1309
0.8438 0.3791 0.1371
0.8762 0.3882 0.1415
0.9060 0.3965 0.1445
0.9300 0.4039 0.1454
0.9440 0.4110 0.1438
0.9493 0.4137 0.1430
0.9517 0.4166 0.1417
0.9534 0.4186 0.1407
0.9549 0.4205 0.1399
0.9567 0.4238 0.1376
0.9588 0.4264 0.1355
0.9600 0.4282 0.1347
0.3914 0.3412 0.0027
0.4024 0.3435 0.0020
0.4136 0.3461 0.0029
0.4326 0.3534 0.0032
0.4476 0.3573 0.0027
0.4700 0.3644 0.0031
0.4868 0.3620 0.0060
0.5040 0.3583 0.0093
0.5276 0.3594 0.0133
0.5557 0.3571 0.0199
0.5818 0.3572 0.0261
0.6085 0.3571 0.0379
0.6322 0.3566 0.0511
0.6599 0.3590 0.0648
0.6811 0.3634 0.0752
0.7027 0.3666 0.0850
0.7218 0.3715 0.0909
0.7388 0.3751 0.0964
0.7586 0.3807 0.1024
0.8031 0.3909 0.1144
0.8408 0.4011 0.1198
0.8772 0.4125 0.1232
0.9068 0.4193 0.1278
0.9305 0.4262 0.1299
0.9429 0.4315 0.1300
0.9502 0.4343 0.1295
0.9530 0.4361 0.1285
0.9549 0.4396 0.1260
0.9564 0.4413 0.1251
0.9581 0.4446 0.1236
0.9596 0.4460 0.1229
0.9610 0.4478 0.1219
0.9627 0.4530 0.1198
0.4461 0.3813 0.0034
0.4612 0.3872 0.0001
0.4762 0.3911 0.0021
0.4909 0.3959 0.0036
0.5099 0.4053 0.0047
0.5285 0.4111 0.0060
0.5470 0.4066 0.0124
0.5681 0.4050 0.0215
0.5881 0.4037 0.0298
0.6164 0.4037 0.0414
0.6396 0.3985 0.0497
0.6623 0.3945 0.0567
0.6886 0.3990 0.0625
0.7135 0.3970 0.0686
0.7383 0.4036 0.0758
0.7565 0.4050 0.0834
0.7728 0.4076 0.0888
0.7928 0.4139 0.0931
0.8104 0.4176 0.0977
0.8262 0.4216 0.1014
0.8660 0.4319 0.1074
0.9007 0.4411 0.1116
0.9279 0.4520 0.1139
0.9405 0.4589 0.1154
0.9490 0.4630 0.1155
0.9550 0.4675 0.1157
0.9568 0.4692 0.1150
0.9585 0.4688 0.1149
0.9602 0.4717 0.1145
0.9617 0.4749 0.1142
0.9632 0.4761 0.1140
0.9646 0.4793 0.1132
0.9662 0.4839 0.1124
0.5008 0.4238 0.0088
0.5138 0.4289 0.0087
0.5307 0.4350 0.0117
0.5467 0.4403 0.0191
0.5623 0.4460 0.0261
0.5828 0.4557 0.0354
0.6022 0.4523 0.0398
0.6218 0.4511 0.0427
0.6464 0.4520 0.0455
0.6662 0.4473 0.0491
0.6906 0.4445 0.0530
0.7153 0.4408 0.0574
0.7385 0.4388 0.0615
0.7641 0.4377 0.0660
0.7860 0.4418 0.0720
0.8058 0.4439 0.0804
0.8256 0.4496 0.0855
0.8400 0.4513 0.0908
0.8566 0.4548 0.0956
0.8761 0.4614 0.0994
0.8914 0.4644 0.1039
0.9224 0.4721 0.1080
0.9353 0.4819 0.1093
0.9444 0.4884 0.1090
0.9525 0.4941 0.1083
0.9583 0.5005 0.1075
0.9608 0.5019 0.1082
0.9624 0.5023 0.1083
0.9642 0.5070 0.1077
0.9655 0.5086 0.1075
0.9669 0.5097 0.1074
0.9684 0.5143 0.1064
0.9698 0.5176 0.1058
0.5503 0.4643 0.0253
0.5651 0.4725 0.0305
0.5773 0.4767 0.0338
0.5920 0.4806 0.0350
0.6123 0.4928 0.0355
0.6292 0.4980 0.0364
0.6468 0.4999 0.0382
0.6706 0.4997 0.0415
0.6925 0.4980 0.0444
0.7164 0.5019 0.0467
0.7400 0.4934 0.0515
0.7634 0.4845 0.0565
0.7877 0.4856 0.0590
0.8100 0.4823 0.0615
0.8312 0.4821 0.0680
0.8526 0.4874 0.0751
0.8705 0.4889 0.0814
0.8844 0.4893 0.0879
0.9012 0.4931 0.0937
0.9133 0.4976 0.0976
0.9241 0.4999 0.1020
0.9301 0.5049 0.1032
0.9391 0.5113 0.1044
0.9483 0.5171 0.1049
0.9576 0.5251 0.1019
0.9617 0.5302 0.1012
0.9642 0.5308 0.1015
0.9656 0.5316 0.1012
0.9669 0.5343 0.1005
0.9685 0.5385 0.1001
0.9697 0.5399 0.1003
0.9711 0.5418 0.1004
0.9725 0.5448 0.1004
0.5972 0.5073 0.0340
0.6107 0.5150 0.0340
0.6230 0.5221 0.0338
0.6391 0.5300 0.0340
0.6565 0.5360 0.0348
0.6754 0.5440 0.0356
0.6940 0.5511 0.0365
0.7134 0.5481 0.0395
0.7361 0.5483 0.0421
0.7613 0.5508 0.0445
0.7824 0.5418 0.0491
0.8056 0.5333 0.0542
0.8323 0.5315 0.0567
0.8550 0.5269 0.0582
0.8753 0.5251 0.0632
0.8956 0.5301 0.0705
0.9104 0.5287 0.0775
0.9183 0.5283 0.0837
0.9276 0.5324 0.0878
0.9319 0.5339 0.0913
0.9356 0.5353 0.0945
0.9396 0.5367 0.0972
0.9444 0.5424 0.0979
0.9529 0.5473 0.0981
0.9605 0.5522 0.0977
0.9653 0.5564 0.0975
0.9673 0.5588 0.0974
0.9687 0.5609 0.0973
0.9699 0.5628 0.0970
0.9713 0.5643 0.0966
0.9724 0.5657 0.0966
0.9739 0.5695 0.0962
0.9753 0.5726 0.0960
0.6431 0.5530 0.0338
0.6539 0.5586 0.0339
0.6694 0.5687 0.0337
0.6828 0.5751 0.0338
0.6977 0.5808 0.0343
0.7191 0.5905 0.0349
0.7345 0.5972 0.0352
0.7562 0.5953 0.0379
0.7775 0.5996 0.0395
0.8000 0.6038 0.0406
0.8213 0.5943 0.0453
0.8484 0.5858 0.0514
0.8716 0.5794 0.0549
0.8912 0.5739 0.0567
0.9096 0.5676 0.0597
0.9199 0.5689 0.0653
0.9296 0.5692 0.0701
0.9334 0.5685 0.0752
0.9369 0.5665 0.0799
0.9412 0.5675 0.0832
0.9458 0.5711 0.0865
0.9496 0.5717 0.0906
0.9528 0.5736 0.0918
0.9563 0.5758 0.0926
0.9636 0.5801 0.0930
0.9683 0.5853 0.0932
0.9703 0.5849 0.0938
0.9716 0.5861 0.0931
0.9728 0.5878 0.0926
0.9741 0.5888 0.0921
0.9753 0.5894 0.0921
0.9765 0.5910 0.0919
0.9778 0.5927 0.0918
0.6860 0.5972 0.0339
0.6969 0.6043 0.0340
0.7110 0.6135 0.0340
0.7227 0.6193 0.0341
0.7387 0.6265 0.0342
0.7575 0.6363 0.0344
0.7745 0.6427 0.0345
0.7936 0.6447 0.0359
0.8133 0.6448 0.0383
0.8382 0.6546 0.0388
0.8603 0.6468 0.0425
0.8842 0.6340 0.0475
0.9053 0.6236 0.0518
0.9182 0.6217 0.0529
0.9307 0.6152 0.0546
0.9351 0.6110 0.0583
0.9389 0.6065 0.0628
0.9427 0.6031 0.0679
0.9472 0.6057 0.0730
0.9510 0.6045 0.0778
0.9547 0.6048 0.0809
0.9581 0.6048 0.0838
0.9618 0.6059 0.0860
0.9651 0.6074 0.0876
0.9680 0.6096 0.0887
0.9716 0.6094 0.0890
0.9735 0.6097 0.0889
0.9748 0.6102 0.0888
0.9759 0.6116 0.0888
0.9770 0.6140 0.0890
0.9784 0.6144 0.0892
0.9796 0.6156 0.0894
0.9808 0.6176 0.0897
0.7245 0.6394 0.0342
0.7350 0.6454 0.0342
0.7482 0.6549 0.0344
0.7625 0.6628 0.0345
0.7763 0.6695 0.0346
0.7912 0.6755 0.0347
0.8102 0.6844 0.0349
0.8291 0.6932 0.0351
0.8500 0.6923 0.0372
0.8710 0.6931 0.0387
0.8903 0.6931 0.0401
0.9098 0.6842 0.0431
0.9325 0.6773 0.0461
0.9370 0.6680 0.0489
0.9405 0.6581 0.0516
0.9444 0.6487 0.0548
0.9483 0.6454 0.0586
0.9518 0.6418 0.0620
0.9556 0.6392 0.0681
0.9590 0.6361 0.0733
0.9625 0.6347 0.0776
0.9663 0.6349 0.0807
0.9708 0.6402 0.0842
0.9721 0.6399 0.0858
0.9736 0.6410 0.0871
0.9750 0.6410 0.0887
0.9768 0.6394 0.0885
0.9780 0.6391 0.0886
0.9792 0.6390 0.0889
0.9804 0.6398 0.0892
0.9817 0.6409 0.0894
0.9829 0.6420 0.0897
0.9841 0.6441 0.0900
0.7609 0.6823 0.0345
0.7751 0.6889 0.0347
0.7854 0.6955 0.0348
0.7952 0.7015 0.0349
0.8098 0.7087 0.0350
0.8273 0.7209 0.0351
0.8456 0.7272 0.0351
0.8612 0.7326 0.0352
0.8785 0.7356 0.0358
0.8974 0.7346 0.0373
0.9180 0.7351 0.0385
0.9290 0.7274 0.0401
0.9377 0.7175 0.0416
0.9460 0.7069 0.0435
0.9496 0.6978 0.0467
0.9541 0.6907 0.0497
0.9578 0.6873 0.0542
0.9614 0.6809 0.0593
0.9648 0.6772 0.0645
0.9684 0.6748 0.0708
0.9719 0.6713 0.0773
0.9739 0.6705 0.0797
0.9757 0.6699 0.0819
0.9775 0.6688 0.0846
0.9784 0.6684 0.0861
0.9793 0.6686 0.0879
0.9804 0.6693 0.0898
0.9813 0.6686 0.0900
0.9823 0.6647 0.0902
0.9835 0.6660 0.0907
0.9847 0.6680 0.0912
0.9857 0.6701 0.0919
0.9867 0.6717 0.0925
0.7893 0.7237 0.0349
0.8022 0.7304 0.0350
0.8160 0.7368 0.0351
0.8280 0.7432 0.0351
0.8390 0.7488 0.0352
0.8536 0.7551 0.0352
0.8707 0.7613 0.0352
0.8875 0.7668 0.0351
0.9059 0.7731 0.0351
