pictu/PRESTON CHEN 10 CINEMATIC FREE LUT PACK/4. SUNSET SKY LUT.cube
TITLE "ColorFinale Export"
# Created by Daniel Schiffer on 2018-08-07 22:02:20 +0000
# Color Finale Plugin v.1.8.2 (224)
DOMAIN_MIN 0.0 0.0 0.0
DOMAIN_MAX 1.0 1.0 1.0
LUT_3D_SIZE 5
0.0351 0.0735 0.0759
0.0751 0.0768 0.0791
0.2505 0.1086 0.0732
0.6820 0.1956 0.1638
0.8733 0.2360 0.2087
0.0848 0.1110 0.0644
0.1208 0.1159 0.0776
0.3688 0.1425 0.0409
0.8022 0.2309 0.1934
0.8917 0.2511 0.2089
0.2981 0.2656 0.0073
0.4095 0.2851 0.0086
0.6025 0.2991 0.0612
0.9119 0.3832 0.1533
0.9575 0.4080 0.1477
0.6860 0.5972 0.0339
0.8133 0.6448 0.0383
0.9389 0.6065 0.0628
0.9680 0.6096 0.0887
0.9808 0.6176 0.0897
0.9034 0.8729 0.0350
0.9596 0.8937 0.0350
0.9917 0.8613 0.0352
0.9976 0.8614 0.0460
0.9999 0.8728 0.0540
0.0256 0.0785 0.0978
0.0813 0.0848 0.1089
0.2733 0.1050 0.1026
0.6874 0.1948 0.1840
0.8706 0.2342 0.2187
0.0169 0.1139 0.1169
0.0913 0.1276 0.1253
0.3707 0.1543 0.0789
0.7969 0.2304 0.2107
0.8854 0.2461 0.2276
0.1947 0.2934 0.0490
0.4200 0.3173 0.0116
0.6044 0.3221 0.0703
0.9039 0.3948 0.1522
0.9586 0.4250 0.1462
0.5220 0.5700 0.0391
0.8081 0.6842 0.0354
0.9408 0.6619 0.0641
0.9671 0.6379 0.0968
0.9826 0.6454 0.1060
0.7517 0.8732 0.0350
0.9570 0.8945 0.0349
0.9890 0.8746 0.0474
0.9969 0.8772 0.0583
0.9999 0.8709 0.0846
0.0139 0.1026 0.1665
0.0287 0.1150 0.1959
0.3548 0.1554 0.2329
0.7362 0.2226 0.2697
0.9184 0.2508 0.2905
0.0121 0.1377 0.2016
0.0331 0.1618 0.2346
0.4833 0.2202 0.2737
0.8289 0.2748 0.3215
0.9295 0.2942 0.3420
0.0107 0.2902 0.2570
0.0321 0.3368 0.2943
0.4495 0.4165 0.3836
0.8539 0.4459 0.3958
0.9548 0.4514 0.4215
0.3141 0.5502 0.0479
0.5646 0.6218 0.1014
0.9279 0.7264 0.0798
0.9625 0.6983 0.3293
0.9828 0.7208 0.4157
0.5668 0.8471 0.0471
0.8143 0.8869 0.0577
0.9837 0.8942 0.0609
0.9963 0.8546 0.1837
0.9994 0.8596 0.4160
0.0156 0.1489 0.2614
0.0304 0.1660 0.2940
0.2860 0.2036 0.3963
0.8246 0.3023 0.4204
0.9612 0.3336 0.4748
0.0148 0.1952 0.3100
0.0355 0.2131 0.3387
0.3894 0.2684 0.4438
0.8786 0.3770 0.5390
0.9552 0.3971 0.5764
0.0108 0.3163 0.3833
0.0333 0.3607 0.4301
0.1107 0.4339 0.5634
0.8735 0.5022 0.6575
0.9575 0.5288 0.6756
0.0221 0.5808 0.5286
0.0496 0.6245 0.5684
0.1144 0.7059 0.6414
0.8859 0.7946 0.7298
0.9797 0.8119 0.7577
0.1623 0.8006 0.3049
0.3560 0.8966 0.3221
0.8716 0.8943 0.4642
0.9952 0.8682 0.4869
0.9961 0.9031 0.7693
0.0174 0.1852 0.3305
0.0336 0.1993 0.3631
0.1857 0.2527 0.4872
0.7871 0.3519 0.5696
0.9530 0.3876 0.6685
0.0163 0.2304 0.3798
0.0387 0.2470 0.4043
0.2931 0.3089 0.5520
0.8690 0.3933 0.6336
0.9614 0.4214 0.7095
0.0144 0.3552 0.4735
0.0378 0.3961 0.5163
0.1012 0.4535 0.6112
0.8774 0.4899 0.7554
0.9675 0.5467 0.7928
0.0245 0.5854 0.6020
0.0529 0.6278 0.6285
0.1144 0.6728 0.6774
0.8354 0.7891 0.8439
0.9576 0.8269 0.8644
0.0569 0.7519 0.6733
0.0830 0.7710 0.6876
0.1652 0.8490 0.7617
0.9114 0.9160 0.8472
0.9959 0.9205 0.8497
