pictu/PRESTON CHEN 10 CINEMATIC FREE LUT PACK/8. MOODY TONES LUT.cube
LUT_3D_SIZE 16
-0.099343 -0.096522 -0.074696
-0.079805 -0.096522 -0.074696
0.021450 -0.096522 -0.079628
0.107547 -0.096523 -0.087543
0.222027 -0.096524 -0.093579
0.343079 -0.096525 -0.093746
0.455601 -0.096526 -0.093747
0.557327 -0.096517 -0.093724
0.640711 -0.096519 -0.093714
0.710812 -0.096521 -0.093010
0.752891 -0.096523 -0.091723
0.768087 -0.096526 -0.088924
0.781358 -0.096530 -0.086417
0.794699 -0.096534 -0.085302
0.808571 -0.096540 -0.084894
0.838404 -0.096533 -0.084503
-0.099343 -0.077529 -0.074696
-0.079805 -0.077529 -0.074696
0.021450 -0.071460 -0.079628
0.107547 -0.069725 -0.087544
0.222027 -0.071418 -0.093579
0.343079 -0.073441 -0.093746
0.455601 -0.075173 -0.093747
0.557327 -0.076544 -0.093725
0.640711 -0.077594 -0.093714
0.710812 -0.078356 -0.093010
0.752891 -0.078861 -0.091723
0.768087 -0.079110 -0.088924
0.781358 -0.079073 -0.086418
0.794699 -0.078725 -0.085302
0.808571 -0.078093 -0.084894
0.838404 -0.077563 -0.084503
-0.099344 0.030156 -0.065434
-0.073555 0.030156 -0.065434
0.021436 0.027770 -0.073373
0.085214 0.029252 -0.085499
0.182418 0.027540 -0.093758
0.297922 0.021906 -0.093756
0.445228 0.019033 -0.093747
0.554254 0.018275 -0.093741
0.637728 0.017652 -0.093730
0.708168 0.017169 -0.093380
0.750888 0.016835 -0.092019
0.767182 0.016667 -0.090261
0.780500 0.016691 -0.087684
0.793846 0.016929 -0.086561
0.807698 0.017345 -0.086183
0.837496 0.017682 -0.085813
-0.099345 0.088749 -0.040114
-0.071770 0.088749 -0.040114
0.023415 0.086437 -0.042083
0.099756 0.083038 -0.069056
0.191910 0.081277 -0.093742
0.286292 0.078719 -0.093750
0.377777 0.057214 -0.093754
0.512295 0.033140 -0.093752
0.633352 0.031694 -0.093754
0.704258 0.031138 -0.093637
0.747783 0.030754 -0.092477
0.765085 0.030564 -0.091466
0.779183 0.030593 -0.089631
0.792542 0.030863 -0.088488
0.806371 0.031338 -0.088143
0.836117 0.031732 -0.087799
-0.074343 0.172074 0.006993
-0.049102 0.172074 0.006993
0.043914 0.171662 0.006721
0.102416 0.168184 0.004586
0.226957 0.160905 -0.073179
0.327764 0.159717 -0.093760
0.415665 0.156906 -0.093752
0.490349 0.140177 -0.093758
0.555889 0.102490 -0.093754
0.660774 0.054410 -0.093764
0.739273 0.042898 -0.093546
0.759043 0.042659 -0.092426
0.774581 0.042694 -0.091841
0.788720 0.043032 -0.091610
0.801836 0.043631 -0.091755
0.831079 0.044124 -0.091854
-0.004995 0.280661 0.060256
0.016718 0.280661 0.060256
0.106164 0.280436 0.060146
0.120826 0.280065 0.059964
0.212855 0.273653 0.060572
0.372974 0.266251 -0.068487
0.485580 0.262345 -0.092028
0.565709 0.259289 -0.093232
0.629456 0.253141 -0.093753
0.679320 0.242849 -0.093765
0.708949 0.226414 -0.093741
0.713646 0.207415 -0.093743
0.722827 0.197648 -0.093747
0.736467 0.198722 -0.093753
0.754583 0.208808 -0.093758
0.786551 0.217069 -0.093767
0.055780 0.396390 0.093515
0.074650 0.396389 0.093515
0.160647 0.396238 0.093491
0.175282 0.395998 0.093452
0.188258 0.395423 0.093359
0.335418 0.381885 0.076054
0.490287 0.377288 -0.053576
0.600881 0.373673 -0.084667
0.676007 0.372809 -0.089717
0.737996 0.372327 -0.090956
0.774863 0.367026 -0.093056
0.782796 0.357949 -0.093313
0.793253 0.355204 -0.093345
0.806882 0.359374 -0.093178
0.823177 0.368890 -0.092854
0.855411 0.376768 -0.092586
0.088749 0.520581 0.101176
0.105791 0.520581 0.101176
0.189893 0.520473 0.101179
0.204427 0.520308 0.101182
0.217289 0.519915 0.101193
0.247905 0.521925 0.101562
0.446760 0.495153 0.055011
0.581186 0.494404 -0.038288
0.674145 0.482708 -0.068438
0.749633 0.483792 -0.080390
0.795476 0.483567 -0.084501
0.807130 0.477232 -0.085419
0.818511 0.475964 -0.085552
0.831686 0.480694 -0.085092
0.846509 0.490272 -0.084181
0.878056 0.498127 -0.083473
0.111199 0.631453 0.090993
0.126949 0.631453 0.090993
0.209681 0.631383 0.091003
0.224114 0.631277 0.091018
0.236811 0.631027 0.091053
0.248956 0.630376 0.091147
0.384288 0.603332 0.077354
0.546957 0.593216 0.018127
0.657334 0.595835 -0.022524
0.740156 0.586404 -0.048116
0.798610 0.584173 -0.056840
0.816927 0.580369 -0.059592
0.828478 0.579776 -0.059700
0.841347 0.584638 -0.057282
0.855504 0.594061 -0.052680
0.886709 0.601759 -0.048940
0.133010 0.729126 0.075442
0.147748 0.729126 0.075442
0.229022 0.729080 0.075450
0.243381 0.729010 0.075462
0.255946 0.728848 0.075490
0.267967 0.728428 0.075562
0.291966 0.725158 0.074770
0.503076 0.679289 0.044695
0.633847 0.680480 0.009128
0.731032 0.685368 0.004605
0.794613 0.679486 -0.007994
0.821592 0.675282 -0.012320
0.833123 0.675001 -0.012618
0.846394 0.680982 -0.007587
0.861290 0.692231 0.001906
0.893212 0.701089 0.009217
0.156440 0.797936 0.073200
0.170378 0.797936 0.073200
0.249992 0.797910 0.073197
0.264301 0.797871 0.073192
0.276755 0.797785 0.073182
0.288646 0.797559 0.073158
0.300208 0.797092 0.073107
0.439240 0.770488 0.064037
0.611479 0.745237 0.046931
0.716870 0.751428 0.037595
0.791760 0.756860 0.051924
0.829527 0.755518 0.050716
0.842681 0.755549 0.050721
0.855767 0.759543 0.053774
0.870306 0.767015 0.059540
0.901997 0.771902 0.063065
0.171182 0.831503 0.078030
0.184686 0.831503 0.078030
0.263246 0.831503 0.078030
0.277554 0.831503 0.078029
0.290003 0.831503 0.078029
0.301956 0.831503 0.078028
0.313706 0.831503 0.078027
0.370878 0.822552 0.076297
0.590153 0.783583 0.065930
0.704362 0.785647 0.060079
0.784160 0.791697 0.062036
0.828077 0.794876 0.077536
0.847228 0.795519 0.078145
0.859892 0.796888 0.078619
0.873602 0.799175 0.079309
0.904776 0.800476 0.079311
0.171177 0.842747 0.078028
0.184708 0.842747 0.078028
0.263270 0.842747 0.078027
0.277578 0.842747 0.078027
0.290037 0.842747 0.078026
0.302003 0.842747 0.078026
0.313762 0.842747 0.078025
0.325409 0.842746 0.078023
0.571745 0.798624 0.066141
0.693795 0.796358 0.060839
0.777184 0.802997 0.060511
0.823300 0.806764 0.078141
0.847429 0.807893 0.079310
0.860011 0.808850 0.079306
0.873602 0.810564 0.079307
0.904776 0.811957 0.079300
0.171170 0.854963 0.078016
0.184971 0.854963 0.078016
0.263513 0.854963 0.078015
0.277855 0.854963 0.078015
0.290385 0.854963 0.078014
0.302424 0.854963 0.078014
0.314265 0.854963 0.078013
0.325991 0.854963 0.078011
0.572696 0.811098 0.066521
0.693894 0.808472 0.060846
0.777097 0.815125 0.060988
0.823002 0.818872 0.078031
0.847855 0.820060 0.079251
0.860011 0.820110 0.079302
0.873602 0.821970 0.079303
0.904775 0.823488 0.079297
0.171161 0.868169 0.078009
0.185456 0.868169 0.078009
0.263939 0.868169 0.078008
0.278347 0.868169 0.078008
0.291003 0.868169 0.078007
0.303178 0.868169 0.078007
0.315151 0.868169 0.078005
0.329781 0.867652 0.077875
0.582192 0.823343 0.066220
0.703198 0.822372 0.060559
0.783013 0.828790 0.062326
0.826666 0.832263 0.078189
0.850023 0.833302 0.079284
0.861907 0.833315 0.079295
0.873602 0.833315 0.079291
0.904775 0.834951 0.079291
0.171152 0.881317 0.078000
0.185863 0.881317 0.078000
0.264286 0.881317 0.078000
0.278753 0.881317 0.078000
0.291509 0.881317 0.077999
0.303800 0.881317 0.077998
0.315889 0.881317 0.077997
0.348935 0.877332 0.077088
0.589595 0.835468 0.065958
0.710663 0.836084 0.060322
0.787869 0.842309 0.063098
0.829552 0.845555 0.078297
0.851623 0.846464 0.079289
0.863479 0.846464 0.079286
0.875284 0.846464 0.079281
0.904775 0.846464 0.079277
-0.099343 -0.096522 -0.056583
-0.079805 -0.096522 -0.056583
0.021450 -0.096522 -0.055614
0.107547 -0.096523 -0.061671
0.222027 -0.096524 -0.069213
0.343079 -0.096525 -0.071336
0.455601 -0.096526 -0.073021
0.557327 -0.096517 -0.074330
0.640711 -0.096519 -0.075332
0.710812 -0.096521 -0.075381
0.752891 -0.096523 -0.074599
0.768087 -0.096526 -0.072085
0.781358 -0.096530 -0.069591
0.794699 -0.096534 -0.068151
0.808571 -0.096540 -0.067136
0.838404 -0.096533 -0.066230
-0.099343 -0.077529 -0.056583
-0.079805 -0.077529 -0.056583
0.021450 -0.077529 -0.061432
0.107547 -0.077530 -0.069214
0.222027 -0.077530 -0.075148
0.343079 -0.077531 -0.075312
0.455601 -0.077532 -0.075313
0.557327 -0.077534 -0.075293
0.640711 -0.077535 -0.075282
0.710812 -0.077537 -0.074590
0.752891 -0.077539 -0.073324
0.768087 -0.077541 -0.070572
0.781358 -0.077544 -0.068116
0.794699 -0.077555 -0.067017
0.808571 -0.077558 -0.066615
0.838404 -0.077562 -0.066230
-0.099344 0.030156 -0.041736
-0.079806 0.030156 -0.047477
0.021436 0.027770 -0.055282
0.085348 0.028402 -0.067287
0.183029 0.026588 -0.075323
0.299588 0.021357 -0.075320
0.445835 0.018802 -0.075316
0.554277 0.018170 -0.075309
0.637727 0.017657 -0.075298
0.708148 0.017266 -0.074956
0.750862 0.016997 -0.073618
0.767168 0.016864 -0.071907
0.780487 0.016884 -0.069380
0.793837 0.017075 -0.068269
0.807694 0.017408 -0.067888
0.837496 0.017682 -0.067517
-0.099345 0.088749 -0.015370
-0.079807 0.088749 -0.022584
0.022124 0.086635 -0.024320
0.099756 0.083038 -0.051038
0.191660 0.080689 -0.075311
0.286047 0.077974 -0.075318
0.377656 0.056532 -0.075322
0.512654 0.032891 -0.075320
0.633351 0.031697 -0.075321
0.704243 0.031177 -0.075207
0.747762 0.030820 -0.074068
0.765063 0.030649 -0.073077
0.779172 0.030671 -0.071290
0.792534 0.030922 -0.070161
0.806367 0.031365 -0.069814
0.836117 0.031733 -0.069469
-0.074343 0.172074 0.029117
-0.055250 0.172074 0.023727
0.043452 0.171673 0.023467
0.101334 0.168343 0.021377
0.226957 0.160905 -0.055093
0.327548 0.159401 -0.075327
0.415453 0.156552 -0.075320
0.490241 0.139937 -0.075326
0.555898 0.102513 -0.075321
0.660663 0.054841 -0.075330
0.739232 0.042937 -0.075120
0.759010 0.042709 -0.074027
0.774551 0.042743 -0.073451
0.788702 0.043069 -0.073227
0.801801 0.043648 -0.073367
0.831079 0.044124 -0.073456
-0.004995 0.280661 0.079515
0.012865 0.280661 0.076093
0.105799 0.280441 0.075987
0.120693 0.280070 0.075809
0.212249 0.273668 0.076595
0.372974 0.266251 -0.050480
0.485472 0.262150 -0.073632
0.565619 0.259148 -0.074810
0.629461 0.253149 -0.075319
0.679414 0.242999 -0.075331
0.709134 0.226756 -0.075316
0.713935 0.208011 -0.075316
0.723056 0.198156 -0.075319
0.736651 0.199144 -0.075324
0.754656 0.208978 -0.075329
0.786552 0.217069 -0.075336
0.055780 0.396390 0.110697
0.072561 0.396389 0.108793
0.160411 0.396241 0.108769
0.175189 0.396001 0.108731
0.188212 0.395426 0.108640
0.335111 0.381873 0.091790
0.490287 0.377288 -0.035819
0.600874 0.373596 -0.066403
0.676008 0.372816 -0.071359
0.738015 0.372418 -0.072572
0.774890 0.367134 -0.074635
0.782879 0.358252 -0.074881
0.793343 0.355525 -0.074913
0.806950 0.359609 -0.074751
0.823221 0.369042 -0.074433
0.855411 0.376768 -0.074174
0.088749 0.520581 0.117109
0.104944 0.520581 0.116317
0.189784 0.520474 0.116320
0.204384 0.520309 0.116324
0.217265 0.519916 0.116334
0.247839 0.521918 0.116697
0.446751 0.495153 0.070936
0.581186 0.494404 -0.020795
0.674144 0.482710 -0.050436
0.749632 0.483852 -0.062171
0.795485 0.483692 -0.066211
0.807149 0.477387 -0.067113
0.818533 0.476132 -0.067243
0.831701 0.480818 -0.066796
0.846518 0.490344 -0.065903
0.878056 0.498127 -0.065216
0.111199 0.631453 0.106265
0.126995 0.631453 0.106307
0.209688 0.631383 0.106317
0.224117 0.631277 0.106332
0.236812 0.631027 0.106367
0.248957 0.630376 0.106459
0.384306 0.603328 0.092897
0.546960 0.593216 0.034669
0.657334 0.595835 -0.005295
0.740161 0.586365 -0.030468
0.798607 0.584253 -0.038996
0.816933 0.580481 -0.041684
0.828486 0.579904 -0.041780
0.841354 0.584746 -0.039413
0.855507 0.594114 -0.034917
0.886709 0.601759 -0.031272
0.133010 0.729126 0.090352
0.148405 0.729127 0.091020
0.229123 0.729080 0.091028
0.243427 0.729009 0.091040
0.255970 0.728847 0.091067
0.267984 0.728428 0.091138
0.292000 0.725152 0.090358
0.503183 0.679267 0.060771
0.633877 0.680481 0.025819
0.731032 0.685368 0.021378
0.794613 0.679512 0.009012
0.821598 0.675336 0.004784
0.833131 0.675070 0.004501
0.846401 0.681044 0.009434
0.861294 0.692262 0.018743
0.893212 0.701089 0.025907
0.156440 0.797936 0.087732
0.171419 0.797936 0.088816
0.250158 0.797910 0.088814
0.264369 0.797871 0.088809
0.276795 0.797784 0.088800
0.288672 0.797559 0.088776
0.300229 0.797091 0.088726
0.439606 0.770417 0.079784
0.611501 0.745236 0.062990
0.716894 0.751430 0.053813
0.791760 0.756860 0.067899
0.829528 0.755563 0.066738
0.842685 0.755577 0.066731
0.855771 0.759571 0.069734
0.870308 0.767030 0.075394
0.901997 0.771902 0.078849
0.171182 0.831503 0.092286
0.185900 0.831503 0.093564
0.263448 0.831503 0.093564
0.277635 0.831503 0.093564
0.290052 0.831503 0.093563
0.301991 0.831503 0.093563
0.313725 0.831503 0.093562
0.371082 0.822515 0.091847
0.590329 0.783550 0.081654
0.704396 0.785649 0.075909
0.784175 0.791699 0.077843
0.828077 0.794876 0.093074
0.847228 0.795525 0.093675
0.859892 0.796896 0.094144
0.873602 0.799178 0.094821
0.904776 0.800476 0.094816
0.171177 0.842747 0.092305
0.185894 0.842747 0.093557
0.263467 0.842747 0.093557
0.277662 0.842747 0.093557
0.290088 0.842747 0.093556
0.302035 0.842747 0.093555
0.313776 0.842747 0.093555
0.325426 0.842746 0.093554
0.572003 0.798577 0.081858
0.693846 0.796362 0.076658
0.777211 0.802999 0.076348
0.823271 0.806762 0.093670
0.847429 0.807893 0.094821
0.860011 0.808852 0.094818
0.873602 0.810565 0.094813
0.904776 0.811957 0.094805
0.171170 0.854963 0.092585
0.185886 0.854963 0.093548
0.263662 0.854963 0.093547
0.277921 0.854963 0.093547
0.290423 0.854963 0.093547
0.302450 0.854963 0.093546
0.314274 0.854963 0.093545
0.326007 0.854963 0.093544
0.572994 0.811046 0.082233
0.693957 0.808477 0.076667
0.777098 0.815125 0.076809
0.823017 0.818873 0.093559
0.847857 0.820060 0.094756
0.860011 0.820110 0.094807
0.873602 0.821971 0.094801
0.904775 0.823488 0.094796
0.171161 0.868169 0.093094
0.185874 0.868169 0.093536
0.264006 0.868169 0.093536
0.278377 0.868169 0.093536
0.291019 0.868169 0.093533
0.303189 0.868169 0.093532
0.315164 0.868169 0.093531
0.329875 0.867635 0.093399
0.582266 0.823334 0.081942
0.703230 0.822375 0.076378
0.783028 0.828792 0.078121
0.826676 0.832264 0.093707
0.850025 0.833302 0.094783
0.861908 0.833315 0.094795
0.873602 0.833315 0.094791
0.904775 0.834951 0.094786
0.171152 0.881317 0.093520
0.185863 0.881317 0.093521
0.264286 0.881317 0.093521
0.278753 0.881317 0.093521
0.291509 0.881317 0.093520
0.303800 0.881317 0.093519
0.315889 0.881317 0.093518
0.348936 0.877332 0.092625
0.589596 0.835468 0.081683
0.710663 0.836084 0.076143
0.787869 0.842309 0.078864
0.829552 0.845555 0.093809
0.851623 0.846464 0.094785
0.863479 0.846464 0.094782
0.875284 0.846464 0.094776
0.904775 0.846464 0.094772
-0.099343 -0.096522 0.042513
-0.073554 -0.096522 0.042513
0.021911 -0.096522 0.049787
0.116693 -0.096521 0.043865
0.244601 -0.096524 0.028867
0.368925 -0.096525 0.020510
0.482943 -0.096526 0.019300
0.581654 -0.096517 0.019406
0.661314 -0.096519 0.020036
0.725210 -0.096521 0.023155
0.761853 -0.096523 0.027184
0.774889 -0.096526 0.030272
0.786771 -0.096530 0.033319
0.799514 -0.096534 0.035135
0.813197 -0.096540 0.036447
0.842954 -0.096533 0.037583
-0.099343 -0.071460 0.042512
-0.079805 -0.077529 0.042512
0.021911 -0.077529 0.049787
0.116518 -0.077529 0.043002
0.244281 -0.077530 0.028012
0.368312 -0.077531 0.020048
0.482514 -0.077532 0.019023
0.581496 -0.077534 0.019278
0.661319 -0.077535 0.020047
0.725261 -0.077537 0.023321
0.761920 -0.077539 0.027469
0.774910 -0.077541 0.030671
0.786791 -0.077544 0.033695
0.799528 -0.077555 0.035420
0.813203 -0.077558 0.036571
0.842954 -0.077563 0.037583
-0.099344 0.027000 0.054540
-0.079806 0.027000 0.054540
0.021509 0.030322 0.060432
0.092408 0.030213 0.046160
0.231657 0.021102 0.025104
0.380532 0.017012 0.016115
0.500321 0.015820 0.014936
0.594984 0.014874 0.014583
0.671312 0.014126 0.014550
0.733092 0.013531 0.016110
0.761526 0.013054 0.019475
0.774392 0.012670 0.021928
0.786976 0.012359 0.023206
0.799907 0.012111 0.023517
0.813507 0.011923 0.023509
0.843076 0.020816 0.041813
-0.099345 0.085009 0.076401
-0.079807 0.085108 0.075736
0.018646 0.088350 0.070934
0.096849 0.083504 0.048041
0.204953 0.075141 0.015783
0.303053 0.064925 0.014584
0.410247 0.038352 0.013816
0.569827 0.031597 0.013314
0.663542 0.030792 0.013462
0.728543 0.030167 0.014373
0.759774 0.029701 0.017201
0.772906 0.029406 0.019950
0.785622 0.029287 0.021365
0.798570 0.029360 0.021782
0.812175 0.029598 0.021771
0.842831 0.033219 0.039473
-0.078659 0.169512 0.113700
-0.059221 0.169562 0.113010
0.040487 0.174834 0.107844
0.091670 0.171003 0.104849
0.227674 0.160303 0.032690
0.333724 0.158183 0.013146
0.424975 0.152734 0.012779
0.499826 0.129868 0.012382
0.575902 0.084681 0.011996
0.701864 0.044655 0.011783
0.755556 0.042523 0.013533
0.769954 0.042197 0.016082
0.782892 0.042118 0.017786
0.795916 0.042311 0.018301
0.809500 0.042743 0.018250
0.843899 0.045058 0.033113
-0.006190 0.279106 0.159468
0.011718 0.279141 0.159136
0.103078 0.284811 0.154914
0.121108 0.283377 0.154213
0.205923 0.276097 0.155411
0.374439 0.266335 0.034871
0.491058 0.262607 0.013359
0.571456 0.259198 0.012133
0.635661 0.252312 0.011472
0.685076 0.240354 0.011249
0.710433 0.221037 0.011039
0.715050 0.200577 0.010827
0.723286 0.189016 0.010640
0.735952 0.188468 0.010482
0.753015 0.196704 0.010365
0.798411 0.220038 0.020230
0.055364 0.395354 0.189568
0.072159 0.395369 0.189346
0.156486 0.400610 0.183407
0.174684 0.399785 0.183228
0.188366 0.398178 0.182916
0.332345 0.383399 0.168343
0.491815 0.377615 0.047618
0.604460 0.374445 0.019016
0.680396 0.373955 0.014798
0.741826 0.373106 0.013445
0.775481 0.366543 0.011410
0.783398 0.357144 0.011030
0.793884 0.353869 0.010858
0.807320 0.357163 0.010887
0.823239 0.365545 0.011075
0.857268 0.381389 0.021499
0.088587 0.519847 0.196003
0.104786 0.519853 0.195901
0.185483 0.524194 0.189125
0.203405 0.523659 0.189108
0.217052 0.522706 0.189089
0.245414 0.523594 0.189347
0.445671 0.496081 0.147404
0.582199 0.494547 0.060905
0.676811 0.483644 0.033799
0.752452 0.485073 0.022918
0.796339 0.484160 0.019071
0.807851 0.477600 0.018140
0.819229 0.475961 0.017900
0.832337 0.480073 0.018191
0.847065 0.488896 0.018903
0.878466 0.500983 0.029780
0.111093 0.630973 0.186134
0.126890 0.630973 0.186141
0.205458 0.634526 0.179312
0.223047 0.634195 0.179329
0.236476 0.633595 0.179367
0.248944 0.632502 0.179460
0.379500 0.605983 0.167524
0.546679 0.593971 0.113056
0.658109 0.596049 0.075455
0.741909 0.587117 0.052145
0.799700 0.584933 0.044413
0.817446 0.581004 0.041933
0.829050 0.580268 0.041707
0.841933 0.584786 0.043720
0.856067 0.593656 0.047660
0.886849 0.603663 0.062021
0.132930 0.728807 0.171439
0.148326 0.728805 0.171535
0.225049 0.731497 0.164839
0.242351 0.731300 0.164857
0.255597 0.730944 0.164894
0.267928 0.730276 0.164973
0.289801 0.727124 0.164430
0.501390 0.680622 0.137423
0.633996 0.681085 0.104704
0.731625 0.685594 0.100326
0.795457 0.680021 0.089084
0.821973 0.675933 0.085250
0.833577 0.675628 0.084951
0.846869 0.681378 0.089370
0.861753 0.692270 0.097797
0.893354 0.702333 0.115230
0.156340 0.797760 0.169003
0.171319 0.797758 0.169160
0.246222 0.799109 0.163079
0.263318 0.799048 0.163069
0.276403 0.798855 0.163045
0.288599 0.798555 0.163008
0.300292 0.797921 0.162938
0.435179 0.772063 0.155004
0.610986 0.745690 0.139195
0.717077 0.751727 0.130587
0.792088 0.756988 0.143553
0.829769 0.755790 0.142553
0.842981 0.755837 0.142580
0.856115 0.759812 0.145382
0.870682 0.767159 0.150610
0.902042 0.772327 0.163882
0.171182 0.831503 0.173282
0.185900 0.831503 0.173472
0.259109 0.831709 0.167353
0.276115 0.831698 0.167352
0.289208 0.831693 0.167351
0.301477 0.831669 0.167350
0.313417 0.831651 0.167349
0.367498 0.823329 0.165877
0.589087 0.783880 0.156318
0.704178 0.785708 0.150943
0.784239 0.791746 0.152787
0.828190 0.794894 0.166926
0.847388 0.795607 0.167528
0.860104 0.796960 0.168006
0.873858 0.799237 0.168683
0.904776 0.800592 0.178498
0.171177 0.842747 0.173303
0.185894 0.842747 0.173491
0.259111 0.842931 0.167365
0.276117 0.842925 0.167367
0.289212 0.842916 0.167370
0.301486 0.842906 0.167373
0.313434 0.842908 0.167379
0.325208 0.842889 0.167388
0.569707 0.799124 0.156646
0.693311 0.796415 0.151722
0.777144 0.803063 0.151432
0.823333 0.806808 0.167573
0.847485 0.807925 0.168674
0.860135 0.808904 0.168723
0.873770 0.810603 0.168795
0.904776 0.812055 0.178497
0.171170 0.854963 0.173533
0.185886 0.854963 0.173674
0.259165 0.855134 0.167448
0.276309 0.855130 0.167451
0.289495 0.855123 0.167457
0.301852 0.855113 0.167465
0.313884 0.855100 0.167475
0.325746 0.855093 0.167489
0.569523 0.811790 0.157152
0.693097 0.808511 0.151861
0.776871 0.815196 0.151950
0.823000 0.818937 0.167604
0.847898 0.820110 0.168760
0.860063 0.820134 0.168852
0.873704 0.821998 0.168935
0.904775 0.823539 0.178495
0.171161 0.868169 0.173935
0.185874 0.868169 0.173997
0.259272 0.868316 0.167601
0.276663 0.868312 0.167606
0.290018 0.868318 0.167613
0.302530 0.868310 0.167623
0.314708 0.868300 0.167637
0.326725 0.868288 0.167654
0.579803 0.823764 0.157022
0.701995 0.822383 0.151791
0.782584 0.828841 0.153323
0.826535 0.832327 0.167933
0.850029 0.833365 0.168987
0.861946 0.833357 0.169049
0.873650 0.833346 0.169102
0.904775 0.834985 0.178495
0.171152 0.881317 0.174263
0.185863 0.881317 0.174263
0.259419 0.881445 0.167806
0.276971 0.881442 0.167811
0.290458 0.881438 0.167819
0.303094 0.881432 0.167831
0.315402 0.881423 0.167847
0.340997 0.878874 0.167338
0.586658 0.835983 0.157036
0.709139 0.836042 0.151810
0.787242 0.842321 0.154220
0.829392 0.845611 0.168264
0.851596 0.846513 0.169228
0.863483 0.846494 0.169280
0.875320 0.846493 0.169337
0.904775 0.846464 0.178494
-0.099343 -0.096522 0.066962
-0.071766 -0.096522 0.066962
0.022321 -0.089037 0.089347
0.099115 -0.087239 0.093742
0.241269 -0.094175 0.074604
0.380464 -0.096525 0.054969
0.497968 -0.096526 0.047720
0.591382 -0.096517 0.047760
0.669124 -0.096519 0.049285
0.731064 -0.096521 0.052900
0.765347 -0.096524 0.057791
0.776695 -0.096527 0.061713
0.788541 -0.096530 0.064439
0.801292 -0.096534 0.066408
0.815017 -0.096540 0.068224
0.844853 -0.096533 0.069771
-0.099344 -0.069724 0.066962
-0.079805 -0.077529 0.066962
0.021768 -0.070300 0.088824
0.099115 -0.068407 0.093742
0.241435 -0.075339 0.073980
0.380525 -0.077531 0.054422
0.497961 -0.077533 0.047414
0.591371 -0.077534 0.047635
0.669124 -0.077535 0.049283
0.731073 -0.077537 0.053022
0.765360 -0.077539 0.057979
0.776710 -0.077541 0.061938
0.788555 -0.077544 0.064662
0.801304 -0.077555 0.066582
0.815022 -0.077558 0.068297
0.844853 -0.077563 0.069771
-0.099344 0.027058 0.076591
-0.079806 0.026338 0.076127
0.021257 0.030136 0.085607
0.088070 0.034590 0.098237
0.255411 0.023052 0.074195
0.409329 0.016679 0.051425
0.522667 0.015415 0.045533
0.611694 0.014377 0.045133
0.684287 0.013532 0.046357
0.741871 0.012845 0.049710
0.767163 0.012282 0.053813
0.778255 0.011817 0.056834
0.789874 0.011434 0.058734
0.802396 0.011122 0.059896
0.815922 0.010880 0.060954
0.844954 0.020816 0.072218
-0.099345 0.081243 0.102988
-0.079808 0.081243 0.102988
0.018261 0.083051 0.104781
0.063579 0.092904 0.113407
0.210715 0.091089 0.092067
0.351451 0.071467 0.065312
0.494384 0.041331 0.045838
0.618385 0.032949 0.044277
0.694607 0.031617 0.045947
0.750899 0.030323 0.047945
0.769419 0.029082 0.049826
0.780532 0.027905 0.050484
0.792063 0.026797 0.049914
0.804419 0.025746 0.048273
0.817704 0.024779 0.046438
0.845460 0.036448 0.080382
-0.095903 0.167130 0.140941
-0.076359 0.167171 0.140676
0.022651 0.172240 0.140418
0.073159 0.175720 0.141536
0.226441 0.166128 0.089384
0.351395 0.154588 0.032248
0.449457 0.146086 0.030907
0.540978 0.114793 0.030072
0.654090 0.066378 0.032852
0.749930 0.044711 0.037267
0.768084 0.042362 0.042650
0.779405 0.041595 0.044307
0.791134 0.041005 0.044188
0.803560 0.040621 0.042870
0.816904 0.040440 0.041168
0.846494 0.047192 0.074423
-0.009081 0.277951 0.181834
0.009044 0.277924 0.181431
0.100732 0.283186 0.177572
0.121875 0.285869 0.176697
0.200657 0.278525 0.175068
0.376547 0.265765 0.052693
0.501777 0.264888 0.029988
0.585091 0.262002 0.028313
0.650965 0.254216 0.027157
0.700061 0.238133 0.026315
0.721055 0.210937 0.025455
0.730959 0.184029 0.024576
0.744004 0.163954 0.024158
0.755180 0.158269 0.023476
0.764235 0.161468 0.022291
0.844622 0.237917 0.050464
0.054774 0.393881 0.203246
0.071579 0.393896 0.203163
0.154657 0.399615 0.201485
0.174713 0.405202 0.200080
0.189000 0.402387 0.199376
0.329887 0.385738 0.185388
0.494405 0.377733 0.061910
0.611315 0.376827 0.033111
0.689244 0.377530 0.029557
