pictu/PRESTON CHEN 10 CINEMATIC FREE LUT PACK/8. MOODY TONES LUT.cube
LUT_3D_SIZE 6
-0.099343 -0.096522 -0.074696
0.107547 -0.096523 -0.087543
0.455601 -0.096526 -0.093747
0.710812 -0.096521 -0.093010
0.781358 -0.096530 -0.086417
0.838404 -0.096533 -0.084503
-0.099345 0.088749 -0.040114
0.099756 0.083038 -0.069056
0.377777 0.057214 -0.093754
0.704258 0.031138 -0.093637
0.779183 0.030593 -0.089631
0.836117 0.031732 -0.087799
0.055780 0.396390 0.093515
0.175282 0.395998 0.093452
0.490287 0.377288 -0.053576
0.737996 0.372327 -0.090956
0.793253 0.355204 -0.093345
0.855411 0.376768 -0.092586
0.133010 0.729126 0.075442
0.243381 0.729010 0.075462
0.291966 0.725158 0.074770
0.731032 0.685368 0.004605
0.833123 0.675001 -0.012618
0.893212 0.701089 0.009217
0.171177 0.842747 0.078028
0.277578 0.842747 0.078027
0.313762 0.842747 0.078025
0.693795 0.796358 0.060839
0.847429 0.807893 0.079310
0.904776 0.811957 0.079300
0.171152 0.881317 0.078000
0.278753 0.881317 0.078000
0.315889 0.881317 0.077997
0.710663 0.836084 0.060322
0.851623 0.846464 0.079289
0.904775 0.846464 0.079277
-0.099343 -0.096522 0.066962
0.099115 -0.087239 0.093742
0.497968 -0.096526 0.047720
0.731064 -0.096521 0.052900
0.788541 -0.096530 0.064439
0.844853 -0.096533 0.069771
-0.099345 0.081243 0.102988
0.063579 0.092904 0.113407
0.494384 0.041331 0.045838
0.750899 0.030323 0.047945
0.792063 0.026797 0.049914
0.845460 0.036448 0.080382
0.054774 0.393881 0.203246
0.174713 0.405202 0.200080
0.494405 0.377733 0.061910
0.750328 0.376290 0.027516
0.796334 0.351080 0.023247
0.867099 0.395093 0.040314
0.132816 0.728347 0.185083
0.239616 0.736518 0.176416
0.285651 0.731546 0.176140
0.733170 0.686297 0.111811
0.834716 0.676837 0.096324
0.893724 0.705508 0.132535
0.171177 0.842747 0.186811
0.270461 0.843426 0.177042
0.312279 0.843318 0.176887
0.691035 0.796517 0.161001
0.847666 0.807998 0.177442
0.904776 0.812250 0.193686
0.171152 0.881317 0.187915
0.269264 0.881813 0.175530
0.313623 0.881767 0.175486
0.703444 0.835861 0.159456
0.851461 0.846686 0.176487
0.904775 0.846464 0.193684
-0.099344 -0.037609 0.164760
0.034313 -0.029391 0.174145
0.378490 0.015566 0.337206
0.707624 -0.023704 0.309597
0.772802 -0.030814 0.304284
0.820664 -0.020885 0.325300
-0.099346 0.086715 0.164397
0.037045 0.098805 0.178121
0.396832 0.142952 0.356885
0.724766 0.100368 0.327689
0.776503 0.087265 0.306933
0.815282 0.110455 0.339599
-0.099353 0.374741 0.366355
0.030178 0.382509 0.371603
0.455572 0.462439 0.456005
0.801767 0.454547 0.406090
0.858443 0.395335 0.366158
0.916243 0.458891 0.430783
0.098597 0.739216 0.366746
0.213645 0.744416 0.336381
0.259543 0.745141 0.335537
0.752785 0.718123 0.307805
0.852489 0.706537 0.269520
0.922373 0.762234 0.455826
0.171176 0.842747 0.220955
0.267705 0.843471 0.218376
0.307479 0.844501 0.212335
0.678058 0.796342 0.196059
0.848214 0.808190 0.210657
0.919039 0.840029 0.373905
0.167894 0.883846 0.249180
0.265880 0.881877 0.219491
0.313855 0.881882 0.220136
0.698334 0.835651 0.202786
0.851029 0.846993 0.215420
0.917126 0.870383 0.353054
-0.099345 0.024950 0.253271
0.032046 0.024959 0.253281
0.153281 0.146144 0.461955
0.620229 0.077910 0.581551
0.690370 0.069458 0.583743
0.746596 0.074652 0.601840
-0.099347 0.141813 0.253161
0.035968 0.154742 0.268317
0.183379 0.268176 0.514686
0.647964 0.190511 0.606537
0.696499 0.180234 0.596929
0.747212 0.193567 0.605560
-0.099353 0.236689 0.316235
0.029921 0.247878 0.330871
0.199607 0.377561 0.563463
0.668748 0.299858 0.633821
0.710006 0.241217 0.607706
0.783442 0.285016 0.639488
-0.076155 0.706388 0.674986
0.047305 0.712236 0.678805
0.090463 0.711967 0.678410
0.778966 0.767823 0.750811
0.887506 0.762826 0.733238
0.943668 0.772315 0.748174
0.063075 0.859848 0.666665
0.170852 0.860748 0.662350
0.214249 0.862473 0.649560
0.698242 0.895958 0.704119
0.885010 0.882083 0.697326
0.948517 0.893451 0.754182
0.057501 0.897055 0.682936
0.165340 0.898337 0.674201
0.212569 0.898268 0.675361
0.696875 0.934313 0.716533
0.884879 0.922044 0.706814
0.948227 0.928114 0.751373
-0.099347 0.069471 0.328716
0.031488 0.069487 0.328724
0.072824 0.162115 0.475919
0.593673 0.150835 0.677656
0.710971 0.113690 0.712884
0.764928 0.113685 0.716829
-0.099348 0.181903 0.328630
0.034003 0.184477 0.336787
0.085130 0.282521 0.520831
0.632220 0.237403 0.697510
0.714697 0.216473 0.716169
0.764927 0.228166 0.717115
-0.099354 0.216207 0.327666
0.028784 0.219099 0.334585
0.080086 0.302224 0.475746
0.621083 0.282683 0.692386
0.716102 0.257004 0.717022
0.764842 0.262298 0.717019
-0.099355 0.655524 0.784888
0.024123 0.668755 0.797104
0.067215 0.681171 0.808886
0.739697 0.745758 0.879045
0.868969 0.732896 0.862354
0.926988 0.749753 0.866702
0.034991 0.849364 0.815794
0.144597 0.850496 0.816573
0.184113 0.851925 0.817622
0.630608 0.883044 0.855476
0.895112 0.900043 0.879682
0.959745 0.899050 0.881784
0.048814 0.895171 0.822964
0.154458 0.895634 0.822232
0.201527 0.895722 0.822382
0.631697 0.928878 0.857014
0.886462 0.949810 0.874708
0.960816 0.948708 0.881011
-0.099350 0.070056 0.366773
0.032664 0.070055 0.366773
0.072022 0.171713 0.530386
0.623331 0.137631 0.726441
0.715165 0.113685 0.750334
0.764927 0.113692 0.750334
-0.099352 0.183647 0.366773
0.034914 0.185561 0.370747
0.091029 0.285220 0.558871
0.645425 0.234644 0.738490
0.718219 0.217006 0.754168
0.764927 0.228166 0.750334
-0.099358 0.219723 0.366773
0.031611 0.220622 0.370690
0.077626 0.298252 0.502837
0.629016 0.280645 0.730751
0.718208 0.259085 0.754068
0.764927 0.262463 0.750334
-0.099360 0.687430 0.853042
0.023175 0.694670 0.857971
0.069209 0.696289 0.858269
0.729910 0.737883 0.922228
0.868114 0.728642 0.902204
0.924076 0.744670 0.901802
0.028315 0.856123 0.871543
0.138244 0.857215 0.873209
0.178736 0.857994 0.875809
0.622677 0.886223 0.913144
0.890141 0.896385 0.935129
0.959406 0.898213 0.933832
0.049629 0.895654 0.869383
0.155192 0.896052 0.869750
0.201153 0.896228 0.870018
0.613287 0.927870 0.905825
0.880463 0.949733 0.930529
0.961134 0.950890 0.933589
