pictu/PRESTON CHEN 10 CINEMATIC FREE LUT PACK/9. UNDERWATER TONES.cube
LUT_3D_SIZE 6
0.000000 0.000000 0.000000
0.060475 -0.014155 -0.014189
0.297692 -0.063488 -0.063488
0.647711 -0.118547 -0.119575
0.922696 0.152425 -0.174566
1.038487 0.340960 -0.216954
0.039319 0.054215 -0.006487
0.113778 0.023112 -0.028067
0.347832 -0.072122 -0.072210
0.673303 -0.083069 -0.125399
0.940397 0.194819 -0.181458
1.038169 0.364633 -0.220827
0.214230 0.247243 -0.046486
0.307528 0.233542 -0.122119
0.493086 0.180795 -0.118795
0.777923 0.173767 -0.153528
0.978176 0.285018 -0.198912
1.037322 0.417797 -0.230240
0.440721 0.506115 -0.086957
0.514229 0.496800 -0.146659
0.664622 0.480914 -0.215434
0.850095 0.425546 -0.210609
1.034051 0.404764 -0.227334
1.035535 0.512598 -0.248773
0.703629 0.734501 -0.196433
0.742536 0.731784 -0.230245
0.850998 0.725327 -0.283849
0.948392 0.707703 -0.285359
1.031483 0.657350 -0.279953
1.033278 0.612415 -0.270022
0.961296 0.929983 -0.321052
0.992288 0.932754 -0.332518
1.021176 0.923218 -0.337083
1.022755 0.914229 -0.336212
1.023537 0.898254 -0.333822
1.025217 0.858639 -0.325502
0.012715 0.011769 0.064806
0.015295 0.013220 0.061632
0.251341 -0.054950 0.056061
0.632501 0.005791 -0.119648
0.905894 0.191956 -0.175599
1.038357 0.351217 -0.218634
0.009236 0.068350 0.104021
0.080217 0.069973 0.103000
0.333525 0.075555 0.057292
0.662451 0.127696 -0.130534
0.929558 0.234715 -0.184506
1.038007 0.377142 -0.222987
0.048797 0.285784 0.071394
0.250264 0.273733 0.056524
0.475046 0.232867 -0.048431
0.759317 0.250594 -0.160409
0.970960 0.331176 -0.205278
1.036973 0.438750 -0.234153
0.383028 0.535129 -0.066773
0.473492 0.525754 -0.096561
0.652345 0.501674 -0.220209
0.845351 0.460396 -0.214291
1.030858 0.447445 -0.234754
1.035071 0.535427 -0.253522
0.674207 0.748812 -0.164264
0.717780 0.747531 -0.202991
0.834662 0.739448 -0.281813
0.942398 0.721704 -0.288328
1.030320 0.670732 -0.282250
1.032595 0.638547 -0.275798
0.948838 0.936859 -0.251417
0.979263 0.938126 -0.266736
1.019280 0.929698 -0.289537
1.022416 0.920192 -0.295304
1.023213 0.904382 -0.302758
1.024904 0.866205 -0.327123
0.043692 0.074299 0.249438
0.042890 0.071608 0.243038
0.142817 0.097281 0.228436
0.421901 0.112239 0.294275
0.877011 -0.105894 0.197912
1.037887 0.377932 -0.215727
0.025027 0.150564 0.293410
0.025475 0.148650 0.295739
0.205890 0.161564 0.283471
0.511342 0.152981 0.310234
0.895875 0.233702 0.157188
1.036968 0.440948 -0.227524
0.011405 0.313704 0.361471
0.010843 0.326584 0.372941
0.352305 0.339745 0.391164
0.675083 0.350087 0.319369
0.922683 0.419847 0.192763
1.035694 0.503530 -0.231855
-0.023591 0.605608 0.339619
0.108698 0.602684 0.360169
0.543514 0.571040 0.335237
0.789495 0.522695 0.338487
0.985283 0.528103 0.277560
1.033336 0.603116 -0.098349
0.489275 0.786993 0.281399
0.566607 0.783719 0.280202
0.736541 0.765455 0.236200
0.905659 0.742892 0.176091
1.016963 0.699412 0.258110
1.030571 0.688484 0.199183
0.865837 0.945602 0.289714
0.905476 0.943087 0.277453
0.975171 0.936589 0.222028
1.021463 0.928229 0.187682
1.022477 0.911893 0.206605
1.024156 0.876476 0.146087
0.048888 0.221387 0.512753
0.050302 0.213583 0.502700
0.062704 0.228426 0.516763
0.372876 0.265673 0.463936
0.637538 0.321338 0.559518
0.983066 0.313802 0.566337
0.036959 0.273702 0.515092
0.037232 0.273504 0.519275
0.142682 0.280856 0.536222
0.415960 0.316224 0.499754
0.661098 0.379299 0.580789
1.005226 0.328612 0.545237
0.030020 0.384244 0.539282
0.033923 0.401506 0.555265
0.298386 0.420435 0.587987
0.534644 0.462874 0.604839
0.758532 0.473190 0.602569
1.033382 0.443722 0.471742
0.007908 0.605568 0.631869
0.007969 0.613157 0.638745
0.293397 0.627612 0.650783
0.676859 0.644535 0.669217
0.890462 0.628007 0.605199
1.029992 0.651216 0.458397
-0.019004 0.842675 0.596037
-0.019954 0.843350 0.588107
0.321059 0.829782 0.577265
0.783537 0.789753 0.571353
0.963451 0.756643 0.608229
1.027128 0.754968 0.550858
0.467653 0.981006 0.482494
0.619520 0.971361 0.531030
0.810105 0.954075 0.568725
0.979193 0.941090 0.514987
1.021209 0.925609 0.518821
1.022554 0.890312 0.542976
0.046438 0.444756 0.736062
0.046472 0.433363 0.729759
0.122482 0.430154 0.733037
0.405286 0.446916 0.741901
0.650053 0.519074 0.686194
0.868932 0.566050 0.758472
0.044119 0.465366 0.726398
0.044463 0.465004 0.728726
0.206605 0.461612 0.736484
0.453144 0.482294 0.745247
0.675413 0.556960 0.703862
0.869792 0.598219 0.762955
0.078623 0.552966 0.733513
0.172242 0.553388 0.737959
0.328506 0.547727 0.746329
0.539423 0.569636 0.759391
0.733356 0.634472 0.743467
0.885998 0.673574 0.774653
0.024462 0.642905 0.739863
0.027412 0.644572 0.741646
0.302391 0.649266 0.748133
0.623904 0.682319 0.773703
0.808695 0.735365 0.789336
0.927901 0.748818 0.788499
0.003878 0.831797 0.795337
0.012323 0.833804 0.797942
0.313424 0.831055 0.797689
0.625001 0.828313 0.801382
0.893683 0.844221 0.818174
1.022444 0.826142 0.768631
-0.011631 0.998364 0.819817
0.081299 0.998483 0.818918
0.328777 0.995544 0.790555
0.651020 0.981422 0.755214
0.995044 0.954507 0.760416
1.020449 0.921515 0.783934
0.547724 0.756880 0.883447
0.556368 0.749988 0.881750
0.615787 0.745823 0.881281
0.707910 0.743747 0.881024
0.827244 0.774596 0.867997
0.923218 0.788876 0.873572
0.551548 0.759754 0.880251
0.571425 0.758256 0.880285
0.631667 0.756473 0.880989
0.716951 0.751672 0.880112
0.831957 0.783099 0.872138
0.923528 0.800160 0.874975
0.588073 0.797348 0.882088
0.608189 0.794886 0.882340
0.660529 0.787614 0.881890
0.743967 0.783711 0.882682
0.849427 0.804439 0.876598
0.936841 0.822373 0.878080
0.544472 0.839655 0.883682
0.572591 0.838236 0.883749
0.660879 0.835453 0.884994
0.763159 0.826988 0.886501
0.869212 0.838140 0.890032
0.957662 0.858472 0.885513
0.454667 0.911380 0.896332
0.477564 0.909624 0.896230
0.590515 0.904635 0.897280
0.736740 0.897353 0.899135
0.892716 0.890609 0.901611
0.991006 0.906144 0.899120
0.460418 0.998579 0.923590
0.559253 0.998434 0.926697
0.632999 0.998433 0.926886
0.750024 0.991826 0.927178
0.885888 0.981844 0.927690
1.017169 0.968614 0.924574
