pictu/PRESTON CHEN 10 CINEMATIC FREE LUT PACK/9. UNDERWATER TONES.cube
LUT_3D_SIZE 16
0.000000 0.000000 0.000000
0.000971 -0.000197 -0.000197
0.016863 -0.003959 -0.003974
0.060475 -0.014155 -0.014189
0.119401 -0.027603 -0.027601
0.199296 -0.044647 -0.044647
0.297692 -0.063488 -0.063488
0.411753 -0.082703 -0.082703
0.532963 -0.101692 -0.101692
0.647711 -0.118547 -0.119575
0.749003 -0.109574 -0.137173
0.840034 0.073475 -0.155776
0.922696 0.152425 -0.174566
0.997908 0.217016 -0.193083
1.037097 0.279202 -0.207526
1.038487 0.340960 -0.216954
0.000865 0.002760 0.002138
0.003665 0.001824 0.002001
0.025286 -0.005617 -0.005948
0.067315 -0.015543 -0.015787
0.125791 -0.029005 -0.029024
0.205446 -0.045902 -0.045902
0.304097 -0.064629 -0.064629
0.417688 -0.083648 -0.083648
0.537356 -0.102353 -0.102354
0.651018 -0.117480 -0.120176
0.750612 -0.098715 -0.137879
0.840720 0.085409 -0.156419
0.923404 0.158097 -0.175103
0.998005 0.220704 -0.193549
1.037106 0.281878 -0.207889
1.038456 0.343065 -0.217273
0.010918 0.019227 0.004568
0.024971 0.016932 -0.008335
0.042514 0.009471 -0.009605
0.081779 -0.017136 -0.019085
0.139871 -0.031910 -0.032123
0.218528 -0.048522 -0.048517
0.316173 -0.066779 -0.066779
0.429005 -0.085467 -0.085468
0.546574 -0.103685 -0.103793
0.657456 -0.112600 -0.121525
0.755732 -0.066712 -0.139612
0.845332 0.105572 -0.158204
0.928187 0.171008 -0.177046
1.000472 0.230299 -0.195307
1.037186 0.289465 -0.208944
1.038388 0.349846 -0.218363
0.039319 0.054215 -0.006487
0.064879 0.051856 -0.026031
0.083540 0.043902 -0.029279
0.113778 0.023112 -0.028067
0.173356 -0.036320 -0.039350
0.251358 -0.054825 -0.054924
0.347832 -0.072122 -0.072210
0.457493 -0.089323 -0.090004
0.569142 -0.100207 -0.107669
0.673303 -0.083069 -0.125399
0.766395 0.068383 -0.143120
0.854952 0.134114 -0.161802
0.940397 0.194819 -0.181458
1.010527 0.249392 -0.199272
1.037605 0.304098 -0.211102
1.038169 0.364633 -0.220827
0.078190 0.107880 -0.018293
0.109802 0.107140 -0.029680
0.136709 0.102299 -0.058569
0.169728 0.085775 -0.057129
0.216799 0.053443 -0.053900
0.296613 -0.047603 -0.064041
0.394589 -0.071656 -0.080383
0.499306 -0.072584 -0.097646
0.604048 -0.038802 -0.115171
0.700899 0.072074 -0.132531
0.788291 0.119053 -0.149653
0.871901 0.167630 -0.167564
0.951992 0.220003 -0.186149
1.019144 0.269730 -0.203309
1.037862 0.321917 -0.213833
1.037971 0.379910 -0.223458
0.139275 0.173320 -0.031291
0.166345 0.172632 -0.039508
0.195547 0.170174 -0.067367
0.235336 0.158092 -0.093428
0.279711 0.140755 -0.088593
0.346199 0.106992 -0.084898
0.446838 0.062730 -0.092627
0.551758 0.059403 -0.108458
0.648723 0.091214 -0.125419
0.735757 0.127936 -0.142034
0.815548 0.165499 -0.158376
0.892192 0.205877 -0.175043
0.964355 0.250296 -0.191890
1.026276 0.294422 -0.207885
1.038037 0.342726 -0.217183
1.037648 0.397481 -0.226560
0.214230 0.247243 -0.046486
0.239312 0.246157 -0.056158
0.267215 0.243378 -0.082543
0.307528 0.233542 -0.122119
0.350698 0.228350 -0.126476
0.408972 0.214707 -0.122938
0.493086 0.180795 -0.118795
0.599076 0.145571 -0.124287
0.697244 0.146858 -0.138240
0.777923 0.173767 -0.153528
0.848331 0.208424 -0.168624
0.915814 0.245583 -0.183944
0.978176 0.285018 -0.198912
1.030662 0.323730 -0.213001
1.038040 0.366935 -0.221195
1.037322 0.417797 -0.230240
0.291448 0.331808 -0.060531
0.315325 0.330364 -0.070665
0.340105 0.328046 -0.092032
0.381550 0.319941 -0.135073
0.424356 0.314405 -0.158332
0.477760 0.311046 -0.158960
0.546808 0.296372 -0.155735
0.632284 0.265405 -0.152445
0.729425 0.231974 -0.155698
0.817110 0.228424 -0.166948
0.886478 0.252118 -0.180550
0.946816 0.285925 -0.194457
1.000338 0.323367 -0.208287
1.034609 0.360021 -0.219526
1.037637 0.399746 -0.226910
1.036853 0.446596 -0.235669
0.365149 0.419652 -0.072992
0.388073 0.416833 -0.083652
0.408413 0.415067 -0.099686
0.447177 0.408502 -0.138284
0.494180 0.398622 -0.178437
0.546000 0.398342 -0.188694
0.605079 0.393675 -0.188150
0.673237 0.379095 -0.186058
0.750961 0.347684 -0.183118
0.836564 0.313452 -0.184660
0.917953 0.306844 -0.193877
0.979790 0.329939 -0.206287
1.023295 0.362930 -0.218278
1.036799 0.398364 -0.226562
1.037007 0.437113 -0.233878
1.036175 0.481136 -0.242411
0.440721 0.506115 -0.086957
0.463066 0.503038 -0.100475
0.479529 0.501967 -0.113617
0.514229 0.496800 -0.146659
0.563545 0.486176 -0.192156
0.616357 0.483094 -0.213792
0.664622 0.480914 -0.215434
0.720607 0.474065 -0.215141
0.782692 0.457158 -0.213463
0.850095 0.425546 -0.210609
0.923919 0.391459 -0.210699
1.000893 0.381615 -0.218407
1.034051 0.404764 -0.227334
1.037016 0.436602 -0.233741
1.036366 0.471612 -0.240528
1.035535 0.512598 -0.248773
0.527962 0.590932 -0.112513
0.546800 0.589290 -0.127531
0.561055 0.588833 -0.139826
0.590340 0.584817 -0.167482
0.635132 0.576834 -0.208015
0.685536 0.571954 -0.235676
0.730444 0.568827 -0.241191
0.774825 0.564660 -0.241729
0.822640 0.553166 -0.240772
0.876082 0.533865 -0.238900
0.932999 0.503263 -0.235950
1.000021 0.467955 -0.234908
1.032552 0.454253 -0.236585
1.036293 0.475247 -0.241248
1.035698 0.505811 -0.247402
1.034920 0.543375 -0.255193
0.620625 0.665266 -0.155186
0.635492 0.665228 -0.168214
0.646964 0.664514 -0.178594
0.669874 0.661619 -0.199809
0.704142 0.657189 -0.228642
0.747657 0.653658 -0.254309
0.793127 0.650978 -0.264034
0.828898 0.645715 -0.264527
0.867050 0.638832 -0.264607
0.910080 0.627403 -0.263925
0.956298 0.609027 -0.262326
1.004174 0.579846 -0.259566
1.031068 0.551588 -0.256454
1.035151 0.531868 -0.252778
1.034903 0.544125 -0.255357
1.034168 0.576653 -0.262256
0.703629 0.734501 -0.196433
0.714637 0.734547 -0.205939
0.723665 0.733852 -0.214000
0.742536 0.731784 -0.230245
0.771018 0.729119 -0.252315
0.808206 0.727834 -0.273004
0.850998 0.725327 -0.283849
0.884640 0.719496 -0.284949
0.914822 0.714811 -0.285296
0.948392 0.707703 -0.285359
0.985350 0.696668 -0.284771
1.020103 0.677200 -0.283228
1.031483 0.657350 -0.279953
1.032973 0.625243 -0.272895
1.033531 0.601205 -0.267589
1.033278 0.612415 -0.270022
0.794486 0.817946 -0.238779
0.817209 0.813555 -0.258322
0.825105 0.813242 -0.264196
0.837410 0.810134 -0.273807
0.848559 0.801633 -0.282732
0.876727 0.798686 -0.295291
0.915276 0.798738 -0.304082
0.948027 0.795124 -0.305722
0.971454 0.790120 -0.305898
0.997931 0.785973 -0.306345
1.018471 0.776130 -0.305953
1.027936 0.763286 -0.303978
1.029458 0.744618 -0.299802
1.030210 0.721870 -0.294689
1.031129 0.691246 -0.287644
1.031795 0.668114 -0.282461
0.872655 0.876370 -0.279000
0.890529 0.873410 -0.291983
0.897191 0.874913 -0.295846
0.908488 0.873716 -0.302645
0.918496 0.866821 -0.308098
0.940393 0.864213 -0.315658
0.971137 0.864707 -0.321961
1.000999 0.862467 -0.324199
1.018873 0.855951 -0.324311
1.024043 0.850218 -0.323513
1.025378 0.844448 -0.322321
1.026113 0.836532 -0.320665
1.026570 0.825289 -0.318089
1.027146 0.809868 -0.314682
1.027929 0.789232 -0.309989
1.028729 0.766020 -0.304705
0.961296 0.929983 -0.321052
0.976598 0.931018 -0.327293
0.983019 0.932357 -0.329582
0.992288 0.932754 -0.332518
1.000021 0.927905 -0.334610
1.012092 0.923991 -0.336422
1.021176 0.923218 -0.337083
1.021937 0.921682 -0.337025
1.022542 0.918063 -0.336684
1.022755 0.914229 -0.336212
1.022918 0.910771 -0.335794
1.023171 0.905858 -0.335086
1.023537 0.898254 -0.333822
1.023960 0.888759 -0.331991
1.024480 0.876339 -0.329340
1.025217 0.858639 -0.325502
0.002980 0.002251 0.015056
0.002891 0.002193 0.014423
0.005626 0.002908 0.016742
0.049905 -0.011782 0.013987
0.113867 -0.026125 -0.022634
0.193383 -0.043452 -0.043020
0.291040 -0.062294 -0.062286
0.403635 -0.081413 -0.081413
0.521788 -0.099947 -0.099955
0.635120 -0.113854 -0.117735
0.736847 -0.091957 -0.135785
0.829352 0.084894 -0.154422
0.913419 0.155040 -0.173216
0.990851 0.216917 -0.191971
1.036824 0.277418 -0.207203
1.038442 0.343770 -0.217380
0.004254 0.004749 0.021108
0.004693 0.005308 0.022276
0.015791 0.007860 0.018994
0.061755 -0.005458 0.018432
0.121826 -0.027138 -0.022683
0.202075 -0.045180 -0.044584
0.301574 -0.064179 -0.064172
0.415108 -0.083247 -0.083249
0.531953 -0.101417 -0.101530
0.643408 -0.111039 -0.119259
0.743413 -0.073142 -0.137404
0.834075 0.098485 -0.155923
0.916573 0.162690 -0.174384
0.992586 0.222345 -0.192856
1.036639 0.280996 -0.207688
1.038421 0.346135 -0.217788
0.002618 0.021691 0.022613
0.018612 0.020652 0.021938
0.038400 0.013816 0.022137
0.083461 0.007265 0.016643
0.138173 -0.027706 -0.024865
0.216310 -0.047438 -0.047262
0.315710 -0.066606 -0.066676
0.428341 -0.085269 -0.085382
0.544539 -0.101331 -0.103594
0.654702 -0.098298 -0.121773
0.752959 0.035418 -0.139993
0.841893 0.116588 -0.158346
0.920986 0.174685 -0.176249
0.994018 0.231047 -0.194100
1.036687 0.286817 -0.208480
1.038365 0.350891 -0.218591
0.025599 0.056806 0.018781
0.054691 0.055457 0.017073
0.079909 0.047557 -0.010806
0.111301 0.028465 0.009437
0.167554 -0.003986 -0.030851
0.243717 -0.046843 -0.052497
0.340467 -0.066223 -0.071209
0.450262 -0.081614 -0.089220
0.562641 -0.085241 -0.107318
0.669277 -0.049434 -0.125555
0.764831 0.085186 -0.143653
0.853933 0.141908 -0.162252
0.935807 0.198932 -0.181145
1.007075 0.252695 -0.199088
1.037575 0.306546 -0.211444
1.038183 0.363727 -0.220707
0.063253 0.110694 -0.009534
0.100183 0.109973 -0.021942
0.132313 0.105479 -0.052794
0.168597 0.089986 -0.057602
0.213145 0.064881 -0.053722
0.290127 0.031309 -0.063681
0.388246 -0.030030 -0.080610
0.493004 0.023571 -0.097956
0.598154 0.055488 -0.115463
0.696256 0.090545 -0.132814
0.785454 0.129709 -0.150104
0.869539 0.174459 -0.167888
0.949847 0.225198 -0.186467
1.018519 0.273962 -0.203761
1.037812 0.325185 -0.214349
1.037943 0.381718 -0.223749
0.106257 0.181314 -0.025123
0.148966 0.179855 -0.033435
0.182763 0.177740 -0.048916
0.231186 0.165694 -0.095483
0.277263 0.146461 -0.090676
0.344324 0.116092 -0.086879
0.445486 0.082918 -0.094452
0.550339 0.083622 -0.109962
0.645739 0.110766 -0.126655
0.733009 0.141974 -0.142989
0.812412 0.175386 -0.158997
0.889950 0.213239 -0.175637
0.964955 0.256753 -0.192901
1.026792 0.299582 -0.208732
1.038042 0.347337 -0.217925
1.037621 0.400373 -0.227033
0.174879 0.259562 -0.037461
0.214005 0.256750 -0.045778
0.244625 0.255693 -0.055769
0.296481 0.246291 -0.108167
0.347079 0.232894 -0.128170
0.406726 0.218175 -0.124097
0.491383 0.186619 -0.120076
0.598567 0.155860 -0.125791
0.697338 0.161308 -0.140090
0.778943 0.188330 -0.155557
0.848600 0.221214 -0.170396
0.916661 0.255733 -0.185500
0.981569 0.293745 -0.200677
1.032779 0.330707 -0.214446
1.038051 0.373108 -0.222301
1.037249 0.422560 -0.231144
0.265253 0.341176 -0.053493
0.296370 0.338867 -0.061265
0.322673 0.337571 -0.072540
0.369063 0.329784 -0.117926
0.420436 0.319169 -0.157864
0.474460 0.314063 -0.159989
0.543131 0.300358 -0.156862
0.630113 0.270925 -0.153632
0.730681 0.241969 -0.157746
0.819165 0.241816 -0.169335
0.886812 0.265117 -0.182622
0.946548 0.296722 -0.196184
1.000061 0.331937 -0.209656
1.034482 0.365869 -0.220512
1.037568 0.403737 -0.227631
1.036821 0.448338 -0.235986
0.361133 0.420049 -0.071882
0.383132 0.418637 -0.080091
0.405098 0.416801 -0.096009
0.444303 0.411466 -0.133909
0.489217 0.403363 -0.174268
0.540951 0.401729 -0.189561
0.600747 0.398127 -0.189493
0.669655 0.385350 -0.187681
0.749081 0.356628 -0.185133
0.834657 0.325087 -0.186762
0.917136 0.318875 -0.195910
0.978458 0.339527 -0.207702
1.022769 0.369297 -0.219302
1.036620 0.401370 -0.227087
1.036997 0.437622 -0.233949
1.036201 0.479837 -0.242180
0.447190 0.503515 -0.090510
0.465686 0.501922 -0.102813
0.483934 0.500845 -0.117831
0.516886 0.496727 -0.149077
0.559873 0.490110 -0.187951
0.614112 0.487194 -0.213939
0.664619 0.486167 -0.216931
0.720028 0.481770 -0.217282
0.783131 0.465942 -0.215830
0.850054 0.434977 -0.212865
0.924150 0.401060 -0.212697
1.000021 0.391045 -0.219974
1.033410 0.411856 -0.228567
1.036930 0.441273 -0.234620
1.036311 0.474380 -0.241101
1.035498 0.514311 -0.249141
0.526125 0.591362 -0.111076
0.543893 0.590313 -0.124815
0.558273 0.589514 -0.137076
0.587205 0.586213 -0.163982
0.630550 0.580140 -0.203168
0.682478 0.574661 -0.234711
0.730744 0.572669 -0.242153
0.775364 0.570604 -0.243279
0.824962 0.560065 -0.242648
0.877508 0.540361 -0.240583
0.933571 0.509742 -0.237518
1.000021 0.475535 -0.236471
1.032372 0.462404 -0.238167
1.036153 0.482273 -0.242667
1.035554 0.511738 -0.248643
1.034772 0.547571 -0.256068
0.606936 0.671340 -0.140934
0.622301 0.671544 -0.153828
0.633955 0.671270 -0.164100
0.658355 0.669007 -0.186557
0.698280 0.664222 -0.221688
0.744955 0.658838 -0.252870
0.793200 0.656198 -0.265104
0.830339 0.651254 -0.265951
0.868566 0.644296 -0.265960
0.910374 0.631840 -0.265015
0.956350 0.612963 -0.263275
1.004897 0.582170 -0.260166
1.031252 0.548233 -0.255751
1.035199 0.529101 -0.252199
1.034719 0.549871 -0.256573
1.034029 0.582362 -0.263491
0.690329 0.742114 -0.181324
0.700623 0.743450 -0.189865
0.723436 0.739352 -0.211444
0.740083 0.738766 -0.225566
0.770079 0.735608 -0.249616
0.807621 0.733014 -0.272411
0.851649 0.730255 -0.284764
0.886766 0.724621 -0.286248
0.917044 0.720468 -0.286779
0.949822 0.712659 -0.286630
0.986283 0.701264 -0.285910
1.020499 0.681408 -0.284176
1.031531 0.659791 -0.280512
1.032869 0.628091 -0.273450
1.033390 0.606633 -0.268788
1.033090 0.619634 -0.271626
0.786756 0.819256 -0.231924
0.810183 0.815741 -0.252179
0.821047 0.815291 -0.260649
0.834104 0.812927 -0.270741
0.848820 0.807228 -0.281919
0.878017 0.804807 -0.295622
0.915893 0.803888 -0.304975
0.948751 0.799447 -0.306750
0.972086 0.793549 -0.306707
0.996780 0.788571 -0.306882
1.018258 0.778491 -0.306503
1.027598 0.766220 -0.304598
1.029133 0.754697 -0.302097
1.029835 0.732912 -0.297126
1.030765 0.703063 -0.290321
1.031448 0.680016 -0.285143
0.876642 0.879494 -0.280761
0.897568 0.875896 -0.295771
0.904609 0.876299 -0.300093
0.916380 0.876189 -0.306202
0.928897 0.873461 -0.311823
0.951351 0.871735 -0.318865
0.980613 0.870926 -0.324182
1.008574 0.866103 -0.325641
1.021027 0.859266 -0.325190
1.023823 0.854218 -0.324371
1.025183 0.847781 -0.323046
1.025992 0.839516 -0.321297
1.026330 0.832241 -0.319652
1.026829 0.818230 -0.316581
1.027581 0.798310 -0.312015
1.028415 0.775455 -0.306868
0.960263 0.931531 -0.320387
0.976666 0.932777 -0.327184
0.982101 0.934122 -0.328867
0.991789 0.934259 -0.331758
1.001704 0.930941 -0.335454
1.013836 0.927852 -0.336892
1.021236 0.926031 -0.337385
1.021975 0.924348 -0.337299
1.022469 0.920715 -0.336925
1.022632 0.916656 -0.336492
1.022832 0.912443 -0.335978
1.023091 0.907677 -0.335290
1.023473 0.899267 -0.334007
1.023894 0.890399 -0.332280
1.024407 0.878288 -0.329757
1.025096 0.861931 -0.326196
0.006242 0.004917 0.031800
0.006176 0.004933 0.031442
0.006274 0.005258 0.031391
0.022248 0.009646 0.031135
0.100628 -0.023630 0.030449
0.196015 -0.044043 -0.021305
0.299638 -0.063850 -0.061270
0.407342 -0.081720 -0.081792
0.524983 -0.095980 -0.100685
0.638059 -0.092018 -0.119268
0.739340 0.035988 -0.137709
0.830299 0.112144 -0.156104
0.912507 0.169073 -0.174301
0.989553 0.225916 -0.192758
1.036635 0.282800 -0.207921
1.038414 0.346690 -0.217892
0.008916 0.010951 0.044524
0.009070 0.010957 0.045313
0.009227 0.011914 0.044889
0.031343 0.016475 0.040876
0.114101 -0.018011 0.037409
0.198296 -0.039458 0.019283
0.300504 -0.061982 -0.059372
0.415026 -0.080094 -0.083149
0.532568 -0.090455 -0.102228
0.644758 -0.077029 -0.120922
0.745241 0.062241 -0.139379
0.835442 0.123195 -0.157703
0.916405 0.176655 -0.175667
0.991236 0.231185 -0.193710
1.036779 0.286574 -0.208484
1.038380 0.350044 -0.218421
0.006550 0.026208 0.054776
0.006598 0.027876 0.057414
0.018924 0.027904 0.059010
0.066411 0.025953 0.056331
0.133186 0.024345 0.042763
0.217508 0.008595 0.019801
0.317380 -0.047066 -0.062660
0.430463 -0.067045 -0.086284
0.547368 -0.069821 -0.105450
0.657562 0.024555 -0.124077
0.755227 0.089923 -0.142334
0.843817 0.140545 -0.160491
0.923321 0.190384 -0.178168
0.996775 0.241980 -0.195883
1.036851 0.295211 -0.209726
1.038282 0.356646 -0.219534
-0.002057 0.063943 0.051224
0.013062 0.063326 0.053115
0.062535 0.057721 0.052000
0.110454 0.043510 0.048870
0.164339 0.041255 0.042375
0.242573 0.039330 0.014922
0.340234 0.034217 -0.068422
0.449851 0.028619 -0.090960
0.562260 0.041699 -0.109307
0.668294 0.074572 -0.127421
0.763232 0.114470 -0.145278
0.852185 0.160509 -0.163661
0.934156 0.212278 -0.182419
1.005502 0.261829 -0.200036
1.037351 0.312536 -0.212342
1.038119 0.367742 -0.221396
0.012504 0.121460 0.043385
0.061896 0.120912 0.038689
0.107001 0.117969 0.037508
0.162237 0.103684 0.011601
0.209341 0.084697 0.026660
0.287173 0.070501 -0.033538
0.385291 0.070715 -0.078169
0.490542 0.082397 -0.100690
0.595973 0.098334 -0.118032
0.694124 0.121950 -0.135023
0.783601 0.152733 -0.151979
0.868227 0.191661 -0.169582
0.945712 0.237952 -0.187379
1.013907 0.282934 -0.204280
1.037570 0.330619 -0.215169
1.037913 0.383467 -0.224082
0.068353 0.190669 0.015623
0.117151 0.189773 0.007837
0.162746 0.187063 -0.026362
0.221746 0.175695 -0.085146
0.271986 0.162162 -0.092431
0.339688 0.138552 -0.085192
0.440785 0.115754 -0.094445
0.544668 0.120991 -0.112854
0.639728 0.143671 -0.129530
0.728078 0.168595 -0.145479
0.809654 0.196588 -0.161260
0.888412 0.230054 -0.177621
0.961634 0.270526 -0.194341
1.024240 0.310340 -0.209928
1.037971 0.354363 -0.219098
1.037557 0.404074 -0.227737
0.129496 0.271391 -0.030539
0.183274 0.268174 -0.038302
0.220985 0.266360 -0.046509
0.282359 0.257056 -0.086912
0.341479 0.243243 -0.131689
0.402641 0.230599 -0.128251
0.488117 0.204273 -0.123848
0.595841 0.180894 -0.129413
0.692425 0.188283 -0.143317
0.772126 0.213204 -0.158207
0.843449 0.241857 -0.172751
0.913414 0.272708 -0.187604
0.981220 0.308153 -0.202880
1.032415 0.342773 -0.216302
1.037976 0.383147 -0.223991
1.037123 0.429692 -0.232422
0.227585 0.356495 -0.046048
0.267623 0.352709 -0.053513
0.297858 0.351277 -0.060656
0.352029 0.343116 -0.093141
0.411185 0.327194 -0.153115
0.471048 0.323131 -0.163072
0.540132 0.311037 -0.160171
0.628817 0.284309 -0.156922
0.728944 0.259786 -0.160931
0.813817 0.262867 -0.172162
0.881420 0.284934 -0.185120
0.943221 0.314152 -0.198561
1.001638 0.347711 -0.212530
1.034476 0.380335 -0.223033
1.037339 0.417009 -0.230104
1.036584 0.459305 -0.238127
0.329111 0.435740 -0.063360
0.359126 0.432736 -0.070427
0.383027 0.431147 -0.077206
0.426579 0.425051 -0.109680
0.481532 0.414240 -0.163939
0.537841 0.408767 -0.190890
0.598086 0.405853 -0.191821
0.667417 0.394143 -0.190106
0.748799 0.367788 -0.187865
0.834099 0.340463 -0.189862
0.913590 0.336866 -0.198724
0.974752 0.356592 -0.210262
1.022616 0.384865 -0.222036
1.036355 0.415605 -0.229671
1.036794 0.449787 -0.236286
1.036022 0.490091 -0.244235
0.429338 0.514264 -0.082656
0.450485 0.512343 -0.090020
0.469436 0.510896 -0.101862
0.504673 0.506848 -0.132629
0.550565 0.500320 -0.176054
0.603499 0.493827 -0.211287
0.658534 0.493283 -0.218773
0.716102 0.489375 -0.219232
0.778939 0.475562 -0.218146
0.847307 0.447229 -0.215588
0.921256 0.416331 -0.215609
0.997394 0.407069 -0.222438
1.032609 0.425239 -0.230952
1.036837 0.452135 -0.236730
1.036135 0.483136 -0.242816
1.035353 0.521090 -0.250554
0.521131 0.596268 -0.106274
0.538879 0.595281 -0.118786
0.554098 0.594508 -0.131267
0.583080 0.591361 -0.157812
0.622956 0.587061 -0.194191
0.670806 0.579601 -0.229769
0.724969 0.578596 -0.243350
0.771384 0.576669 -0.244753
0.821795 0.569070 -0.244818
0.875813 0.552074 -0.243414
0.932701 0.523224 -0.240556
0.996885 0.491695 -0.239487
1.031385 0.478244 -0.241211
1.035948 0.493777 -0.244958
1.035375 0.520149 -0.250340
1.034623 0.554097 -0.257445
0.600489 0.675490 -0.134080
0.616357 0.675758 -0.146844
0.628386 0.675620 -0.157266
0.652907 0.673121 -0.179778
0.690620 0.668826 -0.213833
0.734734 0.661169 -0.247635
0.786752 0.659896 -0.264817
0.826350 0.654840 -0.266645
0.864793 0.648590 -0.266880
0.907450 0.637349 -0.266236
0.953649 0.619590 -0.264637
1.001536 0.591030 -0.261823
1.030360 0.559065 -0.257976
1.034971 0.539900 -0.254460
1.034542 0.558425 -0.258367
1.033813 0.589389 -0.265027
0.683068 0.745332 -0.173453
0.695207 0.746070 -0.183716
0.704731 0.746484 -0.192062
0.725477 0.744864 -0.210783
0.758702 0.741084 -0.239438
0.797468 0.735819 -0.267148
0.846070 0.735326 -0.284384
0.884182 0.729798 -0.287307
0.913106 0.722911 -0.287162
0.945716 0.715641 -0.287100
0.982082 0.704633 -0.286454
1.018790 0.684350 -0.284747
1.031293 0.658579 -0.280241
1.032990 0.624735 -0.272762
1.033430 0.605062 -0.268437
1.032936 0.626812 -0.273181
0.774791 0.824385 -0.219605
0.795523 0.821754 -0.238255
0.803409 0.822099 -0.244474
0.818730 0.820318 -0.257152
0.842349 0.816424 -0.275294
0.873290 0.813965 -0.293268
0.912273 0.813460 -0.305493
0.947398 0.808753 -0.308778
0.972667 0.802127 -0.308673
0.996930 0.797642 -0.308884
1.017574 0.787997 -0.308666
1.027331 0.775696 -0.306840
1.029057 0.758570 -0.303051
1.029744 0.735566 -0.297798
1.030666 0.706016 -0.291017
1.031365 0.683335 -0.285889
0.869453 0.882435 -0.274645
0.889708 0.878777 -0.290032
0.896893 0.878831 -0.294678
0.907884 0.877773 -0.301665
0.920287 0.874505 -0.308220
0.943687 0.872696 -0.316828
0.974485 0.872702 -0.323611
1.004831 0.869993 -0.326135
1.020375 0.863996 -0.326182
1.023699 0.858109 -0.325194
1.025027 0.851778 -0.323956
1.025837 0.843685 -0.322225
1.026156 0.835630 -0.320414
1.026706 0.821818 -0.317393
1.027449 0.802170 -0.312937
1.028330 0.778772 -0.307618
0.959327 0.935116 -0.287787
0.976477 0.934755 -0.295521
0.981714 0.935914 -0.293052
0.991751 0.935660 -0.297974
1.000542 0.932823 -0.311858
1.012918 0.929422 -0.318371
1.021067 0.927999 -0.319286
1.021776 0.926214 -0.320379
1.022337 0.922931 -0.320707
1.022523 0.918336 -0.319292
1.022747 0.914176 -0.318023
1.022983 0.909266 -0.318503
1.023273 0.903207 -0.328480
1.023689 0.894515 -0.332855
1.024247 0.881938 -0.330460
1.024927 0.865509 -0.327011
0.012715 0.011769 0.064806
0.012696 0.011632 0.064738
0.012565 0.011818 0.063957
0.015295 0.013220 0.061632
0.046057 0.021596 0.058887
0.132682 -0.030654 0.073370
0.251341 -0.054950 0.056061
0.385825 -0.075763 -0.052364
0.514645 -0.075311 -0.097351
0.632501 0.005791 -0.119648
0.732867 0.098274 -0.139191
0.824004 0.146603 -0.157815
0.905894 0.191956 -0.175599
0.981548 0.240180 -0.193239
1.036175 0.290480 -0.208936
1.038357 0.351217 -0.218634
0.014900 0.020087 0.075221
0.014573 0.019187 0.073508
0.014591 0.019379 0.073456
0.022809 0.022454 0.071930
0.061335 0.031287 0.067288
0.160269 -0.031033 0.079583
0.277032 -0.054483 0.060190
0.405955 -0.064507 -0.056423
0.528766 -0.037059 -0.100515
0.641133 0.072255 -0.122853
0.740528 0.116112 -0.141762
0.831095 0.156539 -0.159921
0.909544 0.199355 -0.177007
0.984194 0.245986 -0.194369
1.036087 0.294870 -0.209537
1.038289 0.355738 -0.219351
0.015045 0.038404 0.093121
0.014943 0.040172 0.095459
0.015521 0.041224 0.098076
0.037615 0.043164 0.095302
0.094880 0.046478 0.087671
0.195936 0.039562 0.084523
0.302856 0.047022 0.062663
0.423500 0.052518 -0.049770
0.541889 0.078401 -0.104355
0.651001 0.106847 -0.126778
0.748221 0.136835 -0.144849
0.837140 0.173081 -0.162571
0.917705 0.213919 -0.180017
0.992417 0.258420 -0.197236
1.036325 0.306241 -0.211230
1.038156 0.364663 -0.220844
0.009236 0.068350 0.104021
0.008722 0.069322 0.101738
0.011908 0.071133 0.103682
0.080217 0.069973 0.103000
0.148691 0.069913 0.096221
0.229515 0.071592 0.083219
0.333525 0.075555 0.057292
0.445240 0.091599 -0.064170
0.557783 0.107063 -0.109792
0.662451 0.127696 -0.130534
0.754472 0.155752 -0.147822
0.843149 0.191438 -0.165642
0.929558 0.234715 -0.184506
1.002624 0.278204 -0.201799
1.036973 0.324438 -0.214127
1.038007 0.377142 -0.222987
-0.003495 0.129840 0.107167
-0.004324 0.130450 0.101838
0.027871 0.130845 0.102050
0.121072 0.122509 0.103960
0.194882 0.107771 0.099678
0.277486 0.105809 0.088240
0.376797 0.113424 0.063124
0.483810 0.129285 -0.065734
0.589998 0.144579 -0.117727
0.688053 0.163958 -0.138547
0.776125 0.188853 -0.155193
0.860855 0.220720 -0.172159
0.942080 0.260797 -0.190002
1.011279 0.300344 -0.206400
1.037190 0.343296 -0.217124
1.037752 0.393100 -0.225770
-0.016488 0.205726 0.090961
0.026761 0.205349 0.094645
0.086425 0.203570 0.089761
0.174876 0.195732 0.085400
0.255145 0.182163 0.070546
0.326899 0.164474 0.078195
0.427832 0.154992 0.066851
0.531132 0.167554 -0.053871
